Edkamb/ConfLiftingaaS/DTProject/experiments/fourth_experiment/test_results/ur5e_actual.csv
timestamp target_q_0 target_q_1 target_q_2 target_q_3 target_q_4 target_q_5 target_qd_0 target_qd_1 target_qd_2 target_qd_3 target_qd_4 target_qd_5 target_qdd_0 target_qdd_1 target_qdd_2 target_qdd_3 target_qdd_4 target_qdd_5 target_current_0 target_current_1 target_current_2 target_current_3 target_current_4 target_current_5 target_moment_0 target_moment_1 target_moment_2 target_moment_3 target_moment_4 target_moment_5 actual_q_0 actual_q_1 actual_q_2 actual_q_3 actual_q_4 actual_q_5 actual_qd_0 actual_qd_1 actual_qd_2 actual_qd_3 actual_qd_4 actual_qd_5 actual_current_0 actual_current_1 actual_current_2 actual_current_3 actual_current_4 actual_current_5 joint_control_output_0 joint_control_output_1 joint_control_output_2 joint_control_output_3 joint_control_output_4 joint_control_output_5 actual_TCP_pose_0 actual_TCP_pose_1 actual_TCP_pose_2 actual_TCP_pose_3 actual_TCP_pose_4 actual_TCP_pose_5 actual_TCP_speed_0 actual_TCP_speed_1 actual_TCP_speed_2 actual_TCP_speed_3 actual_TCP_speed_4 actual_TCP_speed_5 actual_TCP_force_0 actual_TCP_force_1 actual_TCP_force_2 actual_TCP_force_3 actual_TCP_force_4 actual_TCP_force_5 target_TCP_pose_0 target_TCP_pose_1 target_TCP_pose_2 target_TCP_pose_3 target_TCP_pose_4 target_TCP_pose_5 target_TCP_speed_0 target_TCP_speed_1 target_TCP_speed_2 target_TCP_speed_3 target_TCP_speed_4 target_TCP_speed_5 actual_digital_input_bits joint_temperatures_0 joint_temperatures_1 joint_temperatures_2 joint_temperatures_3 joint_temperatures_4 joint_temperatures_5 actual_execution_time robot_mode joint_mode_0 joint_mode_1 joint_mode_2 joint_mode_3 joint_mode_4 joint_mode_5 safety_mode actual_tool_accelerometer_0 actual_tool_accelerometer_1 actual_tool_accelerometer_2 speed_scaling target_speed_fraction actual_momentum actual_main_voltage actual_robot_voltage actual_robot_current actual_joint_voltage_0 actual_joint_voltage_1 actual_joint_voltage_2 actual_joint_voltage_3 actual_joint_voltage_4 actual_joint_voltage_5 actual_digital_output_bits runtime_state
16660.333 -2.666677 -2.0663800000000005 2.3151730000000006 -2.248468 -0.8907210000000001 -0.9420859999999998 0.0 0.0 0.0 0.0 0.0 0.0 0.0 0.0 0.0 0.0 0.0 0.0 0.2335409370974423 -1.381547639349126 -1.5113385409645181 -0.3502988530210468 -6.585771218453315e-06 0.0 2.683187891629248 -14.71782964286138 -17.180123984699684 -2.547161476370634 -5.083006937608237e-05 0.0 -2.6666815916644495 -2.066348215142721 2.3151634375201624 -2.2484737835326136 -0.8907764593707483 -0.9420660177813929 0.0 0.0 -0.0 -0.0 -0.0 0.0 0.5568728446960449 -1.6879827976226807 -1.2792538404464722 -0.43483245372772217 -0.03454568609595299 0.028087884187698364 0.2335409370974423 -1.381547639349126 -1.5113385409645181 -0.3502988530210468 -6.585771218453315e-06 0.0 0.17469376685135793 0.4192415782925714 0.30273409463968354 -2.361393525718489 -0.014608422293542802 0.001521251336431913 0.0 0.0 0.0 0.0 0.0 0.0 12.2066530440614 -12.40535912506326 1.4123444752196725 0.27865327172350124 0.1958592367922009 0.10773369236054442 0.1746769280968488 0.4192468359229866 0.3027467533030364 -2.3613411376090006 -0.014660099016828493 0.0015352698068651608 0.0 0.0 0.0 0.0 0.0 0.0 768 30.5 31.25 30.375 34.5625 36.875 37.125 0.597877 7 253 253 253 253 253 253 1 -0.09576806426048279 0.15322890877723694 -10.017339706420898 0.0 1.0 0.0 47.75584411621094 47.77107238769531 0.5136224627494812 47.6995964050293 47.6279296875 47.6279296875 47.64226531982422 47.584930419921875 47.54193115234375 3840 1
16660.353 -2.666677 -2.0663800000000005 2.3151730000000006 -2.248468 -0.8907210000000001 -0.9420859999999998 0.0 0.0 0.0 0.0 0.0 0.0 0.0 0.0 0.0 0.0 0.0 0.0 0.23361639968128076 -1.3814733241508526 -1.5113849176809204 -0.35031343334209364 2.04659541633295e-05 0.0 2.684054892908522 -14.717037952153865 -17.180651171505417 -2.547267495650353 0.00015795961254391617 0.0 -2.6666696707354944 -2.0664078197874964 2.3151405493365687 -2.248510023156637 -0.8907049337970179 -0.9420660177813929 0.0 0.0 -0.0 -0.0 -0.0 0.0 0.5451972484588623 -1.619001865386963 -1.260806679725647 -0.4408074617385864 -0.028473645448684692 0.02018824778497219 0.23361639968128076 -1.3814733241508526 -1.5113849176809204 -0.35031343334209364 2.04659541633295e-05 0.0 0.17467978816252505 0.4192547657592486 0.3027836845746126 -2.3612816288960214 -0.014693897699136168 0.0014522400250405597 0.0 0.0 0.0 0.0 0.0 0.0 12.28702559010968 -12.265551219298008 1.313294375798737 0.28033188339155396 0.20020547971244262 0.11202927565858259 0.1746769280968488 0.4192468359229866 0.3027467533030364 -2.3613411376090006 -0.014660099016828493 0.0015352698068651608 0.0 0.0 0.0 0.0 0.0 0.0 768 30.5 31.25 30.375 34.5625 36.875 37.125 0.596101 7 253 253 253 253 253 253 1 -0.038307227194309235 0.05746084079146385 -9.979032516479492 0.0 1.0 0.0 47.77375411987305 47.80331039428711 0.5561404824256897 47.71392822265625 47.64226531982422 47.65659713745117 47.64226531982422 47.584930419921875 47.5275993347168 3840 1
16660.373 -2.666677 -2.0663800000000005 2.3151730000000006 -2.248468 -0.8907210000000001 -0.9420859999999998 0.0 0.0 0.0 0.0 0.0 0.0 0.0 0.0 0.0 0.0 0.0 0.0 0.2335417378485929 -1.3814919024055956 -1.5113138841287657 -0.35029124425578223 9.573957536962838e-06 0.0 2.683197091582876 -14.717235869026641 -17.179843698394652 -2.5471061500297183 7.389338464171211e-05 0.0 -2.6666815916644495 -2.0663839779295863 2.3151405493365687 -2.2484623394408167 -0.890716854725973 -0.9421017805682581 0.0 0.0 -0.0 -0.0 -0.0 0.0 0.4827634394168854 -1.6712706089019775 -1.2351056337356567 -0.4407092034816742 -0.020897522568702698 0.023046640679240227 0.2335417378485929 -1.3814919024055956 -1.5113138841287657 -0.35029124425578223 9.573957536962838e-06 0.0 0.17468379591508215 0.4192494857934846 0.3027655789298105 -2.361323778481445 -0.014687738055850594 0.0014958469706205704 0.0 0.0 0.0 0.0 0.0 0.0 12.192422097195893 -12.412544696362804 1.3214958670918246 0.2768348765913195 0.20096266233864937 0.11041211657269254 0.1746769280968488 0.4192468359229866 0.3027467533030364 -2.3613411376090006 -0.014660099016828493 0.0015352698068651608 0.0 0.0 0.0 0.0 0.0 0.0 768 30.5 31.25 30.375 34.5625 36.875 37.125 0.597769 7 253 253 253 253 253 253 1 -0.15322890877723694 0.07661445438861847 -9.979032516479492 0.0 1.0 0.0 47.80241775512695 47.81853485107422 0.5091454982757568 47.742591857910156 47.6995964050293 47.68526077270508 47.68526077270508 47.6279296875 47.599266052246094 3840 1
16660.393 -2.666677 -2.0663800000000005 2.3151730000000006 -2.248468 -0.8907210000000001 -0.9420859999999998 0.0 0.0 0.0 0.0 0.0 0.0 0.0 0.0 0.0 0.0 0.0 0.0 0.23356558247153025 -1.38151962945925 -1.511350965232059 -0.350298968744044 -2.077091230978151e-06 0.0 2.683471046138086 -14.717531249396135 -17.18026521742219 -2.547162317838306 -1.6031332985761868e-05 0.0 -2.6666935125934046 -2.066348215142721 2.3151758352862757 -2.2484499416747035 -0.890716854725973 -0.9421141783343714 0.0 0.0 -0.0 -0.0 -0.0 0.0 0.5406485795974731 -1.6356565952301025 -1.249178171157837 -0.44881385564804077 -0.02886425331234932 0.01746198907494545 0.23356558247153025 -1.38151962945925 -1.511350965232059 -0.350298968744044 -2.077091230978151e-06 0.0 0.17468443006402165 0.419245125494931 0.30273166879863017 -2.3613616897373877 -0.014652294668026082 0.0015718813656971178 0.0 0.0 0.0 0.0 0.0 0.0 12.326889281830875 -12.442051284158165 1.3306608974764913 0.27704789380963085 0.19897411736417842 0.11104868390133199 0.1746769280968488 0.4192468359229866 0.3027467533030364 -2.3613411376090006 -0.014660099016828493 0.0015352698068651608 0.0 0.0 0.0 0.0 0.0 0.0 768 30.5 31.25 30.375 34.5625 36.875 37.125 0.597565 7 253 253 253 253 253 253 1 -0.1149216741323471 0.1149216815829277 -9.90241813659668 0.0 1.0 0.0 47.77375411987305 47.80331039428711 0.49571460485458374 47.6995964050293 47.64226531982422 47.65659713745117 47.64226531982422 47.599266052246094 47.54193115234375 3840 1
16660.413 -2.666677 -2.0663800000000005 2.3151730000000006 -2.248468 -0.8907210000000001 -0.9420859999999998 0.0 0.0 0.0 0.0 0.0 0.0 0.0 0.0 0.0 0.0 0.0 0.0 0.23357102679939357 -1.381344116152453 -1.5113078873863155 -0.35028968250098746 -7.70183689939777e-06 0.0 2.683533596861666 -14.71566148039511 -17.179775530491824 -2.5470947938930526 -5.944404853037106e-05 0.0 -2.6666935125934046 -2.066372057000631 2.3151519934283655 -2.248486181298727 -0.8907406965838831 -0.9421017805682581 0.0 0.0 -0.0 -0.0 -0.0 0.0 0.5456475615501404 -1.6180169582366943 -1.2769081592559814 -0.45445722341537476 -0.02045980654656887 0.020369691774249077 0.23357102679939357 -1.381344116152453 -1.5113078873863155 -0.35028968250098746 -7.70183689939777e-06 0.0 0.17469432891867534 0.4192450670584214 0.3027558437763407 -2.3613427613798526 -0.014667222463124952 0.0014729802418122348 0.0 0.0 0.0 0.0 0.0 0.0 12.252148951176503 -12.39623215991943 1.3011319699601858 0.2750576547546566 0.1994918247414845 0.11072989709814407 0.1746769280968488 0.4192468359229866 0.3027467533030364 -2.3613411376090006 -0.014660099016828493 0.0015352698068651608 0.0 0.0 0.0 0.0 0.0 0.0 768 30.5 31.25 30.375 34.5625 36.875 37.125 0.594276 7 253 253 253 253 253 253 1 -0.13407529890537262 0.1149216815829277 -9.979032516479492 0.0 1.0 0.0 47.7585334777832 47.77286148071289 0.5248122811317444 47.71392822265625 47.599266052246094 47.6279296875 47.6279296875 47.599266052246094 47.51326370239258 3840 1
16660.433 -2.666677 -2.0663800000000005 2.3151730000000006 -2.248468 -0.8907210000000001 -0.9420859999999998 0.0 0.0 0.0 0.0 0.0 0.0 0.0 0.0 0.0 0.0 0.0 0.0 0.2335721023019323 -1.3814149279471304 -1.5113466717747868 -0.3502977541213389 -1.3182637922695177e-06 0.0 2.6835459534764214 -14.716415848830248 -17.1802164115946 -2.5471534858363283 -1.0174577554301059e-05 0.0 -2.6666815916644495 -2.066336294213766 2.315188233052389 -2.2484499416747035 -0.8907049337970179 -0.9420903364764612 0.0 0.0 -0.0 -0.0 -0.0 0.0 0.5401235818862915 -1.644309639930725 -1.2702558040618896 -0.4468578100204468 -0.028788287192583084 0.028698815032839775 0.2335721023019323 -1.3814149279471304 -1.5113466717747868 -0.3502977541213389 -1.3182637922695177e-06 0.0 0.17467656472125728 0.41924833761098046 0.3027224123972624 -2.36136319596236 -0.014631091307573722 0.0016232088885418442 0.0 0.0 0.0 0.0 0.0 0.0 12.316162472063548 -12.532809706768674 1.299070995429899 0.2788384051082069 0.2000798805659895 0.1117971416427096 0.1746769280968488 0.4192468359229866 0.3027467533030364 -2.3613411376090006 -0.014660099016828493 0.0015352698068651608 0.0 0.0 0.0 0.0 0.0 0.0 768 30.5 31.25 30.375 34.5625 36.875 37.125 0.59862 7 253 253 253 253 253 253 1 -0.1149216815829277 0.0 -9.979032516479492 0.0 1.0 0.0 47.743309020996094 47.78181838989258 0.4934787452220917 47.6995964050293 47.6279296875 47.65659713745117 47.6279296875 47.570594787597656 47.54193115234375 3840 1
16660.452999999998 -2.666677 -2.0663800000000005 2.3151730000000006 -2.248468 -0.8907210000000001 -0.9420859999999998 0.0 0.0 0.0 0.0 0.0 0.0 0.0 0.0 0.0 0.0 0.0 0.0 0.23354672658440687 -1.3814329780161376 -1.5113911650989087 -0.35030403227256285 -3.19327820518046e-06 0.0 2.683254407939044 -14.716608138862908 -17.180722188959624 -2.5471991367564 -2.464624830143653e-05 0.0 -2.6666696707354944 -2.066372057000631 2.3151519934283655 -2.248498102227682 -0.890716854725973 -0.942077938710348 0.0 0.0 -0.0 -0.0 -0.0 0.0 0.5722358822822571 -1.6293078660964966 -1.2585290670394897 -0.44775277376174927 -0.0311729796230793 0.025659998878836632 0.23354672658440687 -1.3814329780161376 -1.5113911650989087 -0.35030403227256285 -3.19327820518046e-06 0.0 0.17468221203484688 0.41925337913603444 0.3027612595306385 -2.3613180543544727 -0.014679105838106912 0.0015003301636946796 0.0 0.0 0.0 0.0 0.0 0.0 12.220671816546414 -12.203458485028335 1.4353999713643937 0.27721978079795273 0.19743823906702893 0.1086326750383548 0.1746769280968488 0.4192468359229866 0.3027467533030364 -2.3613411376090006 -0.014660099016828493 0.0015352698068651608 0.0 0.0 0.0 0.0 0.0 0.0 768 30.5 31.25 30.375 34.5625 36.875 37.125 0.594888 7 253 253 253 253 253 253 1 -0.019153613597154617 0.24899697303771973 -9.84495735168457 0.0 1.0 0.0 47.77196502685547 47.80241775512695 0.5941867828369141 47.6995964050293 47.6279296875 47.6279296875 47.64226531982422 47.599266052246094 47.54193115234375 3840 1
16660.472999999998 -2.666677 -2.0663800000000005 2.3151730000000006 -2.248468 -0.8907210000000001 -0.9420859999999998 0.0 0.0 0.0 0.0 0.0 0.0 0.0 0.0 0.0 0.0 0.0 0.0 0.23353821636107736 -1.3813561989293384 -1.511241863982054 -0.3502837802843198 -3.193294387904617e-06 0.0 2.6831566326689926 -14.71579019998953 -17.179025010181277 -2.5470518765417927 -2.4646373202372852e-05 0.0 -2.6666815916644495 -2.066348215142721 2.3151634375201624 -2.2484623394408167 -0.890716854725973 -0.9420540968524378 0.0 0.0 -0.0 -0.0 -0.0 0.0 0.5640050172805786 -1.6613786220550537 -1.2501658201217651 -0.4382323622703552 -0.03318452835083008 0.028828410431742668 0.23353821636107736 -1.3813561989293384 -1.511241863982054 -0.3502837802843198 -3.193294387904617e-06 0.0 0.1746834992984065 0.4192493246993384 0.30274059395336456 -2.361350751125177 -0.014606161695697997 0.0015807804812898116 0.0 0.0 0.0 0.0 0.0 0.0 12.210249966665272 -12.288819507274543 1.2092292664279096 0.27965739498282144 0.19675934463167513 0.10519341408479302 0.1746769280968488 0.4192468359229866 0.3027467533030364 -2.3613411376090006 -0.014660099016828493 0.0015352698068651608 0.0 0.0 0.0 0.0 0.0 0.0 768 30.5 31.25 30.375 34.5625 36.875 37.125 0.59466 7 253 253 253 253 253 253 1 0.038307227194309235 0.07661445438861847 -9.921571731567383 0.0 1.0 0.0 47.78361129760742 47.80778884887695 0.48228898644447327 47.71392822265625 47.65659713745117 47.670928955078125 47.65659713745117 47.584930419921875 47.54193115234375 3840 1
16660.493 -2.666677 -2.0663800000000005 2.3151730000000006 -2.248468 -0.8907210000000001 -0.9420859999999998 0.0 0.0 0.0 0.0 0.0 0.0 0.0 0.0 0.0 0.0 0.0 0.0 0.2335642088633116 -1.3815255536188098 -1.5113565171126597 -0.35030764808783643 -2.0772256818414795e-06 0.0 2.6834552645411383 -14.717594360336859 -17.18032832836291 -2.547225428779029 -1.6032370699718817e-05 0.0 -2.6667054335223597 -2.066336294213766 2.3151405493365687 -2.248486181298727 -0.8907049337970179 -0.942077938710348 0.0 0.0 -0.0 -0.0 -0.0 0.0 0.5498841404914856 -1.6044580936431885 -1.2644444704055786 -0.44362688064575195 -0.03833167627453804 0.011134613305330276 0.2335642088633116 -1.3815255536188098 -1.5113565171126597 -0.35030764808783643 -2.0772256818414795e-06 0.0 0.17470082522546168 0.4192515866346761 0.3027547866569188 -2.361325190855628 -0.014624605339284667 0.0015294372858752794 0.0 0.0 0.0 0.0 0.0 0.0 12.43404859150433 -12.25253442565193 1.4793815714499878 0.2710600685678845 0.2002711046388495 0.11394983869902675 0.1746769280968488 0.4192468359229866 0.3027467533030364 -2.3613411376090006 -0.014660099016828493 0.0015352698068651608 0.0 0.0 0.0 0.0 0.0 0.0 768 30.5 31.25 30.375 34.5625 36.875 37.125 0.599604 7 253 253 253 253 253 253 1 -0.07661445438861847 0.17238251864910126 -10.036493301391602 0.0 1.0 0.0 47.78718948364258 47.81495666503906 0.48676595091819763 47.71392822265625 47.64226531982422 47.670928955078125 47.65659713745117 47.570594787597656 47.570594787597656 3840 1
16660.513 -2.666677 -2.0663800000000005 2.3151730000000006 -2.248468 -0.8907210000000001 -0.9420859999999998 0.0 0.0 0.0 0.0 0.0 0.0 0.0 0.0 0.0 0.0 0.0 0.0 0.23355500935136747 -1.3813212655633416 -1.5113140504516405 -0.35029318368670037 -1.87743462700763e-05 0.0 2.683349569927748 -14.715418049717655 -17.179845589068073 -2.547120252398819 -0.00014490350359038008 0.0 -2.6666815916644495 -2.066360136071676 2.3151634375201624 -2.2484737835326136 -0.8907049337970179 -0.942077938710348 0.0 0.0 -0.0 -0.0 -0.0 0.0 0.5149356722831726 -1.6839851140975952 -1.2262123823165894 -0.438987672328949 -0.03816220536828041 0.015372538939118385 0.23355500935136747 -1.3813212655633416 -1.5113140504516405 -0.35029318368670037 -1.87743462700763e-05 0.0 0.17468161365657964 0.41925098307455566 0.3027483757867172 -2.3613302805499528 -0.014647764901984115 0.0015529983713625448 0.0 0.0 0.0 0.0 0.0 0.0 12.253250556083483 -12.250894364609213 1.3109573122538398 0.27584375644783754 0.19952716994399505 0.1104236172039531 0.1746769280968488 0.4192468359229866 0.3027467533030364 -2.3613411376090006 -0.014660099016828493 0.0015352698068651608 0.0 0.0 0.0 0.0 0.0 0.0 768 30.5 31.25 30.4375 34.5625 36.875 37.125 0.597204 7 253 253 253 253 253 253 1 -0.1149216815829277 0.15322890877723694 -9.883264541625977 0.0 1.0 0.0 47.75763702392578 47.775550842285156 0.5024327039718628 47.6995964050293 47.61359786987305 47.670928955078125 47.599266052246094 47.5562629699707 47.5275993347168 3840 1
16660.533 -2.666677 -2.0663800000000005 2.3151730000000006 -2.248468 -0.8907210000000001 -0.9420859999999998 0.0 0.0 0.0 0.0 0.0 0.0 0.0 0.0 0.0 0.0 0.0 0.0 0.233554328430706 -1.381331862861044 -1.5113239818066189 -0.35029017477980445 -9.576648882085851e-06 0.0 2.6833417467251146 -14.715530944284456 -17.17995848363487 -2.547098373446989 -7.391415688763137e-05 0.0 -2.6667173544513147 -2.066348215142721 2.3151519934283655 -2.2484623394408167 -0.8907049337970179 -0.942077938710348 0.0 0.0 -0.0 -0.0 -0.0 0.0 0.5554023385047913 -1.6592319011688232 -1.240741491317749 -0.4269316792488098 -0.035545412451028824 0.016491321846842766 0.233554328430706 -1.381331862861044 -1.5113239818066189 -0.35029017477980445 -9.576648882085851e-06 0.0 0.17469909129020342 0.4192459983840985 0.30274856996712196 -2.3613360033536517 -0.014600381703389329 0.0015481391667402952 0.0 0.0 0.0 0.0 0.0 0.0 12.226522021559292 -12.45119457514795 0.9884569023335379 0.2797767794105142 0.19708169415285132 0.1115307400486884 0.1746769280968488 0.4192468359229866 0.3027467533030364 -2.3613411376090006 -0.014660099016828493 0.0015352698068651608 0.0 0.0 0.0 0.0 0.0 0.0 768 30.5 31.25 30.4375 34.5625 36.875 37.125 0.597924 7 253 253 253 253 253 253 1 -0.09576806426048279 0.1149216815829277 -9.959878921508789 0.0 1.0 0.0 47.762115478515625 47.80509948730469 0.5516634583473206 47.71392822265625 47.64226531982422 47.670928955078125 47.670928955078125 47.584930419921875 47.54193115234375 3840 1
16660.553 -2.666677 -2.0663800000000005 2.3151730000000006 -2.248468 -0.8907210000000001 -0.9420859999999998 0.0 0.0 0.0 0.0 0.0 0.0 0.0 0.0 0.0 0.0 0.0 0.0 0.23352563789100284 -1.381475054456254 -1.511325672640513 -0.3503035401663701 3.1903240694584538e-06 0.0 2.683012116683835 -14.717056385351103 -17.179977704170277 -2.5471955584576826 2.4623447794295437e-05 0.0 -2.6666696707354944 -2.066360136071676 2.3151405493365687 -2.2484623394408167 -0.890728775654928 -0.9420903364764612 0.0 0.0 -0.0 -0.0 -0.0 0.0 0.5443898439407349 -1.6429157257080078 -1.2572157382965088 -0.43274205923080444 -0.038699857890605927 0.016664080321788788 0.23352563789100284 -1.381475054456254 -1.511325672640513 -0.3503035401663701 3.1903240694584538e-06 0.0 0.17468354695391322 0.41925140134856875 0.3027556123427402 -2.3613442248202343 -0.014674678922742563 0.0015239593239101297 0.0 0.0 0.0 0.0 0.0 0.0 11.884338596451713 -12.355876970717087 1.4732907290298352 0.27314705166582426 0.19583328867244448 0.10788240789717245 0.1746769280968488 0.4192468359229866 0.3027467533030364 -2.3613411376090006 -0.014660099016828493 0.0015352698068651608 0.0 0.0 0.0 0.0 0.0 0.0 768 30.5 31.25 30.4375 34.5625 36.875 37.125 0.594396 7 253 253 253 253 253 253 1 -0.15322890877723694 0.17238251864910126 -10.074800491333008 0.0 1.0 0.0 47.786293029785156 47.795249938964844 0.5964226126670837 47.71392822265625 47.6279296875 47.670928955078125 47.65659713745117 47.584930419921875 47.570594787597656 3840 1
16660.573 -2.666677 -2.0663800000000005 2.3151730000000006 -2.248468 -0.8907210000000001 -0.9420859999999998 0.0 0.0 0.0 0.0 0.0 0.0 0.0 0.0 0.0 0.0 0.0 0.0 0.2335508747199014 -1.3814967782234817 -1.5113571273619981 -0.35030246971976026 -8.460759204806177e-06 0.0 2.6833020665083303 -14.71728781182975 -17.18033526536545 -2.547187774817104 -6.530153615868035e-05 0.0 -2.6666696707354944 -2.066336294213766 2.3151758352862757 -2.248486181298727 -0.890716854725973 -0.9420660177813929 0.0 0.0 -0.0 -0.0 -0.0 0.0 0.5335533022880554 -1.6546363830566406 -1.254664421081543 -0.4379124939441681 -0.01996155083179474 0.010466235689818859 0.2335508747199014 -1.3814967782234817 -1.5113571273619981 -0.35030246971976026 -8.460759204806177e-06 0.0 0.17468028208828082 0.4192523578479333 0.30273371601257915 -2.36135066038879 -0.014634170440456949 0.001581403128293235 0.0 0.0 0.0 0.0 0.0 0.0 12.294961239078441 -12.351846220851485 1.3740074209158761 0.27474720135269126 0.19657505876311268 0.11167099344188482 0.1746769280968488 0.4192468359229866 0.3027467533030364 -2.3613411376090006 -0.014660099016828493 0.0015352698068651608 0.0 0.0 0.0 0.0 0.0 0.0 768 30.5 31.25 30.4375 34.5625 36.875 37.125 0.59436 7 253 253 253 253 253 253 1 -0.13407529890537262 0.1149216815829277 -10.074800491333008 0.0 1.0 0.0 47.788089752197266 47.82301330566406 0.5046685338020325 47.7282600402832 47.65659713745117 47.65659713745117 47.670928955078125 47.61359786987305 47.5562629699707 3840 1
16660.593 -2.666677 -2.0663800000000005 2.3151730000000006 -2.248468 -0.8907210000000001 -0.9420859999999998 0.0 0.0 0.0 0.0 0.0 0.0 0.0 0.0 0.0 0.0 0.0 0.0 0.2335724499075797 -1.3813931589834045 -1.5113925217249193 -0.3503069253376888 -7.70206119046721e-06 0.0 2.683549947171384 -14.716183940866676 -17.180737610390647 -2.547220173376914 -5.944577964586869e-05 0.0 -2.6666815916644495 -2.066372057000631 2.315104309712545 -2.248486181298727 -0.890728775654928 -0.942077938710348 0.0 0.0 -0.0 -0.0 -0.0 0.0 0.5556092858314514 -1.6830717325210571 -1.2609196901321411 -0.4315081238746643 -0.02431448921561241 0.02390204183757305 0.2335724499075797 -1.3813931589834045 -1.5113925217249193 -0.3503069253376888 -7.70206119046721e-06 0.0 0.17469745363250563 0.4192539537215382 0.302783724337636 -2.361311608245881 -0.014677082155926733 0.0014484679023628237 0.0 0.0 0.0 0.0 0.0 0.0 12.322484959216524 -12.189943444878466 1.4490107360232685 0.2749338488673418 0.20338038505890438 0.10894490209975119 0.1746769280968488 0.4192468359229866 0.3027467533030364 -2.3613411376090006 -0.014660099016828493 0.0015352698068651608 0.0 0.0 0.0 0.0 0.0 0.0 768 30.5 31.25 30.4375 34.5625 36.875 37.125 0.59814 7 253 253 253 253 253 253 1 -0.1149216741323471 0.15322890877723694 -9.959878921508789 0.0 1.0 0.0 47.76301193237305 47.79435729980469 0.5001915693283081 47.71392822265625 47.6279296875 47.64226531982422 47.64226531982422 47.584930419921875 47.5562629699707 3840 1
16660.612999999998 -2.666677 -2.0663800000000005 2.3151730000000006 -2.248468 -0.8907210000000001 -0.9420859999999998 0.0 0.0 0.0 0.0 0.0 0.0 0.0 0.0 0.0 0.0 0.0 0.0 0.23355757983657227 -1.381398724291465 -1.5113590639058856 -0.3502924600229319 1.3155504082129312e-06 0.0 2.683379102629221 -14.716243228909748 -17.18035727900646 -2.547114990353405 1.015363520825451e-05 0.0 -2.6667173544513147 -2.0663958988585414 2.3151519934283655 -2.2484499416747035 -0.8907049337970179 -0.9420660177813929 0.0 0.0 -0.0 -0.0 -0.0 0.0 0.5623942017555237 -1.6282624006271362 -1.251245141029358 -0.42810600996017456 -0.02769795060157776 0.021605240181088448 0.23355757983657227 -1.381398724291465 -1.5113590639058856 -0.3502924600229319 1.3155504082129312e-06 0.0 0.1746916572917201 0.41924215496884043 0.3027630057983366 -2.3613201527577807 -0.014601462516459862 0.001516687460575696 0.0 0.0 0.0 0.0 0.0 0.0 12.136555966633141 -12.20234653193425 1.3787629364975293 0.27468807883527113 0.1969769476733904 0.107988957903519 0.1746769280968488 0.4192468359229866 0.3027467533030364 -2.3613411376090006 -0.014660099016828493 0.0015352698068651608 0.0 0.0 0.0 0.0 0.0 0.0 768 30.5 31.25 30.4375 34.5625 36.875 37.125 0.595476 7 253 253 253 253 253 253 1 -0.15322890877723694 0.2298433631658554 -9.979032516479492 0.0 1.0 0.0 47.73255920410156 47.754947662353516 0.4934787452220917 47.670928955078125 47.599266052246094 47.6279296875 47.61359786987305 47.54193115234375 47.498931884765625 3840 1
16660.632999999998 -2.666677 -2.0663800000000005 2.3151730000000006 -2.248468 -0.8907210000000001 -0.9420859999999998 0.0 0.0 0.0 0.0 0.0 0.0 0.0 0.0 0.0 0.0 0.0 0.0 0.23354722913792203 -1.3814880296886158 -1.5114151797439543 -0.35030909512952196 -1.5024931372991149e-05 0.0 2.683260181853988 -14.717194612404619 -17.180995175168967 -2.5472359507913174 -0.00011596490049944034 0.0 -2.6666815916644495 -2.066336294213766 2.3151519934283655 -2.2484737835326136 -0.890728775654928 -0.9421260992633265 0.0 0.0 -0.0 -0.0 -0.0 0.0 0.5114386081695557 -1.6449921131134033 -1.2049808502197266 -0.4271082878112793 -0.01882311701774597 0.023220552131533623 0.23354722913792203 -1.3814880296886158 -1.5114151797439543 -0.35030909512952196 -1.5024931372991149e-05 0.0 0.17469051662432003 0.4192503477449718 0.3027430040239444 -2.361354787009148 -0.014692587740844794 0.0015259849520196658 0.0 0.0 0.0 0.0 0.0 0.0 12.170113047630624 -12.220761789125127 1.4345945415671668 0.2731455156057379 0.1972508188680516 0.10695627971302915 0.1746769280968488 0.4192468359229866 0.3027467533030364 -2.3613411376090006 -0.014660099016828493 0.0015352698068651608 0.0 0.0 0.0 0.0 0.0 0.0 768 30.5 31.25 30.4375 34.5625 36.875 37.125 0.60942 7 253 253 253 253 253 253 1 -0.15322890877723694 0.1149216815829277 -9.883264541625977 0.0 1.0 0.0 47.72718811035156 47.7585334777832 0.5382378697395325 47.6995964050293 47.64226531982422 47.65659713745117 47.68526077270508 47.584930419921875 47.5275993347168 3840 1
16660.653 -2.666677 -2.0663800000000005 2.3151730000000006 -2.248468 -0.8907210000000001 -0.9420859999999998 0.0 0.0 0.0 0.0 0.0 0.0 0.0 0.0 0.0 0.0 0.0 0.0 0.23353431937384653 -1.3813984753449753 -1.5113864083084045 -0.35031054182821075 -1.4085815175186091e-05 0.0 2.6831118595808925 -14.716240576846278 -17.180668116196696 -2.547246470309541 -0.0001087166466650406 0.0 -2.6667173544513147 -2.066360136071676 2.3151634375201624 -2.2484737835326136 -0.8907406965838831 -0.942077938710348 0.0 0.0 -0.0 -0.0 -0.0 0.0 0.5084164142608643 -1.6392173767089844 -1.2989797592163086 -0.43133246898651123 -0.024038687348365784 0.03254832327365875 0.23353431937384653 -1.3813984753449753 -1.5113864083084045 -0.35031054182821075 -1.4085815175186091e-05 0.0 0.17470194095926345 0.41923965134216123 0.3027433041265963 -2.361359402709348 -0.014595473177540426 0.0015105904022962627 0.0 0.0 0.0 0.0 0.0 0.0 12.215327949350652 -12.172277010409562 1.2672192332633605 0.26959721502638717 0.2020231002006623 0.10948207911568092 0.1746769280968488 0.4192468359229866 0.3027467533030364 -2.3613411376090006 -0.014660099016828493 0.0015352698068651608 0.0 0.0 0.0 0.0 0.0 0.0 768 30.5 31.25 30.4375 34.5625 36.875 37.125 0.596568 7 253 253 253 253 253 253 1 -0.17238251864910126 0.13407529890537262 -9.959878921508789 0.0 1.0 0.0 47.78361129760742 47.805999755859375 0.5695713758468628 47.71392822265625 47.6279296875 47.65659713745117 47.65659713745117 47.599266052246094 47.54193115234375 3840 1
16660.673 -2.666677 -2.0663800000000005 2.3151730000000006 -2.248468 -0.8907210000000001 -0.9420859999999998 0.0 0.0 0.0 0.0 0.0 0.0 0.0 0.0 0.0 0.0 0.0 0.0 0.2335453340985178 -1.3814595380020391 -1.5113498048907432 -0.35030342444699886 3.1903269460116627e-06 0.0 2.6832384094536255 -14.716891086288449 -17.180252027255243 -2.5471947170163762 2.4623469996007937e-05 0.0 -2.6667054335223597 -2.066372057000631 2.3151634375201624 -2.2484499416747035 -0.890728775654928 -0.9420660177813929 0.0 0.0 -0.0 -0.0 -0.0 0.0 0.568349301815033 -1.662954330444336 -1.2495512962341309 -0.4184567928314209 -0.0229035671800375 0.005494245793670416 0.2335453340985178 -1.3814595380020391 -1.5113498048907432 -0.35030342444699886 3.1903269460116627e-06 0.0 0.17469080990680536 0.41924114933898443 0.30274506330683115 -2.3613553257331286 -0.014593619365534122 0.0015429490991676446 0.0 0.0 0.0 0.0 0.0 0.0 12.24107255117278 -12.259963822499994 1.4194591559745708 0.2684666854322662 0.2006410586811329 0.1112235197684258 0.1746769280968488 0.4192468359229866 0.3027467533030364 -2.3613411376090006 -0.014660099016828493 0.0015352698068651608 0.0 0.0 0.0 0.0 0.0 0.0 768 30.5 31.25 30.4375 34.5625 36.875 37.125 0.596053 7 253 253 253 253 253 253 1 -0.038307227194309235 0.09576806426048279 -9.864110946655273 0.0 1.0 0.0 47.796146392822266 47.84450912475586 0.5449506640434265 47.75692367553711 47.670928955078125 47.68526077270508 47.68526077270508 47.61359786987305 47.61359786987305 3840 1
16660.693 -2.666677 -2.0663800000000005 2.3151730000000006 -2.248468 -0.8907210000000001 -0.9420859999999998 0.0 0.0 0.0 0.0 0.0 0.0 0.0 0.0 0.0 0.0 0.0 0.0 0.2335424281119859 -1.38147408443022 -1.5113634372096603 -0.3503062015873698 7.69892648184549e-06 0.0 2.683205022125594 -14.717046051521482 -17.180406992488276 -2.547214910702157 5.942158544728047e-05 0.0 -2.6667173544513147 -2.066360136071676 2.3151405493365687 -2.2484737835326136 -0.8907530943499964 -0.942077938710348 0.0 0.0 -0.0 -0.0 -0.0 0.0 0.49493494629859924 -1.6671888828277588 -1.2677996158599854 -0.4214112162590027 -0.028148222714662552 0.027537135407328606 0.2335424281119859 -1.38147408443022 -1.5113634372096603 -0.3503062015873698 7.69892648184549e-06 0.0 0.17470854289808865 0.4192403413415864 0.3027541170416704 -2.3613590309743335 -0.014601860609638494 0.0014778001175862392 0.0 0.0 0.0 0.0 0.0 0.0 12.392722333276721 -12.232496396293218 1.346578005315581 0.27211423057967954 0.20303747576867814 0.11180240145050557 0.1746769280968488 0.4192468359229866 0.3027467533030364 -2.3613411376090006 -0.014660099016828493 0.0015352698068651608 0.0 0.0 0.0 0.0 0.0 0.0 768 30.5 31.25 30.4375 34.5625 36.875 37.125 0.599077 7 253 253 253 253 253 253 1 -0.13407529890537262 0.19153612852096558 -9.979032516479492 0.0 1.0 0.0 47.75584411621094 47.78361129760742 0.5248122811317444 47.71392822265625 47.6279296875 47.65659713745117 47.6279296875 47.5562629699707 47.5562629699707 3840 1
16660.713 -2.666677 -2.0663800000000005 2.3151730000000006 -2.248468 -0.8907210000000001 -0.9420859999999998 0.0 0.0 0.0 0.0 0.0 0.0 0.0 0.0 0.0 0.0 0.0 0.0 0.23362319099495074 -1.381331182162519 -1.5113455357646668 -0.35029752272968334 -1.502465003705622e-05 0.0 2.684132919360047 -14.71552369270323 -17.180203498012247 -2.5471518032961034 -0.0001159627291022545 0.0 -2.6666696707354944 -2.066372057000631 2.3151634375201624 -2.248486181298727 -0.890728775654928 -0.9420660177813929 0.0 0.0 -0.0 -0.0 -0.0 0.0 0.5496406555175781 -1.6523689031600952 -1.2512925863265991 -0.42266085743904114 -0.014954707585275173 0.03432922810316086 0.23362319099495074 -1.381331182162519 -1.5113455357646668 -0.35029752272968334 -1.502465003705622e-05 0.0 0.17468017892054205 0.4192497002947459 0.30275124873997755 -2.3613384347503885 -0.01465156502137158 0.001522319185855333 0.0 0.0 0.0 0.0 0.0 0.0 12.254859005551616 -12.220403377906127 1.2956962545770194 0.27313287701574346 0.19848637226996207 0.10848523596022361 0.1746769280968488 0.4192468359229866 0.3027467533030364 -2.3613411376090006 -0.014660099016828493 0.0015352698068651608 0.0 0.0 0.0 0.0 0.0 0.0 768 30.5 31.25 30.4375 34.5625 36.875 37.125 0.617281 7 253 253 253 253 253 253 1 -0.2106897532939911 0.15322890877723694 -10.055646896362305 0.0 1.0 0.0 47.75405502319336 47.764801025390625 0.5337609052658081 47.6995964050293 47.6279296875 47.6279296875 47.6279296875 47.5562629699707 47.5275993347168 3840 1
16660.733 -2.666677 -2.0663800000000005 2.3151730000000006 -2.248468 -0.8907210000000001 -0.9420859999999998 0.0 0.0 0.0 0.0 0.0 0.0 0.0 0.0 0.0 0.0 0.0 0.0 0.23352498932632793 -1.3813835699702486 -1.5113337663476856 -0.3502846198272681 -5.068062166634742e-06 0.0 2.6830046652241286 -14.716081787703043 -17.180069709296163 -2.547057981190544 -3.911614038618892e-05 0.0 -2.666645352040426 -2.066372057000631 2.3151281515704554 -2.2484737835326136 -0.890716854725973 -0.9420903364764612 0.0 0.0 -0.0 -0.0 -0.0 0.0 0.5075182318687439 -1.6526345014572144 -1.2587729692459106 -0.4360302686691284 -0.017311405390501022 0.024643486365675926 0.23352498932632793 -1.3813835699702486 -1.5113337663476856 -0.3502846198272681 -5.068062166634742e-06 0.0 0.1746740394420022 0.4192586360743128 0.30277020360668866 -2.3613181422182112 -0.014722194981229505 0.0015065001820718479 0.0 0.0 0.0 0.0 0.0 0.0 12.272863976507661 -12.209635928166911 1.4727952170713943 0.27459210858021627 0.19638249058154858 0.1114179453312341 0.1746769280968488 0.4192468359229866 0.3027467533030364 -2.3613411376090006 -0.014660099016828493 0.0015352698068651608 0.0 0.0 0.0 0.0 0.0 0.0 768 30.5 31.25 30.4375 34.5625 36.875 37.125 0.604981 7 253 253 253 253 253 253 1 -0.15322890877723694 0.13407528400421143 -10.017339706420898 0.0 1.0 0.0 47.73883056640625 47.751365661621094 0.5404736995697021 47.71392822265625 47.6279296875 47.65659713745117 47.61359786987305 47.5562629699707 47.51326370239258 3840 1
16660.753 -2.666677 -2.0663800000000005 2.3151730000000006 -2.248468 -0.8907210000000001 -0.9420859999999998 0.0 0.0 0.0 0.0 0.0 0.0 0.0 0.0 0.0 0.0 0.0 0.0 0.23360345201739596 -1.3814505576574831 -1.5113249079205384 -0.35029607557421577 6.940261391469331e-06 0.0 2.683906135198665 -14.716795417360686 -17.179969011224507 -2.5471412804564606 5.3566083047048515e-05 0.0 -2.6666696707354944 -2.066360136071676 2.3151634375201624 -2.2484499416747035 -0.8906810919391077 -0.9421141783343714 0.0 0.0 -0.0 -0.0 -0.0 0.0 0.5259649157524109 -1.6679964065551758 -1.265289068222046 -0.4392385482788086 -0.02905075065791607 0.026915041729807854 0.23360345201739596 -1.3814505576574831 -1.5113249079205384 -0.35029607557421577 6.940261391469331e-06 0.0 0.174670189841289 0.41925493908029393 0.3027476877902806 -2.3613216180746286 -0.014700994047102975 0.001582883929331097 0.0 0.0 0.0 0.0 0.0 0.0 12.408136422331816 -12.394397069241235 1.5254574786688204 0.2763811428894722 0.20302485316762017 0.1133690364358057 0.1746769280968488 0.4192468359229866 0.3027467533030364 -2.3613411376090006 -0.014660099016828493 0.0015352698068651608 0.0 0.0 0.0 0.0 0.0 0.0 768 30.5 31.25 30.4375 34.5625 36.875 37.125 0.599652 7 253 253 253 253 253 253 1 -0.05746084079146385 0.1149216815829277 -9.90241813659668 0.0 1.0 0.0 47.76569747924805 47.796146392822266 0.5516634583473206 47.6995964050293 47.6279296875 47.6279296875 47.65659713745117 47.570594787597656 47.54193115234375 3840 1
16660.773 -2.666677 -2.0663800000000005 2.3151730000000006 -2.248468 -0.8907210000000001 -0.9420859999999998 0.0 0.0 0.0 0.0 0.0 0.0 0.0 0.0 0.0 0.0 0.0 0.0 0.23347698915677803 -1.3813543045297618 -1.5113228233164164 -0.3502946310679509 -1.3326230989353895e-05 0.0 2.682453183863588 -14.715770018672979 -17.179945314510434 -2.5471307768802185 -0.00010285405053436401 0.0 -2.6666696707354944 -2.066360136071676 2.3151634375201624 -2.2484499416747035 -0.890716854725973 -0.9420903364764612 0.0 0.0 -0.0 -0.0 -0.0 0.0 0.5218909382820129 -1.6836581230163574 -1.2960240840911865 -0.4285106658935547 -0.012645457871258259 0.011591000482439995 0.23347698915677803 -1.3813543045297618 -1.5113228233164164 -0.3502946310679509 -1.3326230989353895e-05 0.0 0.1746755238055787 0.41924985506511503 0.3027426159218461 -2.361350674622514 -0.014662778539541104 0.0015694126635622712 0.0 0.0 0.0 0.0 0.0 0.0 12.001481942028663 -12.105471975321922 1.48098388826324 0.26755424416035106 0.19233215318883612 0.10522288215137224 0.1746769280968488 0.4192468359229866 0.3027467533030364 -2.3613411376090006 -0.014660099016828493 0.0015352698068651608 0.0 0.0 0.0 0.0 0.0 0.0 768 30.4375 31.25 30.4375 34.5625 36.875 37.125 0.596508 7 253 253 253 253 253 253 1 -0.05746084079146385 0.09576806426048279 -9.979032516479492 0.0 1.0 0.0 47.795249938964844 47.81584930419922 0.5337609052658081 47.7282600402832 47.65659713745117 47.6995964050293 47.65659713745117 47.61359786987305 47.5562629699707 3840 1
16660.792999999998 -2.666677 -2.0663800000000005 2.3151730000000006 -2.248468 -0.8907210000000001 -0.9420859999999998 0.0 0.0 0.0 0.0 0.0 0.0 0.0 0.0 0.0 0.0 0.0 0.0 0.23353896159351134 -1.381402431740066 -1.5113238649459722 -0.3502953531592023 -7.701807644690837e-06 0.0 2.6831651947595114 -14.71628272490349 -17.179957155222773 -2.5471360274912387 -5.9443822737713894e-05 0.0 -2.6666815916644495 -2.066360136071676 2.3151634375201624 -2.2484623394408167 -0.8907049337970179 -0.9421017805682581 0.0 0.0 -0.0 -0.0 -0.0 0.0 0.5540038347244263 -1.6651058197021484 -1.2789740562438965 -0.427402138710022 -0.02593092806637287 0.032854028046131134 0.23353896159351134 -1.381402431740066 -1.5113238649459722 -0.3502953531592023 -7.701807644690837e-06 0.0 0.17468023607512562 0.4192502555845629 0.30274642252873873 -2.361335352799578 -0.014670949412821198 0.0015534210969055694 0.0 0.0 0.0 0.0 0.0 0.0 12.070485357492291 -12.54886456464458 1.2542786371441759 0.28055559364652666 0.19381774291973586 0.1088932642728883 0.1746769280968488 0.4192468359229866 0.3027467533030364 -2.3613411376090006 -0.014660099016828493 0.0015352698068651608 0.0 0.0 0.0 0.0 0.0 0.0 768 30.4375 31.25 30.4375 34.5625 36.875 37.125 0.598512 7 253 253 253 253 253 253 1 -0.15322890877723694 0.13407529890537262 -9.998186111450195 0.0 1.0 0.0 47.76927947998047 47.80509948730469 0.5024327039718628 47.68526077270508 47.64226531982422 47.65659713745117 47.670928955078125 47.5562629699707 47.5562629699707 3840 1
16660.813 -2.666677 -2.0663800000000005 2.3151730000000006 -2.248468 -0.8907210000000001 -0.9420859999999998 0.0 0.0 0.0 0.0 0.0 0.0 0.0 0.0 0.0 0.0 0.0 0.0 0.23351766546071404 -1.3815120121351403 -1.511294056300252 -0.35027955497472757 5.561725894004712e-07 0.0 2.682920520201079 -14.71745010092511 -17.179618305775474 -2.547021152644965 4.292631852301222e-06 0.0 -2.6666815916644495 -2.066348215142721 2.3151758352862757 -2.2484623394408167 -0.8906930128680628 -0.9420903364764612 0.0 0.0 -0.0 -0.0 -0.0 0.0 0.5464242100715637 -1.6585484743118286 -1.2724559307098389 -0.41749662160873413 -0.034541841596364975 0.03524035960435867 0.23351766546071404 -1.3815120121351403 -1.511294056300252 -0.35027955497472757 5.561725894004712e-07 0.0 0.17467736882681595 0.41925138545374263 0.3027371660167005 -2.361336847578122 -0.014650309277132187 0.0015929427758736862 0.0 0.0 0.0 0.0 0.0 0.0 12.782134354202485 -12.562155820682003 1.291048503944336 0.2776988536159378 0.20783115960372214 0.12012621619215041 0.1746769280968488 0.4192468359229866 0.3027467533030364 -2.3613411376090006 -0.014660099016828493 0.0015352698068651608 0.0 0.0 0.0 0.0 0.0 0.0 768 30.4375 31.25 30.4375 34.5625 36.875 37.125 0.601296 7 253 253 253 253 253 253 1 -0.07661445438861847 0.05746084079146385 -10.017339706420898 0.0 1.0 0.0 47.74509811401367 47.77823257446289 0.5225711464881897 47.6995964050293 47.61359786987305 47.6279296875 47.61359786987305 47.54193115234375 47.5275993347168 3840 1
16660.833 -2.666677 -2.0663800000000005 2.3151730000000006 -2.248468 -0.8907210000000001 -0.9420859999999998 0.0 0.0 0.0 0.0 0.0 0.0 0.0 0.0 0.0 0.0 0.0 0.0 0.23352296001121225 -1.381400292144897 -1.5112831863444303 -0.35028968245780884 -1.221051708001147e-05 0.0 2.6829813501093813 -14.716259931482325 -17.179494741674073 -2.5470947935790837 -9.424278641136667e-05 0.0 -2.6666815916644495 -2.0663839779295863 2.315188233052389 -2.2484499416747035 -0.890716854725973 -0.942077938710348 0.0 0.0 -0.0 -0.0 -0.0 0.0 0.5065823197364807 -1.6214181184768677 -1.2585102319717407 -0.42143043875694275 -0.02774130366742611 0.025993971154093742 0.23352296001121225 -1.381400292144897 -1.5112831863444303 -0.35028968245780884 -1.221051708001147e-05 0.0 0.17467240224962202 0.41924358786163385 0.30273727331454753 -2.3613512811340045 -0.014633631686008765 0.0015706423480711781 0.0 0.0 0.0 0.0 0.0 0.0 12.458050664080487 -12.3380328909384 1.3877663200187271 0.27590375299055764 0.2025646298120469 0.11213180146915197 0.1746769280968488 0.4192468359229866 0.3027467533030364 -2.3613411376090006 -0.014660099016828493 0.0015352698068651608 0.0 0.0 0.0 0.0 0.0 0.0 768 30.4375 31.25 30.4375 34.5625 36.875 37.125 0.6009 7 253 253 253 253 253 253 1 -0.15322890877723694 0.09576806426048279 -10.055646896362305 0.0 1.0 0.0 47.73883056640625 47.78361129760742 0.5919508934020996 47.71392822265625 47.64226531982422 47.65659713745117 47.65659713745117 47.5275993347168 47.54193115234375 3840 1
16660.853 -2.666677 -2.0663800000000005 2.3151730000000006 -2.248468 -0.8907210000000001 -0.9420859999999998 0.0 0.0 0.0 0.0 0.0 0.0 0.0 0.0 0.0 0.0 0.0 0.0 0.23359630799419917 -1.381388813772858 -1.5113608722126282 -0.35030064715819403 3.1903833698987927e-06 0.0 2.683824056412918 -14.716137650701384 -17.180377834913163 -2.547174522251274 2.4623905484882686e-05 0.0 -2.6666696707354944 -2.066336294213766 2.315104309712545 -2.2484623394408167 -0.8906930128680628 -0.9421017805682581 0.0 0.0 -0.0 -0.0 -0.0 0.0 0.5699009299278259 -1.6858484745025635 -1.227972388267517 -0.425087571144104 -0.020514141768217087 0.023558657616376877 0.23359630799419917 -1.381388813772858 -1.5113608722126282 -0.35030064715819403 3.1903833698987927e-06 0.0 0.1746887084690497 0.41926189671950365 0.302772311953507 -2.3613096455221445 -0.0147036308311876 0.0015303980652239758 0.0 0.0 0.0 0.0 0.0 0.0 12.41885751447815 -12.42104855240806 1.319528141509756 0.2787937192323163 0.19877503015406028 0.11596890249394126 0.1746769280968488 0.4192468359229866 0.3027467533030364 -2.3613411376090006 -0.014660099016828493 0.0015352698068651608 0.0 0.0 0.0 0.0 0.0 0.0 768 30.4375 31.25 30.4375 34.5625 36.875 37.125 0.597096 7 253 253 253 253 253 253 1 -0.09576806426048279 0.1149216815829277 -9.940725326538086 0.0 1.0 0.0 47.775550842285156 47.793460845947266 0.5203352570533752 47.71392822265625 47.6279296875 47.6279296875 47.6279296875 47.584930419921875 47.5275993347168 3840 1
16660.873 -2.666677 -2.0663800000000005 2.3151730000000006 -2.248468 -0.8907210000000001 -0.9420859999999998 0.0 0.0 0.0 0.0 0.0 0.0 0.0 0.0 0.0 0.0 0.0 0.0 0.2335599186033756 -1.3814074693467113 -1.5113010082716571 -0.35028583417641745 3.1902752516925027e-06 0.0 2.683405973082196 -14.716336391265981 -17.179697332232777 -2.54706681120339 2.4623071010719485e-05 0.0 -2.6666935125934046 -2.066336294213766 2.3151634375201624 -2.2484623394408167 -0.890716854725973 -0.9420903364764612 0.0 0.0 -0.0 -0.0 -0.0 0.0 0.5269182324409485 -1.6434481143951416 -1.2580829858779907 -0.4337156414985657 -0.01412896066904068 0.010410062968730927 0.2335599186033756 -1.3814074693467113 -1.5113010082716571 -0.35028583417641745 3.1902752516925027e-06 0.0 0.17468998232917676 0.4192480060626877 0.3027364559457961 -2.3613559655122502 -0.014629740725378376 0.0015699592636869077 0.0 0.0 0.0 0.0 0.0 0.0 12.331353437504385 -12.31922179178469 1.4000681325255169 0.27569868714188817 0.19736522113049526 0.1115164581494505 0.1746769280968488 0.4192468359229866 0.3027467533030364 -2.3613411376090006 -0.014660099016828493 0.0015352698068651608 0.0 0.0 0.0 0.0 0.0 0.0 768 30.4375 31.25 30.4375 34.5625 36.875 37.125 0.606636 7 253 253 253 253 253 253 1 0.0 0.2106897532939911 -9.883264541625977 0.0 1.0 0.0 47.77913284301758 47.808685302734375 0.5225711464881897 47.71392822265625 47.64226531982422 47.65659713745117 47.65659713745117 47.61359786987305 47.570594787597656 3840 1
16660.893 -2.666677 -2.0663800000000005 2.3151730000000006 -2.248468 -0.8907210000000001 -0.9420859999999998 0.0 0.0 0.0 0.0 0.0 0.0 0.0 0.0 0.0 0.0 0.0 0.0 0.23360640803003202 -1.3813300926156455 -1.5113720918663534 -0.3503128268420239 -7.702352400344644e-06 0.0 2.6839400972843324 -14.715512085600574 -17.180505374201573 -2.547263085548522 -5.9448027251772674e-05 0.0 -2.6667054335223597 -2.066372057000631 2.3151519934283655 -2.2484737835326136 -0.890716854725973 -0.9421141783343714 0.0 0.0 -0.0 -0.0 -0.0 0.0 0.5571250915527344 -1.6595792770385742 -1.2844257354736328 -0.4170798063278198 -0.011669070459902287 0.023308496922254562 0.23360640803003202 -1.3813300926156455 -1.5113720918663534 -0.3503128268420239 -7.702352400344644e-06 0.0 0.17469427831051354 0.41924558595815237 0.3027571087016344 -2.3613291948423694 -0.014669118872850937 0.0014908687482388069 0.0 0.0 0.0 0.0 0.0 0.0 12.444812491265994 -12.24696127385019 1.6884132472182882 0.27046420765473456 0.2024157172990106 0.11463109669548349 0.1746769280968488 0.4192468359229866 0.3027467533030364 -2.3613411376090006 -0.014660099016828493 0.0015352698068651608 0.0 0.0 0.0 0.0 0.0 0.0 768 30.4375 31.25 30.4375 34.5625 36.875 37.125 0.597252 7 253 253 253 253 253 253 1 -0.17238251864910126 0.07661445438861847 -9.940725326538086 0.0 1.0 0.0 47.77286148071289 47.80062484741211 0.48452481627464294 47.71392822265625 47.6279296875 47.64226531982422 47.670928955078125 47.584930419921875 47.51326370239258 3840 1
16660.913 -2.666677 -2.0663800000000005 2.3151730000000006 -2.248468 -0.8907210000000001 -0.9420859999999998 0.0 0.0 0.0 0.0 0.0 0.0 0.0 0.0 0.0 0.0 0.0 0.0 0.23354599396812536 -1.3813866725047328 -1.5113090960336812 -0.350292344297365 1.3155497690701061e-06 0.0 2.6832459907974493 -14.716114839457974 -17.179789269777256 -2.547114148867048 1.0153630275244682e-05 0.0 -2.6666815916644495 -2.066360136071676 2.3151281515704554 -2.2484499416747035 -0.8907406965838831 -0.9421017805682581 0.0 0.0 -0.0 -0.0 -0.0 0.0 0.5460478663444519 -1.6856114864349365 -1.2781010866165161 -0.41973942518234253 -0.014092424884438515 0.021955082193017006 0.23354599396812536 -1.3813866725047328 -1.5113090960336812 -0.350292344297365 1.3155497690701061e-06 0.0 0.17469140476031692 0.41924816461405917 0.3027586150590426 -2.361353914936306 -0.014670732270671753 0.0015042065453702333 0.0 0.0 0.0 0.0 0.0 0.0 11.965126819195811 -12.268228488777648 1.37873881675461 0.27270955259133445 0.19447808404287148 0.10094880789331032 0.1746769280968488 0.4192468359229866 0.3027467533030364 -2.3613411376090006 -0.014660099016828493 0.0015352698068651608 0.0 0.0 0.0 0.0 0.0 0.0 768 30.4375 31.25 30.4375 34.5625 36.875 37.125 0.600636 7 253 253 253 253 253 253 1 -0.05746084079146385 0.09576806426048279 -10.074800491333008 0.0 1.0 0.0 47.75047302246094 47.75942611694336 0.5001915693283081 47.68526077270508 47.64226531982422 47.6279296875 47.65659713745117 47.5562629699707 47.498931884765625 3840 1
16660.933 -2.666677 -2.0663800000000005 2.3151730000000006 -2.248468 -0.8907210000000001 -0.9420859999999998 0.0 0.0 0.0 0.0 0.0 0.0 0.0 0.0 0.0 0.0 0.0 0.0 0.23359378893172117 -1.381388813839743 -1.5113608722753102 -0.3503006472561857 -5.826976993962625e-06 0.0 2.683795114515094 -14.71613765141392 -17.1803778356257 -2.54717452296381 -4.497357029743832e-05 0.0 -2.6667054335223597 -2.066348215142721 2.3151405493365687 -2.248486181298727 -0.890716854725973 -0.942077938710348 0.0 0.0 -0.0 -0.0 -0.0 0.0 0.5431525111198425 -1.6780872344970703 -1.2783124446868896 -0.4185766577720642 -0.0009822073625400662 0.019640345126390457 0.23359378893172117 -1.381388813839743 -1.5113608722753102 -0.3503006472561857 -5.826976993962625e-06 0.0 0.17470111781902292 0.4192491280465114 0.30275723419734624 -2.361329406263313 -0.014626382791109144 0.001508529538388135 0.0 0.0 0.0 0.0 0.0 0.0 12.18261560151003 -12.350138161115485 1.3206956560017558 0.27551573322215905 0.19726954609451486 0.11356139871732064 0.1746769280968488 0.4192468359229866 0.3027467533030364 -2.3613411376090006 -0.014660099016828493 0.0015352698068651608 0.0 0.0 0.0 0.0 0.0 0.0 768 30.4375 31.25 30.4375 34.5625 36.875 37.125 0.59688 7 253 253 253 253 253 253 1 -0.019153613597154617 0.09576806426048279 -9.998186111450195 0.0 1.0 0.0 47.72629165649414 47.76569747924805 0.5673302412033081 47.71392822265625 47.6279296875 47.65659713745117 47.68526077270508 47.584930419921875 47.5275993347168 3840 1
16660.952999999998 -2.666677 -2.0663800000000005 2.3151730000000006 -2.248468 -0.8907210000000001 -0.9420859999999998 0.0 0.0 0.0 0.0 0.0 0.0 0.0 0.0 0.0 0.0 0.0 0.0 0.23354812966870164 -1.3814251973463472 -1.5113838733726754 -0.350312711128244 -7.70234563909338e-06 0.0 2.6832705281911826 -14.71652525024639 -17.180639300343106 -2.5472622441478725 -5.944797506731934e-05 0.0 -2.6667054335223597 -2.066360136071676 2.3151634375201624 -2.2484737835326136 -0.890716854725973 -0.9420903364764612 0.0 0.0 -0.0 -0.0 -0.0 0.0 0.5432056784629822 -1.6707353591918945 -1.2027158737182617 -0.41977688670158386 -0.010510182939469814 0.01460018940269947 0.23354812966870164 -1.3814251973463472 -1.5113838733726754 -0.350312711128244 -7.70234563909338e-06 0.0 0.17469338729292555 0.41924512347974974 0.3027466852080667 -2.3613399764150826 -0.01463089739342843 0.0015270562458566572 0.0 0.0 0.0 0.0 0.0 0.0 12.26805029953033 -12.392649073352604 1.3577520918017694 0.2765565204165412 0.20159276337540993 0.10701052336688598 0.1746769280968488 0.4192468359229866 0.3027467533030364 -2.3613411376090006 -0.014660099016828493 0.0015352698068651608 0.0 0.0 0.0 0.0 0.0 0.0 768 30.4375 31.25 30.4375 34.5625 36.875 37.125 0.5958 7 253 253 253 253 253 253 1 -0.15322890877723694 0.05746084079146385 -10.074800491333008 0.0 1.0 0.0 47.76927947998047 47.789878845214844 0.4800531268119812 47.71392822265625 47.6279296875 47.65659713745117 47.670928955078125 47.5275993347168 47.5275993347168 3840 1
16660.972999999998 -2.666677 -2.0663800000000005 2.3151730000000006 -2.248468 -0.8907210000000001 -0.9420859999999998 0.0 0.0 0.0 0.0 0.0 0.0 0.0 0.0 0.0 0.0 0.0 0.0 0.23350916819362197 -1.3814509522365528 -1.5113306629151202 -0.35028667350264636 -7.701893417938515e-06 0.0 2.68282289378724 -14.716799620869391 -17.180034431061138 -2.547072914276289 -5.944448474979805e-05 0.0 -2.6666696707354944 -2.0663839779295863 2.3151758352862757 -2.2484499416747035 -0.890716854725973 -0.942077938710348 0.0 0.0 -0.0 -0.0 -0.0 0.0 0.5276852250099182 -1.6681243181228638 -1.268432378768921 -0.4221792221069336 -0.009917533956468105 0.014301899820566177 0.23350916819362197 -1.3814509522365528 -1.5113306629151202 -0.35028667350264636 -7.701893417938515e-06 0.0 0.17466997890165006 0.41924699873343524 0.3027440825379145 -2.361345575028943 -0.01465305695339094 0.0015633714285217266 0.0 0.0 0.0 0.0 0.0 0.0 12.11748220745905 -12.251837335831116 1.1813813136598164 0.2762477070521721 0.19865268283228127 0.10940042930883478 0.1746769280968488 0.4192468359229866 0.3027467533030364 -2.3613411376090006 -0.014660099016828493 0.0015352698068651608 0.0 0.0 0.0 0.0 0.0 0.0 768 30.4375 31.25 30.4375 34.5625 36.875 37.125 0.59448 7 253 253 253 253 253 253 1 -0.09576806426048279 0.19153612852096558 -9.998186111450195 0.0 1.0 0.0 47.782711029052734 47.82301330566406 0.5360020399093628 47.71392822265625 47.64226531982422 47.670928955078125 47.6279296875 47.584930419921875 47.5275993347168 3840 1
16660.993 -2.666677 -2.0663800000000005 2.3151730000000006 -2.248468 -0.8907210000000001 -0.9420859999999998 0.0 0.0 0.0 0.0 0.0 0.0 0.0 0.0 0.0 0.0 0.0 0.0 0.23356065075152055 -1.3814743322914989 -1.5113360919504606 -0.3502881194824728 5.065205857804354e-06 0.0 2.683414384845298 -14.71704869202404 -17.180096145559737 -2.5470834285673796 3.9094094923145606e-05 0.0 -2.6666696707354944 -2.0663839779295863 2.315188233052389 -2.2484499416747035 -0.890728775654928 -0.9421017805682581 0.0 0.0 -0.0 -0.0 -0.0 0.0 0.5281090140342712 -1.6812596321105957 -1.2762583494186401 -0.43099480867385864 -0.011164858005940914 0.021101130172610283 0.23356065075152055 -1.3814743322914989 -1.5113360919504606 -0.3502881194824728 5.065205857804354e-06 0.0 0.1746691824512448 0.41924397536665065 0.30273558274150897 -2.3613606394150106 -0.014672500471167192 0.0015565064347861182 0.0 0.0 0.0 0.0 0.0 0.0 11.743920627962472 -12.220287087613798 1.4221208743513376 0.27664022812529465 0.19581010444639924 0.09808901805077164 0.1746769280968488 0.4192468359229866 0.3027467533030364 -2.3613411376090006 -0.014660099016828493 0.0015352698068651608 0.0 0.0 0.0 0.0 0.0 0.0 768 30.4375 31.25 30.4375 34.5625 36.875 37.125 0.597229 7 253 253 253 253 253 253 1 -0.09576806426048279 0.15322890877723694 -9.90241813659668 0.0 1.0 0.0 47.77196502685547 47.79435729980469 0.5024327039718628 47.6995964050293 47.64226531982422 47.65659713745117 47.6995964050293 47.584930419921875 47.5275993347168 3840 1
16661.013 -2.666677 -2.0663800000000005 2.3151730000000006 -2.248468 -0.8907210000000001 -0.9420859999999998 0.0 0.0 0.0 0.0 0.0 0.0 0.0 0.0 0.0 0.0 0.0 0.0 0.23353578384193757 -1.381495851899247 -1.5113175854330547 -0.35029703056401107 -8.46071173056059e-06 0.0 2.6831286850809457 -14.717277943561808 -17.17988577292982 -2.5471482245648867 -6.530116974461634e-05 0.0 -2.6667054335223597 -2.066360136071676 2.3151519934283655 -2.248486181298727 -0.890716854725973 -0.9420540968524378 0.0 0.0 -0.0 -0.0 -0.0 0.0 0.5196588039398193 -1.68985915184021 -1.2554022073745728 -0.4320216774940491 -0.014190646819770336 0.022403715178370476 0.23353578384193757 -1.381495851899247 -1.5113175854330547 -0.35029703056401107 -8.46071173056059e-06 0.0 0.17469725606987727 0.4192471378788298 0.30275508676216467 -2.3613293699093445 -0.014598427996268298 0.0015195988559065059 0.0 0.0 0.0 0.0 0.0 0.0 12.28445764395881 -12.288405745717597 1.2816113289987632 0.2766490245019792 0.20320439672688376 0.10388260558213441 0.1746769280968488 0.4192468359229866 0.3027467533030364 -2.3613411376090006 -0.014660099016828493 0.0015352698068651608 0.0 0.0 0.0 0.0 0.0 0.0 768 30.4375 31.25 30.4375 34.5625 36.875 37.125 0.600769 7 253 253 253 253 253 253 1 -0.15322890877723694 0.15322890877723694 -9.979032516479492 0.0 1.0 0.0 47.75047302246094 47.777339935302734 0.5606174468994141 47.6995964050293 47.64226531982422 47.65659713745117 47.61359786987305 47.584930419921875 47.5562629699707 3840 1
16661.033 -2.666677 -2.0663800000000005 2.3151730000000006 -2.248468 -0.8907210000000001 -0.9420859999999998 0.0 0.0 0.0 0.0 0.0 0.0 0.0 0.0 0.0 0.0 0.0 0.0 0.23361968114425904 -1.3812574706453153 -1.511370284028013 -0.350304640378874 -1.8774567673098636e-05 0.0 2.6840925941434306 -14.714738433098695 -17.18048482361943 -2.547203558537847 -0.00014490521241545341 0.0 -2.6667173544513147 -2.066360136071676 2.3151634375201624 -2.2484737835326136 -0.890716854725973 -0.942077938710348 0.0 0.0 -0.0 -0.0 -0.0 0.0 0.517116367816925 -1.6757030487060547 -1.251987099647522 -0.4230666160583496 -0.013840126805007458 0.034443505108356476 0.23361968114425904 -1.3812574706453153 -1.511370284028013 -0.350304640378874 -1.8774567673098636e-05 0.0 0.1746983850718516 0.4192430409425059 0.3027466852080667 -2.361340154301355 -0.014602185039909113 0.0015272877372277801 0.0 0.0 0.0 0.0 0.0 0.0 12.288998511709476 -12.227902375792707 1.4458954625981653 0.2734916314241382 0.1982201916161463 0.11226638511582221 0.1746769280968488 0.4192468359229866 0.3027467533030364 -2.3613411376090006 -0.014660099016828493 0.0015352698068651608 0.0 0.0 0.0 0.0 0.0 0.0 768 30.4375 31.25 30.4375 34.5625 36.875 37.125 0.598417 7 253 253 253 253 253 253 1 -0.07661445438861847 0.13407529890537262 -9.959878921508789 0.0 1.0 0.0 47.743309020996094 47.76122283935547 0.5225711464881897 47.68526077270508 47.599266052246094 47.61359786987305 47.61359786987305 47.570594787597656 47.498931884765625 3840 1
16661.053 -2.666677 -2.0663800000000005 2.3151730000000006 -2.248468 -0.8907210000000001 -0.9420859999999998 0.0 0.0 0.0 0.0 0.0 0.0 0.0 0.0 0.0 0.0 0.0 0.0 0.23356377128671157 -1.3814440208817138 -1.5113739364859269 -0.35030330880220717 -1.3183504006720296e-06 0.0 2.6834502371560065 -14.716725780129622 -17.180526342893973 -2.5471938761173676 -1.0175246012248079e-05 0.0 -2.6666815916644495 -2.066372057000631 2.3151519934283655 -2.2484499416747035 -0.8907406965838831 -0.942077938710348 0.0 0.0 -0.0 -0.0 -0.0 0.0 0.4973181188106537 -1.6840999126434326 -1.2870713472366333 -0.42586666345596313 -0.011942421086132526 0.015181532129645348 0.23356377128671157 -1.3814440208817138 -1.5113739364859269 -0.35030330880220717 -1.3183504006720296e-06 0.0 0.17468496873920536 0.41924484580925586 0.302749658258036 -2.36135950216732 -0.014637426816164496 0.0015283337481286439 0.0 0.0 0.0 0.0 0.0 0.0 12.222074210509135 -12.315767285184222 1.245167611440416 0.2755134714945643 0.19637416321886458 0.10980013933441361 0.1746769280968488 0.4192468359229866 0.3027467533030364 -2.3613411376090006 -0.014660099016828493 0.0015352698068651608 0.0 0.0 0.0 0.0 0.0 0.0 768 30.4375 31.25 30.4375 34.5625 36.875 37.125 0.595561 7 253 253 253 253 253 253 1 -0.09576806426048279 0.2298433631658554 -9.921571731567383 0.0 1.0 0.0 47.75315856933594 47.790771484375 0.5292839407920837 47.68526077270508 47.6279296875 47.65659713745117 47.599266052246094 47.5562629699707 47.5275993347168 3840 1
16661.073 -2.666677 -2.0663800000000005 2.3151730000000006 -2.248468 -0.8907210000000001 -0.9420859999999998 0.0 0.0 0.0 0.0 0.0 0.0 0.0 0.0 0.0 0.0 0.0 0.0 0.23356718587294867 -1.3815235788489548 -1.5113546664389332 -0.3503047548999826 6.940205777765178e-06 0.0 2.6834894678645926 -14.717573322823943 -17.180307290849996 -2.547204391266112 5.3565653811299716e-05 0.0 -2.6666815916644495 -2.0663839779295863 2.3151519934283655 -2.2484623394408167 -0.890716854725973 -0.9420903364764612 0.0 0.0 -0.0 -0.0 -0.0 0.0 0.5516260266304016 -1.700709581375122 -1.257739782333374 -0.4282330274581909 -0.020444810390472412 0.03751751035451889 0.23356718587294867 -1.3815235788489548 -1.5113546664389332 -0.3503047548999826 6.940205777765178e-06 0.0 0.17468141971816945 0.4192482594946011 0.3027592933779103 -2.361329056767037 -0.01466928760904246 0.0015134564641318892 0.0 0.0 0.0 0.0 0.0 0.0 12.161971624432942 -12.347172745118923 1.342633965405673 0.2742073097746388 0.19882097152915568 0.1078682313203001 0.1746769280968488 0.4192468359229866 0.3027467533030364 -2.3613411376090006 -0.014660099016828493 0.0015352698068651608 0.0 0.0 0.0 0.0 0.0 0.0 768 30.4375 31.25 30.4375 34.5625 36.875 37.125 0.596977 7 253 253 253 253 253 253 1 -0.05746084079146385 0.1149216815829277 -9.921571731567383 0.0 1.0 0.0 47.75584411621094 47.78898239135742 0.5069043636322021 47.6995964050293 47.6279296875 47.6279296875 47.64226531982422 47.5275993347168 47.51326370239258 3840 1
16661.093 -2.666677 -2.0663800000000005 2.3151730000000006 -2.248468 -0.8907210000000001 -0.9420859999999998 0.0 0.0 0.0 0.0 0.0 0.0 0.0 0.0 0.0 0.0 0.0 0.0 0.2335131334316575 -1.3815001989813092 -1.5113492370633599 -0.35030330902916484 -1.5024738147806978e-05 0.0 2.682868451019375 -14.717324253664632 -17.180245572483805 -2.5471938777676666 -0.00011596340915557327 0.0 -2.6667054335223597 -2.066372057000631 2.3151405493365687 -2.2484623394408167 -0.890716854725973 -0.942077938710348 0.0 0.0 -0.0 -0.0 -0.0 0.0 0.54628586769104 -1.7144904136657715 -1.253862977027893 -0.42643046379089355 -0.012880605645477772 0.030145181342959404 0.2335131334316575 -1.3815001989813092 -1.5113492370633599 -0.35030330902916484 -1.5024738147806978e-05 0.0 0.17469527702789656 0.4192460847893137 0.3027614409182175 -2.3613295368300053 -0.014626306349646633 0.0015084059877926 0.0 0.0 0.0 0.0 0.0 0.0 12.310198986892201 -12.406967337091489 1.3651539212746169 0.2755701985834087 0.20591290185475816 0.10778393722715249 0.1746769280968488 0.4192468359229866 0.3027467533030364 -2.3613411376090006 -0.014660099016828493 0.0015352698068651608 0.0 0.0 0.0 0.0 0.0 0.0 768 30.4375 31.25 30.4375 34.5625 36.875 37.125 0.594252 7 253 253 253 253 253 253 1 -0.17238251864910126 0.17238251864910126 -9.979032516479492 0.0 1.0 0.0 47.736141204833984 47.77017593383789 0.5360020399093628 47.68526077270508 47.6279296875 47.6279296875 47.61359786987305 47.570594787597656 47.498931884765625 3840 1
16661.112999999998 -2.666677 -2.0663800000000005 2.3151730000000006 -2.248468 -0.8907210000000001 -0.9420859999999998 0.0 0.0 0.0 0.0 0.0 0.0 0.0 0.0 0.0 0.0 0.0 0.0 0.23352096348535295 -1.3813954973407165 -1.5113449441925855 -0.3503020943310839 -9.576775298132971e-06 0.0 2.6829584117154637 -14.716208851730105 -17.180196773323225 -2.547185045217601 -7.391513258755052e-05 0.0 -2.6666696707354944 -2.066336294213766 2.3151519934283655 -2.2484499416747035 -0.8906930128680628 -0.9420903364764612 0.0 0.0 -0.0 -0.0 -0.0 0.0 0.5108852982521057 -1.6734538078308105 -1.2944839000701904 -0.4210750460624695 -0.00028593477327376604 0.027816634625196457 0.23352096348535295 -1.3813954973407165 -1.5113449441925855 -0.3503020943310839 -9.576775298132971e-06 0.0 0.17467731476689985 0.4192559985965785 0.30274400658165235 -2.361337052892132 -0.014664161673296866 0.0015991744744029235 0.0 0.0 0.0 0.0 0.0 0.0 12.388811650003207 -12.242275262623327 1.4186923590580225 0.2732988176603076 0.20348835690443567 0.11312966692293416 0.1746769280968488 0.4192468359229866 0.3027467533030364 -2.3613411376090006 -0.014660099016828493 0.0015352698068651608 0.0 0.0 0.0 0.0 0.0 0.0 768 30.4375 31.25 30.4375 34.5625 36.875 37.125 0.598536 7 253 253 253 253 253 253 1 -0.13407529890537262 0.2106897532939911 -9.979032516479492 0.0 1.0 0.0 47.74061965942383 47.7585334777832 0.5337609052658081 47.68526077270508 47.6279296875 47.64226531982422 47.599266052246094 47.5562629699707 47.5275993347168 3840 1
16661.132999999998 -2.666677 -2.0663800000000005 2.3151730000000006 -2.248468 -0.8907210000000001 -0.9420859999999998 0.0 0.0 0.0 0.0 0.0 0.0 0.0 0.0 0.0 0.0 0.0 0.0 0.2336285734017059 -1.3813999389804845 -1.5113823948372735 -0.35030258528214386 5.065279320916282e-06 0.0 2.6841947586624526 -14.716256169170038 -17.180622493108437 -2.547188615116891 3.909466192357001e-05 0.0 -2.6666815916644495 -2.066360136071676 2.3151519934283655 -2.248486181298727 -0.8907049337970179 -0.9420903364764612 0.0 0.0 -0.0 -0.0 -0.0 0.0 0.5373475551605225 -1.666372299194336 -1.2632536888122559 -0.4316893517971039 -0.0054374136961996555 0.02900235541164875 0.2336285734017059 -1.3813999389804845 -1.5113823948372735 -0.35030258528214386 5.065279320916282e-06 0.0 0.1746854823496328 0.41925299754726153 0.30275677732176165 -2.361319302024622 -0.01467271986252356 0.0015219288031137978 0.0 0.0 0.0 0.0 0.0 0.0 12.200112220482351 -12.349151124751334 1.2935262515584283 0.27775532243933365 0.19866706711617504 0.10989506331248863 0.1746769280968488 0.4192468359229866 0.3027467533030364 -2.3613411376090006 -0.014660099016828493 0.0015352698068651608 0.0 0.0 0.0 0.0 0.0 0.0 768 30.4375 31.25 30.4375 34.5625 36.875 37.125 0.598512 7 253 253 253 253 253 253 1 -0.13407529890537262 0.1149216815829277 -9.959878921508789 0.0 1.0 0.0 47.72987747192383 47.77644348144531 0.5583816170692444 47.6995964050293 47.64226531982422 47.65659713745117 47.64226531982422 47.584930419921875 47.5562629699707 3840 1
16661.153 -2.666677 -2.0663800000000005 2.3151730000000006 -2.248468 -0.8907210000000001 -0.9420859999999998 0.0 0.0 0.0 0.0 0.0 0.0 0.0 0.0 0.0 0.0 0.0 0.0 0.23347830391349786 -1.3815900283407534 -1.5113269490716972 -0.3502939058925962 -3.952046280813853e-06 0.0 2.682468289306578 -14.718281219006666 -17.179992213987507 -2.5471255038434637 -3.050254555888358e-05 0.0 -2.6667173544513147 -2.066336294213766 2.3151758352862757 -2.2484737835326136 -0.8907049337970179 -0.9420660177813929 0.0 0.0 -0.0 -0.0 -0.0 0.0 0.5000249147415161 -1.6745529174804688 -1.22898530960083 -0.4299874007701874 0.0024100258015096188 0.01982250064611435 0.23347830391349786 -1.3815900283407534 -1.5113269490716972 -0.3502939058925962 -3.952046280813853e-06 0.0 0.1746970030385476 0.41924493466310475 0.3027332906221992 -2.361347060695578 -0.014575848538012918 0.0015796000959369992 0.0 0.0 0.0 0.0 0.0 0.0 12.07887337433363 -12.243613911408616 1.488458892755249 0.2739416419538912 0.19583554398136452 0.10803890671862239 0.1746769280968488 0.4192468359229866 0.3027467533030364 -2.3613411376090006 -0.014660099016828493 0.0015352698068651608 0.0 0.0 0.0 0.0 0.0 0.0 768 30.4375 31.25 30.4375 34.5625 36.875 37.125 0.598236 7 253 253 253 253 253 253 1 -0.038307227194309235 0.1149216815829277 -10.074800491333008 0.0 1.0 0.0 47.77823257446289 47.793460845947266 0.48452481627464294 47.71392822265625 47.64226531982422 47.670928955078125 47.65659713745117 47.584930419921875 47.5275993347168 3840 1
16661.173 -2.666677 -2.0663800000000005 2.3151730000000006 -2.248468 -0.8907210000000001 -0.9420859999999998 0.0 0.0 0.0 0.0 0.0 0.0 0.0 0.0 0.0 0.0 0.0 0.0 0.2335467261433024 -1.3814535349650163 -1.5113441790894027 -0.3502946295417309 3.1904225342956155e-06 0.0 2.683254402871127 -14.71682713505454 -17.180188076021338 -2.5471307657824696 2.4624207762162224e-05 0.0 -2.6666935125934046 -2.066348215142721 2.3151758352862757 -2.2484623394408167 -0.8907406965838831 -0.9421260992633265 0.0 0.0 -0.0 -0.0 -0.0 0.0 0.5009670257568359 -1.7315620183944702 -1.2932378053665161 -0.434526264667511 -0.006160109769552946 0.02277638204395771 0.2335467261433024 -1.3814535349650163 -1.5113441790894027 -0.3502946295417309 3.1904225342956155e-06 0.0 0.17468947840077326 0.41924252406494866 0.30273040363794035 -2.3613751545297825 -0.014665037041187521 0.0015363998764237803 0.0 0.0 0.0 0.0 0.0 0.0 12.422003824918262 -12.183844639333902 1.5973724971676049 0.2716110806813279 0.2039914286232897 0.11493351306519634 0.1746769280968488 0.4192468359229866 0.3027467533030364 -2.3613411376090006 -0.014660099016828493 0.0015352698068651608 0.0 0.0 0.0 0.0 0.0 0.0 768 30.4375 31.25 30.4375 34.5625 36.875 37.125 0.594432 7 253 253 253 253 253 253 1 -0.13407529890537262 0.15322890877723694 -10.036493301391602 0.0 1.0 0.0 47.77913284301758 47.80241775512695 0.5001915693283081 47.6995964050293 47.64226531982422 47.670928955078125 47.6995964050293 47.5562629699707 47.54193115234375 3840 1
16661.193 -2.666677 -2.0663800000000005 2.3151730000000006 -2.248468 -0.8907210000000001 -0.9420859999999998 0.0 0.0 0.0 0.0 0.0 0.0 0.0 0.0 0.0 0.0 0.0 0.0 0.23355907690377548 -1.3815511472349211 -1.511380502405319 -0.3503049863425368 6.940201057057089e-06 0.0 2.6833963026655083 -14.717867012883284 -17.180600980909333 -2.5472060741764415 5.3565617376095436e-05 0.0 -2.6666696707354944 -2.066372057000631 2.3151519934283655 -2.2484260998167933 -0.890716854725973 -0.9421017805682581 0.0 0.0 -0.0 -0.0 -0.0 0.0 0.5252748131752014 -1.668280839920044 -1.2504016160964966 -0.4377143383026123 0.004539492540061474 0.03575603663921356 0.23355907690377548 -1.3815511472349211 -1.511380502405319 -0.3503049863425368 6.940201057057089e-06 0.0 0.17467354488808967 0.4192488019488711 0.3027489700549155 -2.361350935756279 -0.01467601944059972 0.0015642387597516745 0.0 0.0 0.0 0.0 0.0 0.0 12.402109616303312 -12.211095785712509 1.4748672196890658 0.27330142501673405 0.2006572065427794 0.11090953501720509 0.1746769280968488 0.4192468359229866 0.3027467533030364 -2.3613411376090006 -0.014660099016828493 0.0015352698068651608 0.0 0.0 0.0 0.0 0.0 0.0 768 30.4375 31.25 30.4375 34.5625 36.875 37.125 0.597732 7 253 253 253 253 253 253 1 -0.17238251864910126 0.19153612852096558 -10.017339706420898 0.0 1.0 0.0 47.7585334777832 47.77823257446289 0.5024327039718628 47.6995964050293 47.6279296875 47.64226531982422 47.64226531982422 47.570594787597656 47.51326370239258 3840 1
16661.213 -2.666677 -2.0663800000000005 2.3151730000000006 -2.248468 -0.8907210000000001 -0.9420859999999998 0.0 0.0 0.0 0.0 0.0 0.0 0.0 0.0 0.0 0.0 0.0 0.0 0.23360455047582998 -1.3813552422213624 -1.5113294103244703 -0.350291620614701 -1.3182807027695045e-06 0.0 2.6839187555572463 -14.715780008039136 -17.180020192250915 -2.5471088866842373 -1.0174708072331368e-05 0.0 -2.6666935125934046 -2.066360136071676 2.3151519934283655 -2.2484737835326136 -0.890728775654928 -0.9421260992633265 0.0 0.0 -0.0 -0.0 -0.0 0.0 0.5304580330848694 -1.6677908897399902 -1.2372115850448608 -0.45352742075920105 -0.015658805146813393 0.02397788129746914 0.23360455047582998 -1.3813552422213624 -1.5113294103244703 -0.350291620614701 -1.3182807027695045e-06 0.0 0.17469254387930888 0.41924673758257747 0.3027512801392962 -2.3613440529729157 -0.014688779259645719 0.0014950793213816943 0.0 0.0 0.0 0.0 0.0 0.0 12.2639596379494 -12.394918871516351 1.2301873231988862 0.2773964092631379 0.2052129014885216 0.10827278856926206 0.1746769280968488 0.4192468359229866 0.3027467533030364 -2.3613411376090006 -0.014660099016828493 0.0015352698068651608 0.0 0.0 0.0 0.0 0.0 0.0 768 30.4375 31.25 30.4375 34.5625 36.875 37.125 0.59592 7 253 253 253 253 253 253 1 -0.07661445438861847 0.09576806426048279 -9.979032516479492 0.0 1.0 0.0 47.764801025390625 47.76122283935547 0.5180941224098206 47.71392822265625 47.64226531982422 47.65659713745117 47.6279296875 47.5562629699707 47.5275993347168 3840 1
16661.233 -2.666677 -2.0663800000000005 2.3151730000000006 -2.248468 -0.8907210000000001 -0.9420859999999998 0.0 0.0 0.0 0.0 0.0 0.0 0.0 0.0 0.0 0.0 0.0 0.0 0.23352387618709394 -1.3813963424255793 -1.511279484828656 -0.35028389581896247 -1.2210650995724382e-05 0.0 2.682991876195569 -14.716217854543101 -17.17945266473485 -2.547052716639864 -9.424381999494437e-05 0.0 -2.666657272969381 -2.066360136071676 2.3151519934283655 -2.248510023156637 -0.890716854725973 -0.9421017805682581 0.0 0.0 -0.0 -0.0 -0.0 0.0 0.5507283806800842 -1.7003098726272583 -1.2742748260498047 -0.43323326110839844 -0.021660251542925835 0.021856095641851425 0.23352387618709394 -1.3813963424255793 -1.511279484828656 -0.35028389581896247 -1.2210650995724382e-05 0.0 0.17467993450369235 0.41925706652431305 0.30275915620314003 -2.3613177189653682 -0.014721930668084837 0.0014948360268825982 0.0 0.0 0.0 0.0 0.0 0.0 12.187645074985618 -12.553495582318341 1.3436044606478665 0.2811027938478358 0.1991322581768083 0.10779546674930288 0.1746769280968488 0.4192468359229866 0.3027467533030364 -2.3613411376090006 -0.014660099016828493 0.0015352698068651608 0.0 0.0 0.0 0.0 0.0 0.0 768 30.4375 31.25 30.4375 34.5625 36.875 37.125 0.597216 7 253 253 253 253 253 253 1 -0.15322890877723694 0.07661445438861847 -9.979032516479492 0.0 1.0 0.0 47.75763702392578 47.80152130126953 0.5606174468994141 47.7282600402832 47.65659713745117 47.6995964050293 47.6279296875 47.584930419921875 47.54193115234375 3840 1
16661.253 -2.666677 -2.0663800000000005 2.3151730000000006 -2.248468 -0.8907210000000001 -0.9420859999999998 0.0 0.0 0.0 0.0 0.0 0.0 0.0 0.0 0.0 0.0 0.0 0.0 0.23359406113051304 -1.3813304957953492 -1.5113337963420759 -0.35029234431488215 5.824229951428415e-06 0.0 2.6837982418490487 -14.715516380733094 -17.18007005025706 -2.5471141489944222 4.495236816970547e-05 0.0 -2.6666815916644495 -2.066360136071676 2.315212074910299 -2.2484623394408167 -0.890716854725973 -0.942077938710348 0.0 0.0 -0.0 -0.0 -0.0 0.0 0.540790319442749 -1.6935091018676758 -1.3047353029251099 -0.43048572540283203 -0.003981803543865681 0.01869119331240654 0.23359406113051304 -1.3813304957953492 -1.5113337963420759 -0.35029234431488215 5.824229951428415e-06 0.0 0.17467191367272847 0.41924334830876026 0.30271801908790386 -2.3613672185020507 -0.014618453879811527 0.0016078753448582818 0.0 0.0 0.0 0.0 0.0 0.0 12.244371262704558 -12.194063479456943 1.4436247703584568 0.2736940530362366 0.19857297907207955 0.10771746899014047 0.1746769280968488 0.4192468359229866 0.3027467533030364 -2.3613411376090006 -0.014660099016828493 0.0015352698068651608 0.0 0.0 0.0 0.0 0.0 0.0 768 30.4375 31.25 30.4375 34.5625 36.875 37.125 0.596244 7 253 253 253 253 253 253 1 -0.17238251864910126 0.09576806426048279 -9.921571731567383 0.0 1.0 0.0 47.77107238769531 47.79972839355469 0.5136224627494812 47.6995964050293 47.6279296875 47.65659713745117 47.6279296875 47.584930419921875 47.570594787597656 3840 1
16661.273 -2.666677 -2.0663800000000005 2.3151730000000006 -2.248468 -0.8907210000000001 -0.9420859999999998 0.0 0.0 0.0 0.0 0.0 0.0 0.0 0.0 0.0 0.0 0.0 0.0 0.23359660253639875 -1.3813749507970132 -1.5113478803973521 -0.3503004158556814 -1.0335653566415987e-05 0.0 2.6838274404537343 -14.715989966386335 -17.180230150598113 -2.547172840359242 -7.977228033005684e-05 0.0 -2.6667173544513147 -2.066360136071676 2.3151519934283655 -2.2484737835326136 -0.8906930128680628 -0.942077938710348 0.0 0.0 -0.0 -0.0 -0.0 0.0 0.5830163359642029 -1.665188193321228 -1.3011583089828491 -0.43521156907081604 -0.0061062173917889595 0.029781915247440338 0.23359660253639875 -1.3813749507970132 -1.5113478803973521 -0.3503004158556814 -1.0335653566415987e-05 0.0 0.1746972055689843 0.4192476567301875 0.30275635184754784 -2.3613157156387787 -0.014613835992004281 0.0015319312666465296 0.0 0.0 0.0 0.0 0.0 0.0 12.20743207510999 -12.261194503493986 1.5140929254358397 0.2760209370769501 0.20428624603266332 0.10421295072012746 0.1746769280968488 0.4192468359229866 0.3027467533030364 -2.3613411376090006 -0.014660099016828493 0.0015352698068651608 0.0 0.0 0.0 0.0 0.0 0.0 768 30.4375 31.25 30.4375 34.5625 36.875 37.125 0.595176 7 253 253 253 253 253 253 1 -0.17238251864910126 0.17238251864910126 -10.055646896362305 0.0 1.0 0.0 47.78718948364258 47.82211685180664 0.5449506640434265 47.7282600402832 47.64226531982422 47.65659713745117 47.6279296875 47.570594787597656 47.51326370239258 3840 1
16661.292999999998 -2.666677 -2.0663800000000005 2.3151730000000006 -2.248468 -0.8907210000000001 -0.9420859999999998 0.0 0.0 0.0 0.0 0.0 0.0 0.0 0.0 0.0 0.0 0.0 0.0 0.2334855364890507 -1.3814074609378981 -1.5113450609345849 -0.3502969160044817 2.0745564797128784e-06 0.0 2.682551385484018 -14.716336301685661 -17.180198100386594 -2.5471473915572496 1.6011769357085563e-05 0.0 -2.6666815916644495 -2.066372057000631 2.3151634375201624 -2.2484737835326136 -0.8907049337970179 -0.9420660177813929 0.0 0.0 -0.0 -0.0 -0.0 0.0 0.5370460152626038 -1.69199800491333 -1.3253881931304932 -0.43290770053863525 -0.013486256822943687 0.013650498352944851 0.2334855364890507 -1.3814074609378981 -1.5113450609345849 -0.3502969160044817 2.0745564797128784e-06 0.0 0.17468012833756652 0.4192502192091425 0.3027525137634245 -2.361324963051098 -0.014638823717880238 0.0015462267616924708 0.0 0.0 0.0 0.0 0.0 0.0 12.021997314229399 -12.146346222587642 1.4880432479487435 0.2724789017989099 0.19596387777539237 0.10275991475754176 0.1746769280968488 0.4192468359229866 0.3027467533030364 -2.3613411376090006 -0.014660099016828493 0.0015352698068651608 0.0 0.0 0.0 0.0 0.0 0.0 768 30.4375 31.25 30.4375 34.5625 36.875 37.125 0.595332 7 253 253 253 253 253 253 1 -0.15322890877723694 0.13407528400421143 -10.074800491333008 0.0 1.0 0.0 47.77286148071289 47.78898239135742 0.48676595091819763 47.71392822265625 47.6279296875 47.670928955078125 47.64226531982422 47.570594787597656 47.54193115234375 3840 1
16661.313 -2.666677 -2.0663800000000005 2.3151730000000006 -2.248468 -0.8907210000000001 -0.9420859999999998 0.0 0.0 0.0 0.0 0.0 0.0 0.0 0.0 0.0 0.0 0.0 0.0 0.2335749689907189 -1.3813931588153983 -1.5113925215674708 -0.35030692509154737 1.3152991668262697e-06 0.0 2.683578889306588 -14.716183939076883 -17.180737608600854 -2.547220171587122 1.0151696085759887e-05 0.0 -2.6666696707354944 -2.0663238964476527 2.3151758352862757 -2.2484623394408167 -0.890716854725973 -0.9420660177813929 0.0 0.0 -0.0 -0.0 -0.0 0.0 0.5411899089813232 -1.6956696510314941 -1.2524372339248657 -0.43484747409820557 -0.0002608710201457143 0.025975016877055168 0.2335749689907189 -1.3813931588153983 -1.5113925215674708 -0.35030692509154737 1.3152991668262697e-06 0.0 0.1746789564695998 0.4192516364433487 0.30272534329066547 -2.3613672334093483 -0.01461848857353119 0.0016194591455047575 0.0 0.0 0.0 0.0 0.0 0.0 12.140932342293008 -12.545874759608344 1.1454218381332621 0.2828524526867659 0.19744795950110422 0.11223994041319821 0.1746769280968488 0.4192468359229866 0.3027467533030364 -2.3613411376090006 -0.014660099016828493 0.0015352698068651608 0.0 0.0 0.0 0.0 0.0 0.0 768 30.4375 31.25 30.4375 34.5625 36.875 37.125 0.598008 7 253 253 253 253 253 253 1 -0.19153612852096558 0.09576806426048279 -9.979032516479492 0.0 1.0 0.0 47.74778747558594 47.774654388427734 0.5427148342132568 47.68526077270508 47.64226531982422 47.64226531982422 47.61359786987305 47.5562629699707 47.498931884765625 3840 1
16661.333 -2.666677 -2.0663800000000005 2.3151730000000006 -2.248468 -0.8907210000000001 -0.9420859999999998 0.0 0.0 0.0 0.0 0.0 0.0 0.0 0.0 0.0 0.0 0.0 0.0 0.23345204789754864 -1.3813961767250973 -1.5113233912713344 -0.35029474669734434 -4.308872350295536e-06 0.0 2.6821666298846667 -14.716216089311562 -17.17995177073162 -2.5471316176672607 -3.3256588064357736e-05 0.0 -2.6666815916644495 -2.066348215142721 2.3151758352862757 -2.2484499416747035 -0.890728775654928 -0.9420903364764612 0.0 0.0 -0.0 -0.0 -0.0 0.0 0.5056332945823669 -1.6932413578033447 -1.2918721437454224 -0.4411032199859619 -0.011401299387216568 0.033346883952617645 0.23345204789754864 -1.3813961767250973 -1.5113233912713344 -0.35029474669734434 -4.308872350295536e-06 0.0 0.1746812101919834 0.41924551310408115 0.3027299782067596 -2.3613714138100135 -0.014634864514570637 0.0015808942104119912 0.0 0.0 0.0 0.0 0.0 0.0 12.166546395969233 -12.313471257372115 1.3126480518037447 0.27534402633832383 0.19847667512988204 0.10739971395535772 0.1746769280968488 0.4192468359229866 0.3027467533030364 -2.3613411376090006 -0.014660099016828493 0.0015352698068651608 0.0 0.0 0.0 0.0 0.0 0.0 768 30.4375 31.25 30.4375 34.5625 36.875 37.125 0.594913 7 253 253 253 253 253 253 1 -0.2106897532939911 0.1149216815829277 -9.940725326538086 0.0 1.0 0.0 47.73972702026367 47.77286148071289 0.5337609052658081 47.6995964050293 47.6279296875 47.65659713745117 47.61359786987305 47.570594787597656 47.51326370239258 3840 1
16661.353 -2.666677 -2.0663800000000005 2.3151730000000006 -2.248468 -0.8907210000000001 -0.9420859999999998 0.0 0.0 0.0 0.0 0.0 0.0 0.0 0.0 0.0 0.0 0.0 0.0 0.2335749160473726 -1.381380508763235 -1.5113806664547749 -0.35030692546075676 -1.2210741367796934e-05 0.0 2.6835782810323066 -14.716049176215718 -17.18060284573969 -2.5472201742717897 -9.424451750151803e-05 0.0 -2.6666935125934046 -2.066348215142721 2.3151634375201624 -2.2484737835326136 -0.8907049337970179 -0.9421017805682581 0.0 0.0 -0.0 -0.0 -0.0 0.0 0.527113676071167 -1.6778897047042847 -1.2711832523345947 -0.4325311779975891 -0.005381839815527201 0.03907480835914612 0.2335749160473726 -1.381380508763235 -1.5113806664547749 -0.35030692546075676 -1.2210741367796934e-05 0.0 0.17468809678962383 0.41924966450276074 0.3027442377900995 -2.3613355898484305 -0.014656706087131207 0.001548195455257483 0.0 0.0 0.0 0.0 0.0 0.0 12.574160152871206 -12.462682496916624 1.2961254573727228 0.2766771636658678 0.20281344814003538 0.11537129435006749 0.1746769280968488 0.4192468359229866 0.3027467533030364 -2.3613411376090006 -0.014660099016828493 0.0015352698068651608 0.0 0.0 0.0 0.0 0.0 0.0 768 30.4375 31.25 30.4375 34.5625 36.875 37.125 0.595117 7 253 253 253 253 253 253 1 -0.05746084079146385 0.19153612852096558 -9.959878921508789 0.0 1.0 0.0 47.76569747924805 47.788089752197266 0.5337609052658081 47.6995964050293 47.6279296875 47.64226531982422 47.61359786987305 47.5562629699707 47.51326370239258 3840 1
16661.373 -2.666677 -2.0663800000000005 2.3151730000000006 -2.248468 -0.8907210000000001 -0.9420859999999998 0.0 0.0 0.0 0.0 0.0 0.0 0.0 0.0 0.0 0.0 0.0 0.0 0.2335279283615463 -1.3815228923665404 -1.5113429266556027 -0.3502995765737119 -8.460722389748411e-06 0.0 2.6830384322536225 -14.717566009626092 -17.1801738389941 -2.5471667376081712 -6.530125201398745e-05 0.0 -2.6666696707354944 -2.066360136071676 2.3151634375201624 -2.2484623394408167 -0.890716854725973 -0.942077938710348 0.0 0.0 -0.0 -0.0 -0.0 0.0 0.5341442227363586 -1.6778525114059448 -1.268068790435791 -0.44094231724739075 -0.0013832062250003219 0.024509133771061897 0.2335279283615463 -1.3815228923665404 -1.5113429266556027 -0.3502995765737119 -8.460722389748411e-06 0.0 0.17467701621715395 0.4192506432184539 0.30274473194102364 -2.361345076658802 -0.014653519217371826 0.00156243421912736 0.0 0.0 0.0 0.0 0.0 0.0 12.5003210775372 -12.263482492997358 1.3529296433618736 0.2783318375087964 0.2018364500550874 0.11204495198464726 0.1746769280968488 0.4192468359229866 0.3027467533030364 -2.3613411376090006 -0.014660099016828493 0.0015352698068651608 0.0 0.0 0.0 0.0 0.0 0.0 768 30.4375 31.25 30.4375 34.5625 36.875 37.125 0.596353 7 253 253 253 253 253 253 1 -0.07661445438861847 0.13407529890537262 -9.998186111450195 0.0 1.0 0.0 47.798831939697266 47.81047821044922 0.5270481109619141 47.6995964050293 47.64226531982422 47.65659713745117 47.64226531982422 47.584930419921875 47.51326370239258 3840 1
16661.393 -2.666677 -2.0663800000000005 2.3151730000000006 -2.248468 -0.8907210000000001 -0.9420859999999998 0.0 0.0 0.0 0.0 0.0 0.0 0.0 0.0 0.0 0.0 0.0 0.0 0.23357443987330107 -1.3813825623529585 -1.5113825909952663 -0.35030993412570616 -1.2210876160466902e-05 0.0 2.683572810194864 -14.716071053408259 -17.18062472293223 -2.5472420514643304 -9.424555785359504e-05 0.0 -2.6667054335223597 -2.066348215142721 2.3151634375201624 -2.248498102227682 -0.8907049337970179 -0.9420540968524378 0.0 0.0 -0.0 -0.0 -0.0 0.0 0.5328697562217712 -1.6760799884796143 -1.266825556755066 -0.4241023361682892 -0.0019098493503406644 0.02776172012090683 0.23357443987330107 -1.3813825623529585 -1.5113825909952663 -0.35030993412570616 -1.2210876160466902e-05 0.0 0.17469602199822695 0.4192491278635381 0.30274838848303676 -2.361324870900964 -0.014596883218709507 0.0015400630542947746 0.0 0.0 0.0 0.0 0.0 0.0 12.395506491810504 -12.412552781672149 1.3761547833214118 0.27636866839861407 0.2002753243938148 0.11204282950718077 0.1746769280968488 0.4192468359229866 0.3027467533030364 -2.3613411376090006 -0.014660099016828493 0.0015352698068651608 0.0 0.0 0.0 0.0 0.0 0.0 768 30.4375 31.25 30.4375 34.5625 36.875 37.125 0.598441 7 253 253 253 253 253 253 1 -0.09576806426048279 0.2106897532939911 -10.036493301391602 0.0 1.0 0.0 47.76569747924805 47.79793930053711 0.5337609052658081 47.71392822265625 47.6279296875 47.65659713745117 47.65659713745117 47.584930419921875 47.5275993347168 3840 1
16661.413 -2.666677 -2.0663800000000005 2.3151730000000006 -2.248468 -0.8907210000000001 -0.9420859999999998 0.0 0.0 0.0 0.0 0.0 0.0 0.0 0.0 0.0 0.0 0.0 0.0 0.23356967245290525 -1.3814274208167854 -1.51135837958245 -0.35029752265345016 3.190417896542e-06 0.0 2.683518036565712 -14.716548937203099 -17.18034949996745 -2.547151802741782 2.4624171967214266e-05 0.0 -2.6666815916644495 -2.0663839779295863 2.315188233052389 -2.2484737835326136 -0.8907049337970179 -0.9420903364764612 0.0 0.0 -0.0 -0.0 -0.0 0.0 0.4872927963733673 -1.6746445894241333 -1.2958914041519165 -0.4433193802833557 -0.011793346144258976 0.017148548737168312 0.23356967245290525 -1.3814274208167854 -1.51135837958245 -0.35029752265345016 3.190417896542e-06 0.0 0.17467349427023443 0.4192467981977659 0.3027430331771046 -2.361330613755714 -0.014661968115234767 0.001547977728778822 0.0 0.0 0.0 0.0 0.0 0.0 12.503842419417536 -12.262657030546992 1.2427592493951032 0.2783573321153739 0.2031561174791627 0.11554024235062274 0.1746769280968488 0.4192468359229866 0.3027467533030364 -2.3613411376090006 -0.014660099016828493 0.0015352698068651608 0.0 0.0 0.0 0.0 0.0 0.0 768 30.4375 31.25 30.4375 34.5625 36.875 37.125 0.594589 7 253 253 253 253 253 253 1 -0.09576806426048279 0.17238251864910126 -9.940725326538086 0.0 1.0 0.0 47.74688720703125 47.7585334777832 0.5561404824256897 47.68526077270508 47.6279296875 47.64226531982422 47.6279296875 47.5562629699707 47.54193115234375 3840 1
16661.433 -2.666677 -2.0663800000000005 2.3151730000000006 -2.248468 -0.8907210000000001 -0.9420859999999998 0.0 0.0 0.0 0.0 0.0 0.0 0.0 0.0 0.0 0.0 0.0 0.0 0.2335836696481829 -1.381427865030447 -1.5113312185144012 -0.35029980808195044 -1.7478084727276306e-05 0.0 2.683678852503819 -14.71655366947639 -17.18004074682976 -2.547168420996117 -0.00013489874302939213 0.0 -2.66672927538027 -2.066372057000631 2.3151758352862757 -2.2484623394408167 -0.890728775654928 -0.9420903364764612 0.0 0.0 -0.0 -0.0 -0.0 0.0 0.5305175185203552 -1.646565318107605 -1.2861968278884888 -0.4352126121520996 -0.0034473068080842495 0.027986707165837288 0.2335836696481829 -1.381427865030447 -1.5113312185144012 -0.35029980808195044 -1.7478084727276306e-05 0.0 0.17469972329077738 0.4192364438417462 0.3027403701002731 -2.361355236057847 -0.014594210156589632 0.0015196298024327303 0.0 0.0 0.0 0.0 0.0 0.0 12.409251783159164 -12.290007237921532 1.3056004964056553 0.27722521633850655 0.20041987018272267 0.11255330190349343 0.1746769280968488 0.4192468359229866 0.3027467533030364 -2.3613411376090006 -0.014660099016828493 0.0015352698068651608 0.0 0.0 0.0 0.0 0.0 0.0 768 30.4375 31.25 30.4375 34.5625 36.875 37.125 0.600552 7 253 253 253 253 253 253 1 -0.09576806426048279 0.15322890877723694 -10.036493301391602 0.0 1.0 0.0 47.731666564941406 47.774654388427734 0.5695713758468628 47.6995964050293 47.64226531982422 47.6279296875 47.65659713745117 47.570594787597656 47.51326370239258 3840 1
16661.452999999998 -2.666677 -2.0663800000000005 2.3151730000000006 -2.248468 -0.8907210000000001 -0.9420859999999998 0.0 0.0 0.0 0.0 0.0 0.0 0.0 0.0 0.0 0.0 0.0 0.0 0.2335812890098768 -1.3814581708202698 -1.5113596198639803 -0.3503055940121253 5.0652120602332444e-06 0.0 2.6836515009826827 -14.716876521500525 -17.180363598853894 -2.5472104927823054 3.909414279451561e-05 0.0 -2.6667054335223597 -2.066372057000631 2.315188233052389 -2.2484737835326136 -0.890728775654928 -0.9420903364764612 0.0 0.0 -0.0 -0.0 -0.0 0.0 0.5055848956108093 -1.6735873222351074 -1.3114851713180542 -0.4331664443016052 -0.00912690069526434 0.033650390803813934 0.2335812890098768 -1.3814581708202698 -1.5113596198639803 -0.3503055940121253 5.0652120602332444e-06 0.0 0.1746885309685473 0.41924000778835 0.3027355141365681 -2.3613554376285224 -0.014621973928510255 0.0015322649697373342 0.0 0.0 0.0 0.0 0.0 0.0 12.203945933745146 -12.18343449082257 1.4386655913482702 0.26929675216658927 0.20389393818564855 0.10829947060434433 0.1746769280968488 0.4192468359229866 0.3027467533030364 -2.3613411376090006 -0.014660099016828493 0.0015352698068651608 0.0 0.0 0.0 0.0 0.0 0.0 768 30.4375 31.25 30.4375 34.5625 36.875 37.125 0.595284 7 253 253 253 253 253 253 1 -0.038307227194309235 0.15322890877723694 -9.864110946655273 0.0 1.0 0.0 47.7639045715332 47.764801025390625 0.49571460485458374 47.6995964050293 47.6279296875 47.61359786987305 47.599266052246094 47.570594787597656 47.5562629699707 3840 1
16661.472999999998 -2.666677 -2.0663800000000005 2.3151730000000006 -2.248468 -0.8907210000000001 -0.9420859999999998 0.0 0.0 0.0 0.0 0.0 0.0 0.0 0.0 0.0 0.0 0.0 0.0 0.23350607663042977 -1.3814588513595334 -1.51133806565085 -0.35029824631788176 -1.2210511792886826e-05 0.0 2.6827873743403003 -14.71688377138512 -17.180118581576867 -2.547157064792017 -9.424274560446593e-05 0.0 -2.6667173544513147 -2.066360136071676 2.3151634375201624 -2.248486181298727 -0.890728775654928 -0.942077938710348 0.0 0.0 -0.0 -0.0 -0.0 0.0 0.5887684226036072 -1.6740689277648926 -1.2882870435714722 -0.4325329661369324 -0.007099698763340712 0.020447680726647377 0.23350607663042977 -1.3814588513595334 -1.51133806565085 -0.35029824631788176 -1.2210511792886826e-05 0.0 0.17470165543846725 0.4192421342235737 0.3027471107239281 -2.361344085554899 -0.014604207543679717 0.0015059418303183822 0.0 0.0 0.0 0.0 0.0 0.0 12.209541588194668 -12.279416313921427 1.3193335910356163 0.2747754733293192 0.1974232026429699 0.1121329356962211 0.1746769280968488 0.4192468359229866 0.3027467533030364 -2.3613411376090006 -0.014660099016828493 0.0015352698068651608 0.0 0.0 0.0 0.0 0.0 0.0 768 30.4375 31.25 30.4375 34.5625 36.875 37.125 0.595764 7 253 253 253 253 253 253 1 -0.038307227194309235 0.15322890877723694 -9.864110946655273 0.0 1.0 0.0 47.785400390625 47.81316375732422 0.5337609052658081 47.71392822265625 47.64226531982422 47.65659713745117 47.65659713745117 47.599266052246094 47.54193115234375 3840 1
16661.493 -2.666677 -2.0663800000000005 2.3151730000000006 -2.248468 -0.8907210000000001 -0.9420859999999998 0.0 0.0 0.0 0.0 0.0 0.0 0.0 0.0 0.0 0.0 0.0 0.0 0.23358650302272552 -1.3814336713195072 -1.5113366599315798 -0.3502882351295919 5.565288717759152e-07 0.0 2.6837114055814926 -14.716615524725396 -17.180102602078765 -2.547084269483312 4.295381698486365e-06 0.0 -2.6667054335223597 -2.066336294213766 2.3151519934283655 -2.2484623394408167 -0.8906930128680628 -0.942077938710348 0.0 0.0 -0.0 -0.0 -0.0 0.0 0.4502871334552765 -1.6457245349884033 -1.2783653736114502 -0.43785959482192993 -0.002175327390432358 0.03258099406957626 0.23358650302272552 -1.3814336713195072 -1.5113366599315798 -0.3502882351295919 5.565288717759152e-07 0.0 0.17469380084392502 0.41925053947341445 0.3027461225602678 -2.361331704517124 -0.014612678615231934 0.0015748341481862905 0.0 0.0 0.0 0.0 0.0 0.0 12.24175195385157 -12.351281886777107 1.2338380012425407 0.27479046853935124 0.20071418362609114 0.10744125826545554 0.1746769280968488 0.4192468359229866 0.3027467533030364 -2.3613411376090006 -0.014660099016828493 0.0015352698068651608 0.0 0.0 0.0 0.0 0.0 0.0 768 30.4375 31.25 30.4375 34.5625 36.875 37.125 0.598128 7 253 253 253 253 253 253 1 -0.15322890877723694 0.1149216741323471 -10.055646896362305 0.0 1.0 0.0 47.777339935302734 47.789878845214844 0.5136224627494812 47.71392822265625 47.6279296875 47.64226531982422 47.6279296875 47.5562629699707 47.54193115234375 3840 1
16661.513 -2.666677 -2.0663800000000005 2.3151730000000006 -2.248468 -0.8907210000000001 -0.9420859999999998 0.0 0.0 0.0 0.0 0.0 0.0 0.0 0.0 0.0 0.0 0.0 0.0 0.23357622853228996 -1.3813931587313937 -1.511392521488745 -0.3503069249684738 5.823979345421692e-06 0.0 2.683593360374207 -14.716183938181969 -17.18073760770594 -2.547220170692206 4.49504339511781e-05 0.0 -2.6666696707354944 -2.066348215142721 2.3151519934283655 -2.248510023156637 -0.8907530943499964 -0.9421017805682581 0.0 0.0 -0.0 -0.0 -0.0 0.0 0.5354171991348267 -1.6561776399612427 -1.2333351373672485 -0.43183720111846924 0.006384468171745539 0.019711019471287727 0.23357622853228996 -1.3813931587313937 -1.511392521488745 -0.3503069249684738 5.823979345421692e-06 0.0 0.17469202308016812 0.4192505128819458 0.3027498789884616 -2.361352472530575 -0.014691958297680196 0.0014759954428817514 0.0 0.0 0.0 0.0 0.0 0.0 12.096254330393377 -12.424008835045822 1.5163183283633117 0.2773439244144171 0.1994777075464357 0.10984782560151443 0.1746769280968488 0.4192468359229866 0.3027467533030364 -2.3613411376090006 -0.014660099016828493 0.0015352698068651608 0.0 0.0 0.0 0.0 0.0 0.0 768 30.4375 31.25 30.4375 34.5625 36.875 37.125 0.59724 7 253 253 253 253 253 253 1 -0.07661445438861847 0.17238251864910126 -9.90241813659668 0.0 1.0 0.0 47.74509811401367 47.76927947998047 0.5561404824256897 47.71392822265625 47.6279296875 47.6279296875 47.6279296875 47.5562629699707 47.5275993347168 3840 1
16661.533 -2.666677 -2.0663800000000005 2.3151730000000006 -2.248468 -0.8907210000000001 -0.9420859999999998 0.0 0.0 0.0 0.0 0.0 0.0 0.0 0.0 0.0 0.0 0.0 0.0 0.23356605871981878 -1.3815175756792215 -1.5113490405132217 -0.3502959598002833 -2.077099829576892e-06 0.0 2.683476517828219 -14.717509370176248 -17.180243338202303 -2.5471404386184178 -1.603139935116632e-05 0.0 -2.6666815916644495 -2.066372057000631 2.3151758352862757 -2.2484623394408167 -0.8907530943499964 -0.9421141783343714 0.0 0.0 -0.0 -0.0 -0.0 0.0 0.5233253836631775 -1.6616122722625732 -1.2929646968841553 -0.43664759397506714 -0.008928592316806316 0.03544778376817703 0.23356605871981878 -1.3815175756792215 -1.5113490405132217 -0.3502959598002833 -2.077099829576892e-06 0.0 0.1746833594332937 0.4192413163633305 0.3027369214304826 -2.3613743542223267 -0.014671813556556421 0.0015141729126515564 0.0 0.0 0.0 0.0 0.0 0.0 12.249528329668156 -12.442204881138899 1.4803312270859577 0.27432399604127944 0.19556635470572586 0.11306275335049408 0.1746769280968488 0.4192468359229866 0.3027467533030364 -2.3613411376090006 -0.014660099016828493 0.0015352698068651608 0.0 0.0 0.0 0.0 0.0 0.0 768 30.4375 31.25 30.4375 34.5625 36.875 37.125 0.597216 7 253 253 253 253 253 253 1 -0.17238251864910126 0.13407528400421143 -9.998186111450195 0.0 1.0 0.0 47.76122283935547 47.80062484741211 0.5941867828369141 47.7282600402832 47.61359786987305 47.670928955078125 47.65659713745117 47.584930419921875 47.5562629699707 3840 1
16661.553 -2.666677 -2.0663800000000005 2.3151730000000006 -2.248468 -0.8907210000000001 -0.9420859999999998 0.0 0.0 0.0 0.0 0.0 0.0 0.0 0.0 0.0 0.0 0.0 0.0 0.2335628723164524 -1.3813901809404507 -1.5113510574259306 -0.3502984775594086 1.0332886062280441e-05 0.0 2.6834399087478724 -14.716152215338282 -17.180266265434998 -2.547158746240597 7.97509202763073e-05 0.0 -2.6667173544513147 -2.066336294213766 2.3151634375201624 -2.2484737835326136 -0.8907049337970179 -0.9420903364764612 0.0 0.0 -0.0 -0.0 -0.0 0.0 0.5224290490150452 -1.672415852546692 -1.2591530084609985 -0.4354844093322754 0.004937866702675819 0.02795265056192875 0.2335628723164524 -1.3813901809404507 -1.5113510574259306 -0.3502984775594086 1.0332886062280441e-05 0.0 0.1746995776894871 0.4192462632619849 0.30274009977357197 -2.3613412523971173 -0.014609911601365596 0.00155473581895567 0.0 0.0 0.0 0.0 0.0 0.0 12.332146744532269 -12.327891575962383 1.4386303208651157 0.2791878395557378 0.20200787998480751 0.11479779404198986 0.1746769280968488 0.4192468359229866 0.3027467533030364 -2.3613411376090006 -0.014660099016828493 0.0015352698068651608 0.0 0.0 0.0 0.0 0.0 0.0 768 30.4375 31.25 30.4375 34.5625 36.875 37.125 0.595788 7 253 253 253 253 253 253 1 -0.1149216815829277 0.1149216815829277 -9.940725326538086 0.0 1.0 0.0 47.77375411987305 47.79972839355469 0.5091454982757568 47.7282600402832 47.65659713745117 47.670928955078125 47.64226531982422 47.584930419921875 47.5562629699707 3840 1
16661.573 -2.666677 -2.0663800000000005 2.3151730000000006 -2.248468 -0.8907210000000001 -0.9420859999999998 0.0 0.0 0.0 0.0 0.0 0.0 0.0 0.0 0.0 0.0 0.0 0.0 0.23355943751877545 -1.381394130259854 -1.5113547585669218 -0.3503042636123506 1.3153947176182184e-06 0.0 2.683400445826932 -14.716194288017158 -17.180308338113875 -2.5472008189194737 1.0152433562544699e-05 0.0 -2.6666815916644495 -2.066372057000631 2.3151758352862757 -2.248486181298727 -0.890716854725973 -0.9421260992633265 0.0 0.0 -0.0 -0.0 -0.0 0.0 0.4836309254169464 -1.6407546997070312 -1.2451815605163574 -0.4376007914543152 -0.006566791329532862 0.029733886942267418 0.23355943751877545 -1.381394130259854 -1.5113547585669218 -0.3503042636123506 1.3153947176182184e-06 0.0 0.17468082433103527 0.4192479840428865 0.30274612998801237 -2.3613340563970024 -0.014706431859033572 0.0015087708028824248 0.0 0.0 0.0 0.0 0.0 0.0 12.276993172879486 -12.34422421812835 1.3906413482296855 0.2738314342249148 0.20025665566843862 0.10718785573145488 0.1746769280968488 0.4192468359229866 0.3027467533030364 -2.3613411376090006 -0.014660099016828493 0.0015352698068651608 0.0 0.0 0.0 0.0 0.0 0.0 768 30.4375 31.25 30.4375 34.5625 36.875 37.125 0.596112 7 253 253 253 253 253 253 1 -0.15322890877723694 0.17238251864910126 -9.940725326538086 0.0 1.0 0.0 47.80062484741211 47.842716217041016 0.5695713758468628 47.71392822265625 47.65659713745117 47.65659713745117 47.670928955078125 47.584930419921875 47.54193115234375 3840 1
16661.593 -2.666677 -2.0663800000000005 2.3151730000000006 -2.248468 -0.8907210000000001 -0.9420859999999998 0.0 0.0 0.0 0.0 0.0 0.0 0.0 0.0 0.0 0.0 0.0 0.0 0.23356715341847564 -1.3814274208425454 -1.5113583796065908 -0.3502975226911899 -5.82694246834566e-06 0.0 2.6834890949901404 -14.716548937477521 -17.18034950024187 -2.5471518030162024 -4.4973303823027444e-05 0.0 -2.6666815916644495 -2.066372057000631 2.315188233052389 -2.2484737835326136 -0.8907406965838831 -0.9420660177813929 0.0 0.0 -0.0 -0.0 -0.0 0.0 0.5576007962226868 -1.676069736480713 -1.2603763341903687 -0.4327738881111145 -0.008718306198716164 0.015705706551671028 0.23356715341847564 -1.3814274208425454 -1.5113583796065908 -0.3502975226911899 -5.82694246834566e-06 0.0 0.1746803134431844 0.4192424778092336 0.3027338235980789 -2.361365081517744 -0.014618055287214701 0.001547296366403506 0.0 0.0 0.0 0.0 0.0 0.0 12.442882552809804 -12.364756542041981 1.4450181122353678 0.2756365742467688 0.20207198456920283 0.11416166317499997 0.1746769280968488 0.4192468359229866 0.3027467533030364 -2.3613411376090006 -0.014660099016828493 0.0015352698068651608 0.0 0.0 0.0 0.0 0.0 0.0 768 30.4375 31.25 30.4375 34.5625 36.875 37.125 0.59844 7 253 253 253 253 253 253 1 -0.1149216815829277 0.1149216815829277 -9.979032516479492 0.0 1.0 0.0 47.785400390625 47.796146392822266 0.5069043636322021 47.71392822265625 47.6279296875 47.65659713745117 47.670928955078125 47.570594787597656 47.570594787597656 3840 1
16661.612999999998 -2.666677 -2.0663800000000005 2.3151730000000006 -2.248468 -0.8907210000000001 -0.9420859999999998 0.0 0.0 0.0 0.0 0.0 0.0 0.0 0.0 0.0 0.0 0.0 0.0 0.23355520104153818 -1.3813961050967563 -1.5113566093034823 -0.35030715689843384 -1.22107507273533e-05 0.0 2.683351772285721 -14.71621532624434 -17.180329376341057 -2.5472218571466554 -9.424458974011904e-05 0.0 -2.6666815916644495 -2.066372057000631 2.3151519934283655 -2.248486181298727 -0.890716854725973 -0.9420540968524378 0.0 0.0 -0.0 -0.0 -0.0 0.0 0.5748251080513 -1.6720502376556396 -1.255590796470642 -0.4487980306148529 -0.003872473258525133 0.021980922669172287 0.23355520104153818 -1.3813961050967563 -1.5113566093034823 -0.35030715689843384 -1.22107507273533e-05 0.0 0.17468577499932697 0.41925053896477976 0.30275922480047956 -2.3613237946702013 -0.014631710639660404 0.0015186146579083857 0.0 0.0 0.0 0.0 0.0 0.0 12.471861527005228 -12.357688780971646 1.2858524658044512 0.27436246314395496 0.1977483407809258 0.11658943683328549 0.1746769280968488 0.4192468359229866 0.3027467533030364 -2.3613411376090006 -0.014660099016828493 0.0015352698068651608 0.0 0.0 0.0 0.0 0.0 0.0 768 30.4375 31.25 30.4375 34.5625 36.875 37.125 0.59862 7 253 253 253 253 253 253 1 -0.15322890877723694 0.17238251864910126 -9.921571731567383 0.0 1.0 0.0 47.75584411621094 47.76301193237305 0.5561404824256897 47.71392822265625 47.599266052246094 47.65659713745117 47.64226531982422 47.570594787597656 47.5275993347168 3840 1
16661.632999999998 -2.666677 -2.0663800000000005 2.3151730000000006 -2.248468 -0.8907210000000001 -0.9420859999999998 0.0 0.0 0.0 0.0 0.0 0.0 0.0 0.0 0.0 0.0 0.0 0.0 0.23363383723845543 -1.3812900768282297 -1.511373264040278 -0.35029535314770915 -3.193127462537776e-06 0.0 2.6842552356957534 -14.715085791547848 -17.18051869887557 -2.5471360274076673 -2.4645084844837233e-05 0.0 -2.6666935125934046 -2.066372057000631 2.3151519934283655 -2.2484737835326136 -0.8907049337970179 -0.9420660177813929 0.0 0.0 -0.0 -0.0 -0.0 0.0 0.48367956280708313 -1.6365034580230713 -1.2599632740020752 -0.4382619857788086 -0.0003968621604144573 0.024811580777168274 0.23363383723845543 -1.3812900768282297 -1.511373264040278 -0.35029535314770915 -3.193127462537776e-06 0.0 0.17468750248231646 0.41924936314855066 0.30275879926143934 -2.3613198558707915 -0.014629688137738439 0.0015283858120806466 0.0 0.0 0.0 0.0 0.0 0.0 12.314032878673217 -12.434267954484195 1.3353239729022661 0.2757930829501579 0.19514685045040372 0.11280245393517616 0.1746769280968488 0.4192468359229866 0.3027467533030364 -2.3613411376090006 -0.014660099016828493 0.0015352698068651608 0.0 0.0 0.0 0.0 0.0 0.0 768 30.4375 31.25 30.4375 34.5625 36.875 37.125 0.599928 7 253 253 253 253 253 253 1 -0.09576806426048279 0.15322890877723694 -9.979032516479492 0.0 1.0 0.0 47.76838302612305 47.786293029785156 0.5941867828369141 47.71392822265625 47.6279296875 47.65659713745117 47.65659713745117 47.570594787597656 47.5562629699707 3840 1
