Edkamb/ConfLiftingaaS/DTProject/python-app/test_results/ur5e_actual.csv
timestamp target_q_0 target_q_1 target_q_2 target_q_3 target_q_4 target_q_5 target_qd_0 target_qd_1 target_qd_2 target_qd_3 target_qd_4 target_qd_5 target_qdd_0 target_qdd_1 target_qdd_2 target_qdd_3 target_qdd_4 target_qdd_5 target_current_0 target_current_1 target_current_2 target_current_3 target_current_4 target_current_5 target_moment_0 target_moment_1 target_moment_2 target_moment_3 target_moment_4 target_moment_5 actual_q_0 actual_q_1 actual_q_2 actual_q_3 actual_q_4 actual_q_5 actual_qd_0 actual_qd_1 actual_qd_2 actual_qd_3 actual_qd_4 actual_qd_5 actual_current_0 actual_current_1 actual_current_2 actual_current_3 actual_current_4 actual_current_5 joint_control_output_0 joint_control_output_1 joint_control_output_2 joint_control_output_3 joint_control_output_4 joint_control_output_5 actual_TCP_pose_0 actual_TCP_pose_1 actual_TCP_pose_2 actual_TCP_pose_3 actual_TCP_pose_4 actual_TCP_pose_5 actual_TCP_speed_0 actual_TCP_speed_1 actual_TCP_speed_2 actual_TCP_speed_3 actual_TCP_speed_4 actual_TCP_speed_5 actual_TCP_force_0 actual_TCP_force_1 actual_TCP_force_2 actual_TCP_force_3 actual_TCP_force_4 actual_TCP_force_5 target_TCP_pose_0 target_TCP_pose_1 target_TCP_pose_2 target_TCP_pose_3 target_TCP_pose_4 target_TCP_pose_5 target_TCP_speed_0 target_TCP_speed_1 target_TCP_speed_2 target_TCP_speed_3 target_TCP_speed_4 target_TCP_speed_5 actual_digital_input_bits joint_temperatures_0 joint_temperatures_1 joint_temperatures_2 joint_temperatures_3 joint_temperatures_4 joint_temperatures_5 actual_execution_time robot_mode joint_mode_0 joint_mode_1 joint_mode_2 joint_mode_3 joint_mode_4 joint_mode_5 safety_mode actual_tool_accelerometer_0 actual_tool_accelerometer_1 actual_tool_accelerometer_2 speed_scaling target_speed_fraction actual_momentum actual_main_voltage actual_robot_voltage actual_robot_current actual_joint_voltage_0 actual_joint_voltage_1 actual_joint_voltage_2 actual_joint_voltage_3 actual_joint_voltage_4 actual_joint_voltage_5 actual_digital_output_bits runtime_state
2561.1679999999997 -2.8991950000000006 -1.981376 1.9510960000000002 -1.776091 -0.814222 -1.234407 0.0 0.0 0.0 0.0 0.0 0.0 0.0 0.0 0.0 0.0 0.0 0.0 -0.2678737581601546 -1.273115685566247 -1.7225488403793 -0.3276218807403796 1.3330385559066686e-05 0.0 -3.0776429747760052 -13.562688134769136 -19.58105470434887 -2.3822682439324177 0.00010288611618920141 0.0 -2.899165932332174 -1.9813906155028285 1.9510772863971155 -1.7760912380614222 -0.8142407576190394 -1.2343900839435022 0.0 0.0 -0.0 -0.0 0.0 -0.0 -0.5019702911376953 -1.0413192510604858 -1.5923916101455688 -0.2742273807525635 0.03613131493330002 -0.05410660058259964 -0.2678737581601546 -1.273115685566247 -1.7225488403793 -0.3276218807403796 1.3330385559066686e-05 0.0 0.2751584851899399 0.38410031351885354 0.4085116888209404 -2.362604624231952 -0.01325196751801463 0.002534207742010516 0.0 0.0 0.0 0.0 0.0 0.0 4.365987734318039 -2.179592619835121 2.082055355761055 -0.38427594332967485 0.20530310464383172 -0.11774411229323124 0.27516890595940957 0.3840956522069144 0.40849961114222055 -2.362594903911628 -0.013224721135400314 0.0025578841456381698 0.0 0.0 0.0 0.0 0.0 0.0 768 31.1875 31.375 31.3125 35.25 37.0 37.0625 0.606168 7 253 253 253 253 253 253 1 -0.17238251864910126 0.15322890877723694 -9.998186111450195 0.0 0.5 0.0 47.762115478515625 47.79166793823242 0.6120893359184265 47.71392822265625 47.64226531982422 47.64226531982422 47.61359786987305 47.5562629699707 47.51326370239258 3840 1
2561.188 -2.8991950000000006 -1.981376 1.9510960000000002 -1.776091 -0.814222 -1.234407 0.0 0.0 0.0 0.0 0.0 0.0 0.0 0.0 0.0 0.0 0.0 0.0 -0.267893516022497 -1.2731845398962256 -1.7225462954894928 -0.32762294916734785 5.365498973431488e-06 0.0 -3.077869975907629 -13.563421650045726 -19.58102577534241 -2.3822760128873837 4.141180675888591e-05 0.0 -2.8991897741900843 -1.9813786945738734 1.9510887304889124 -1.7761036358275355 -0.8142169157611292 -1.2343900839435022 0.0 0.0 -0.0 -0.0 0.0 -0.0 -0.4778655171394348 -1.0315018892288208 -1.5373769998550415 -0.2781786322593689 0.04937782883644104 -0.04850299283862114 -0.267893516022497 -1.2731845398962256 -1.7225462954894928 -0.32762294916734785 5.365498973431488e-06 0.0 0.27516872501760237 0.38409852099970776 0.40850701572934184 -2.3625848017845916 -0.01322241114466729 0.0025447320282892083 0.0 0.0 0.0 0.0 0.0 0.0 4.212662433886597 -1.9638768714087442 2.1288178344437645 -0.38533441578627153 0.20551579622897187 -0.12128786369764366 0.27516890595940957 0.3840956522069144 0.40849961114222055 -2.362594903911628 -0.013224721135400314 0.0025578841456381698 0.0 0.0 0.0 0.0 0.0 0.0 768 31.1875 31.375 31.3125 35.25 37.0 37.0625 0.609096 7 253 253 253 253 253 253 1 0.0 0.1149216815829277 -9.940725326538086 0.0 0.5 0.0 47.76569747924805 47.77823257446289 0.5941867828369141 47.71392822265625 47.61359786987305 47.6279296875 47.61359786987305 47.570594787597656 47.5275993347168 3840 1
2561.208 -2.8991950000000006 -1.981376 1.9510960000000002 -1.776091 -0.814222 -1.234407 0.0 0.0 0.0 0.0 0.0 0.0 0.0 0.0 0.0 0.0 0.0 0.0 -0.2679207126269049 -1.2731129486239834 -1.7225419528703996 -0.3276234442480983 7.7692789000114e-06 0.0 -3.0781824418955956 -13.562658977721755 -19.58097641066837 -2.382279612815286 5.996457702374586e-05 0.0 -2.899165932332174 -1.9813786945738734 1.9510658423053187 -1.7760797939696253 -0.814193073903219 -1.2344020048724573 0.0 0.0 -0.0 -0.0 0.0 -0.0 -0.4653443694114685 -1.050726056098938 -1.5839602947235107 -0.2769668996334076 0.037637919187545776 -0.057378385215997696 -0.2679207126269049 -1.2731129486239834 -1.7225419528703996 -0.3276234442480983 7.7692789000114e-06 0.0 0.2751571811102683 0.38410894699855225 0.4085197768766853 -2.3625624259444873 -0.013267792246346688 0.0025609583159186215 0.0 0.0 0.0 0.0 0.0 0.0 4.3751292633421395 -2.43246177936761 1.891370469119559 -0.37725425022862313 0.20575934296822995 -0.12020432951121893 0.27516890595940957 0.3840956522069144 0.40849961114222055 -2.362594903911628 -0.013224721135400314 0.0025578841456381698 0.0 0.0 0.0 0.0 0.0 0.0 768 31.1875 31.375 31.3125 35.25 37.0 37.0625 0.630636 7 253 253 253 253 253 253 1 -0.09576806426048279 0.13407529890537262 -9.90241813659668 0.0 0.5 0.0 47.73524856567383 47.744205474853516 0.5718072056770325 47.64226531982422 47.570594787597656 47.584930419921875 47.570594787597656 47.498931884765625 47.47026824951172 3840 1
2561.228 -2.8991950000000006 -1.981376 1.9510960000000002 -1.776091 -0.814222 -1.234407 0.0 0.0 0.0 0.0 0.0 0.0 0.0 0.0 0.0 0.0 0.0 0.0 -0.267905755386986 -1.2730374179772093 -1.7225382408478709 -0.32762480539982825 -2.3004814648661843e-06 0.0 -3.0780105958563473 -13.561854338663085 -19.580934214293734 -2.3822895102877446 -1.775549568589507e-05 0.0 -2.8991897741900843 -1.9813906155028285 1.9510772863971155 -1.7760797939696253 -0.8142526785479944 -1.2344020048724573 0.0 0.0 -0.0 -0.0 0.0 -0.0 -0.5148407220840454 -1.008333683013916 -1.557708978652954 -0.2721765339374542 0.04912242293357849 -0.05516088753938675 -0.267905755386986 -1.2730374179772093 -1.7225382408478709 -0.32762480539982825 -2.3004814648661843e-06 0.0 0.27516694352503934 0.38409131956940956 0.4085081305265093 -2.362618687416224 -0.013230584152103889 0.0025252434847337166 0.0 0.0 0.0 0.0 0.0 0.0 4.455308307915066 -2.167302018841319 2.1143202468619524 -0.387550557136879 0.20973865750087733 -0.1163087222709275 0.27516890595940957 0.3840956522069144 0.40849961114222055 -2.362594903911628 -0.013224721135400314 0.0025578841456381698 0.0 0.0 0.0 0.0 0.0 0.0 768 31.1875 31.375 31.3125 35.25 37.0 37.0625 0.613141 7 253 253 253 253 253 253 1 0.0 0.13407529890537262 -9.84495735168457 0.0 0.5 0.0 47.73255920410156 47.76927947998047 0.5136224627494812 47.670928955078125 47.584930419921875 47.599266052246094 47.599266052246094 47.54193115234375 47.54193115234375 3840 1
2561.248 -2.8991950000000006 -1.981376 1.9510960000000002 -1.776091 -0.814222 -1.234407 0.0 0.0 0.0 0.0 0.0 0.0 0.0 0.0 0.0 0.0 0.0 0.0 -0.26789348889487485 -1.2731090316971185 -1.7225739794280592 -0.32763852652577097 -1.2486439320110615e-06 0.0 -3.0778696642341887 -13.562617250125344 -19.58134047220487 -2.3823892820201165 -9.637239980688597e-06 0.0 -2.899165932332174 -1.9813667736449183 1.9510887304889124 -1.776067396203512 -0.8142407576190394 -1.2343781630145472 0.0 0.0 -0.0 -0.0 0.0 -0.0 -0.5055104494094849 -1.047008752822876 -1.5431029796600342 -0.2789055109024048 0.034443482756614685 -0.07106754928827286 -0.26789348889487485 -1.2731090316971185 -1.7225739794280592 -0.32763852652577097 -1.2486439320110615e-06 0.0 0.2751590208515355 0.3841004039625594 0.40849376807183946 -2.362618781376158 -0.013209927449114766 0.0026077938679767297 0.0 0.0 0.0 0.0 0.0 0.0 4.419012880495959 -2.1696311438474556 2.08586353977459 -0.38419367622994444 0.20744903817629093 -0.11738710339394241 0.27516890595940957 0.3840956522069144 0.40849961114222055 -2.362594903911628 -0.013224721135400314 0.0025578841456381698 0.0 0.0 0.0 0.0 0.0 0.0 768 31.1875 31.375 31.3125 35.25 37.0 37.0625 0.605101 7 253 253 253 253 253 253 1 -0.13407529890537262 0.13407529890537262 -9.979032516479492 0.0 0.5 0.0 47.73883056640625 47.77823257446289 0.5427148342132568 47.670928955078125 47.599266052246094 47.599266052246094 47.570594787597656 47.5275993347168 47.47026824951172 3840 1
2561.268 -2.8991950000000006 -1.981376 1.9510960000000002 -1.776091 -0.814222 -1.234407 0.0 0.0 0.0 0.0 0.0 0.0 0.0 0.0 0.0 0.0 0.0 0.0 -0.2678128114526517 -1.2729436801004912 -1.7225589124964802 -0.32763270099149866 -6.809410709559671e-06 0.0 -3.076942748641611 -13.56085573531324 -19.581169199028423 -2.382346922256875 -5.2556155884571435e-05 0.0 -2.899177853261129 -1.9814149341978968 1.9510887304889124 -1.7761155567564906 -0.8142169157611292 -1.2344020048724573 0.0 0.0 -0.0 -0.0 0.0 1.3779628826871004e-10 -0.47649118304252625 -1.0497068166732788 -1.536779522895813 -0.28458455204963684 0.0379110649228096 -0.0671873390674591 -0.2678128114526517 -1.2729436801004912 -1.7225589124964802 -0.32763270099149866 -6.809410709559671e-06 0.0 0.2751572759338963 0.3841001208402548 0.40852168864993593 -2.3625732181124315 -0.013273294714864155 0.0024894693067651274 0.0 -1.5537499650542923e-27 -1.5537499650542923e-27 -7.923972338863974e-13 9.680642720424747e-11 -9.805970028103237e-11 4.191603560469887 -2.4063230427177507 2.0062895541918997 -0.3811066244294698 0.20314140323400337 -0.1202621824369216 0.27516890595940957 0.3840956522069144 0.40849961114222055 -2.362594903911628 -0.013224721135400314 0.0025578841456381698 0.0 0.0 0.0 0.0 0.0 0.0 768 31.1875 31.375 31.3125 35.25 37.0 37.0625 0.609601 7 253 253 253 253 253 253 1 -0.1149216815829277 0.19153612852096558 -9.979032516479492 0.0 0.5 0.0 47.751365661621094 47.76569747924805 0.5382378697395325 47.68526077270508 47.61359786987305 47.61359786987305 47.599266052246094 47.54193115234375 47.48460006713867 3840 1
2561.288 -2.8991950000000006 -1.981376 1.9510960000000002 -1.776091 -0.814222 -1.234407 0.0 0.0 0.0 0.0 0.0 0.0 0.0 0.0 0.0 0.0 0.0 0.0 -0.2679212870061566 -1.2731092396774941 -1.722538476997095 -0.32762364670076166 7.769277660278197e-06 0.0 -3.0781890410275183 -13.562619465770789 -19.580936898717404 -2.382281084928656 5.996456745528036e-05 0.0 -2.899165932332174 -1.9813906155028285 1.951113526021139 -1.7760912380614222 -0.8142288366900843 -1.2343781630145472 0.0 0.0 -0.0 -0.0 0.0 1.9404126654120156e-22 -0.49908173084259033 -0.9864710569381714 -1.561118483543396 -0.2676909565925598 0.04765785485506058 -0.0786944255232811 -0.2679212870061566 -1.2731092396774941 -1.722538476997095 -0.32762364670076166 7.769277660278197e-06 0.0 0.27515242353997604 0.3841010429587296 0.408494491896531 -2.3626020117578426 -0.013222660120753287 0.002586317228919717 5.3857270460367245e-39 -8.415198509432382e-40 -8.415198509432382e-40 -1.1264950200457465e-24 1.3631636608002146e-22 -1.3808907439989965e-22 4.478371612300669 -2.438524682879667 1.973645638232079 -0.3775376234391032 0.2067041183270728 -0.1156760788575181 0.27516890595940957 0.3840956522069144 0.40849961114222055 -2.362594903911628 -0.013224721135400314 0.0025578841456381698 0.0 0.0 0.0 0.0 0.0 0.0 768 31.1875 31.375 31.3125 35.25 37.0 37.0625 0.608245 7 253 253 253 253 253 253 1 -0.1149216815829277 0.15322890877723694 -9.998186111450195 0.0 0.5 0.0 47.7639045715332 47.775550842285156 0.5024327039718628 47.68526077270508 47.61359786987305 47.6279296875 47.599266052246094 47.584930419921875 47.498931884765625 3840 1
2561.308 -2.8991950000000006 -1.981376 1.9510960000000002 -1.776091 -0.814222 -1.234407 0.0 0.0 0.0 0.0 0.0 0.0 0.0 0.0 0.0 0.0 0.0 0.0 -0.2679498401199602 -1.2729616820088479 -1.7225613893712708 -0.32763951661516216 -5.458210586633435e-06 0.0 -3.0785170921614156 -13.561047512283427 -19.58119735487494 -2.3823964813515834 -4.21273702934677e-05 0.0 -2.8991897741900843 -1.9814149341978968 1.9510772863971155 -1.7760797939696253 -0.8142407576190394 -1.234366242085592 0.0 0.0 -0.0 -0.0 0.0 2.7324396031400324e-34 -0.5109136700630188 -1.084945797920227 -1.54867684841156 -0.27332547307014465 0.043020881712436676 -0.06570357829332352 -0.2679498401199602 -1.2729616820088479 -1.7225613893712708 -0.32763951661516216 -5.458210586633435e-06 0.0 0.2751601300461289 0.3840918769424796 0.4085188452922447 -2.3626019578672497 -0.01320162547998033 0.002519374145618844 7.584043402009223e-51 -2.133012206815094e-51 -2.192262545893291e-51 -1.5713413612844103e-36 1.919573698694541e-34 -1.9445349286451113e-34 4.274013845424336 -2.1877233610898252 2.097069936999834 -0.38355333132405134 0.2073269471961199 -0.12175284713069992 0.27516890595940957 0.3840956522069144 0.40849961114222055 -2.362594903911628 -0.013224721135400314 0.0025578841456381698 0.0 0.0 0.0 0.0 0.0 0.0 768 31.1875 31.375 31.3125 35.25 37.0 37.0625 0.680005 7 253 253 253 253 253 253 1 -0.05746084079146385 0.1149216815829277 -9.959878921508789 0.0 0.5 0.0 47.73255920410156 47.76301193237305 0.5606174468994141 47.65659713745117 47.599266052246094 47.599266052246094 47.599266052246094 47.54193115234375 47.48460006713867 3840 1
2561.328 -2.8991950000000006 -1.981376 1.9510960000000002 -1.776091 -0.814222 -1.234407 0.0 0.0 0.0 0.0 0.0 0.0 0.0 0.0 0.0 0.0 0.0 0.0 -0.2679000616101273 -1.2729376817558467 -1.7225446468077068 -0.3276303615142906 9.120728839388826e-06 0.0 -3.0779451791747374 -13.560791834067924 -19.58100703397062 -2.382329910993013 7.039529073945704e-05 0.0 -2.8992016951190394 -1.9813786945738734 1.9511249701129358 -1.7761036358275355 -0.8142049948321741 -1.2343900839435022 0.0 0.0 -0.0 -0.0 0.0 0.0 -0.504159152507782 -0.9893658757209778 -1.5685769319534302 -0.26184889674186707 0.030795766040682793 -0.06609577685594559 -0.2679000616101273 -1.2729376817558467 -1.7225446468077068 -0.3276303615142906 9.120728839388826e-06 0.0 0.2751672419712929 0.3840959702592108 0.4084898189499561 -2.362582174849159 -0.013193103300042756 0.0025852808718037313 0.0 0.0 0.0 0.0 0.0 0.0 4.007963503551133 -2.3402743770204326 2.0918961430839054 -0.3808692452632267 0.20281953840164307 -0.12467367307288116 0.27516890595940957 0.3840956522069144 0.40849961114222055 -2.362594903911628 -0.013224721135400314 0.0025578841456381698 0.0 0.0 0.0 0.0 0.0 0.0 768 31.1875 31.375 31.3125 35.25 37.0 37.0625 0.607356 7 253 253 253 253 253 253 1 -0.09576806426048279 0.09576806426048279 -9.921571731567383 0.0 0.5 0.0 47.73972702026367 47.785400390625 0.5516634583473206 47.68526077270508 47.599266052246094 47.6279296875 47.599266052246094 47.5562629699707 47.51326370239258 3840 1
2561.348 -2.8991950000000006 -1.981376 1.9510960000000002 -1.776091 -0.814222 -1.234407 0.0 0.0 0.0 0.0 0.0 0.0 0.0 0.0 0.0 0.0 0.0 0.0 -0.2679383297199779 -1.2730872070775727 -1.7225492039821992 -0.3276299679673165 -6.809294941069638e-06 0.0 -3.0783848473984876 -13.562384749252157 -19.581058837600768 -2.382327049357347 -5.2555262364255485e-05 0.0 -2.8991897741900843 -1.9813786945738734 1.951102081929342 -1.7761036358275355 -0.8142169157611292 -1.234462086354391 0.0 0.0 -0.0 -0.0 0.0 0.0 -0.5276607275009155 -1.0282098054885864 -1.5480024814605713 -0.2789742350578308 0.04632136970758438 -0.0645093098282814 -0.2679383297199779 -1.2730872070775727 -1.7225492039821992 -0.3276299679673165 -6.809294941069638e-06 0.0 0.275166863521932 0.38409805555687626 0.408499952319262 -2.362587433637283 -0.013301175378673183 0.0025251495612220857 0.0 0.0 0.0 0.0 0.0 0.0 4.295628508836869 -2.315677615454908 2.0817721391990007 -0.37863328296638543 0.20521173964372147 -0.11570932452242341 0.27516890595940957 0.3840956522069144 0.40849961114222055 -2.362594903911628 -0.013224721135400314 0.0025578841456381698 0.0 0.0 0.0 0.0 0.0 0.0 768 31.1875 31.375 31.3125 35.25 37.0 37.0625 0.611988 7 253 253 253 253 253 253 1 -0.07661445438861847 0.09576806426048279 -9.940725326538086 0.0 0.5 0.0 47.774654388427734 47.78361129760742 0.5180941224098206 47.670928955078125 47.599266052246094 47.61359786987305 47.584930419921875 47.54193115234375 47.48460006713867 3840 1
2561.368 -2.8991950000000006 -1.981376 1.9510960000000002 -1.776091 -0.814222 -1.234407 0.0 0.0 0.0 0.0 0.0 0.0 0.0 0.0 0.0 0.0 0.0 0.0 -0.26793900744628407 -1.2731838533521942 -1.7225413293624248 -0.3276218807044736 -1.9565498605838597e-07 0.0 -3.0783926339006795 -13.56341433619146 -19.58096932294843 -2.382268243671331 -1.5100974791316596e-06 0.0 -2.8992136160479944 -1.9814030132689417 1.951113526021139 -1.7761036358275355 -0.8142049948321741 -1.2344382444964808 0.0 0.0 -0.0 -0.0 0.0 0.0 -0.5054560303688049 -1.0343750715255737 -1.5515388250350952 -0.26088467240333557 0.04522543400526047 -0.06712523847818375 -0.26793900744628407 -1.2731838533521942 -1.7225413293624248 -0.3276218807044736 -1.9565498605838597e-07 0.0 0.27516761232247816 0.3840916535823557 0.4085046128397047 -2.362573464143418 -0.013252742181664789 0.0025150793625928185 0.0 0.0 0.0 0.0 0.0 0.0 4.208863797567343 -2.35960291223822 2.055405047309665 -0.38215639337982826 0.199975352458903 -0.11510537149437036 0.27516890595940957 0.3840956522069144 0.40849961114222055 -2.362594903911628 -0.013224721135400314 0.0025578841456381698 0.0 0.0 0.0 0.0 0.0 0.0 768 31.1875 31.375 31.3125 35.25 37.0 37.0625 0.604728 7 253 253 253 253 253 253 1 -0.07661445438861847 0.07661445438861847 -10.017339706420898 0.0 0.5 0.0 47.751365661621094 47.78181838989258 0.5718072056770325 47.6995964050293 47.6279296875 47.64226531982422 47.61359786987305 47.61359786987305 47.51326370239258 3840 1
2561.388 -2.8991950000000006 -1.981376 1.9510960000000002 -1.776091 -0.814222 -1.234407 0.0 0.0 0.0 0.0 0.0 0.0 0.0 0.0 0.0 0.0 0.0 0.0 -0.2679187271887395 -1.2730975650902476 -1.7225275360503156 -0.32761311866627996 3.260434258069439e-06 0.0 -3.078159630889905 -13.562495094680465 -19.58081252762708 -2.3822045314269173 2.516456980307113e-05 0.0 -2.8991416136371058 -1.9813786945738734 1.951102081929342 -1.7760912380614222 -0.8142049948321741 -1.2344258467303675 0.0 0.0 -0.0 -0.0 0.0 0.0 -0.43400758504867554 -1.0383697748184204 -1.5594502687454224 -0.26666152477264404 0.04474978893995285 -0.057393524795770645 -0.2679187271887395 -1.2730975650902476 -1.7225275360503156 -0.32761311866627996 3.260434258069439e-06 0.0 0.2751455050552326 0.3841128227060916 0.4085002126068168 -2.3625791425603726 -0.013311205022474626 0.0025849809990032193 0.0 0.0 0.0 0.0 0.0 0.0 4.3113266953499485 -2.251021537973344 2.132441485491026 -0.38223526830303545 0.20365502747100778 -0.11505104860905338 0.27516890595940957 0.3840956522069144 0.40849961114222055 -2.362594903911628 -0.013224721135400314 0.0025578841456381698 0.0 0.0 0.0 0.0 0.0 0.0 768 31.1875 31.375 31.3125 35.25 37.0 37.0625 0.60816 7 253 253 253 253 253 253 1 -0.2106897532939911 0.09576806426048279 -9.959878921508789 0.0 0.5 0.0 47.78718948364258 47.808685302734375 0.5360020399093628 47.6995964050293 47.65659713745117 47.65659713745117 47.6279296875 47.584930419921875 47.5275993347168 3840 1
2561.408 -2.8991950000000006 -1.981376 1.9510960000000002 -1.776091 -0.814222 -1.234407 0.0 0.0 0.0 0.0 0.0 0.0 0.0 0.0 0.0 0.0 0.0 0.0 -0.2678865008446455 -1.2729808548002817 -1.7225537319317583 -0.32763153109192616 5.664315458649906e-06 0.0 -3.0777893774459515 -13.561251762842772 -19.581110309016807 -2.3823384154544787 4.371812171738464e-05 0.0 -2.8992016951190394 -1.9813786945738734 1.9510887304889124 -1.7761155567564906 -0.8142407576190394 -1.2344139258014124 0.0 0.0 -0.0 -0.0 0.0 0.0 -0.5201106667518616 -1.0644316673278809 -1.5412451028823853 -0.2686181664466858 0.0434514656662941 -0.06440825760364532 -0.2678865008446455 -1.2729808548002817 -1.7225537319317583 -0.32763153109192616 5.664315458649906e-06 0.0 0.2751771014144943 0.38409171383489854 0.4085047143723121 -2.3626043228940063 -0.013238466682979585 0.0025043086224211175 0.0 0.0 0.0 0.0 0.0 0.0 4.3061877945313745 -2.2866371767597578 2.057803298855056 -0.3836420905405383 0.20416951410409645 -0.12065393634009919 0.27516890595940957 0.3840956522069144 0.40849961114222055 -2.362594903911628 -0.013224721135400314 0.0025578841456381698 0.0 0.0 0.0 0.0 0.0 0.0 768 31.125 31.375 31.3125 35.25 37.0 37.0625 0.680856 7 253 253 253 253 253 253 1 -0.09576806426048279 0.1149216815829277 -9.979032516479492 0.0 0.5 0.0 47.744205474853516 47.77644348144531 0.5852327942848206 47.670928955078125 47.599266052246094 47.599266052246094 47.584930419921875 47.5562629699707 47.48460006713867 3840 1
2561.428 -2.8991950000000006 -1.981376 1.9510960000000002 -1.776091 -0.814222 -1.234407 0.0 0.0 0.0 0.0 0.0 0.0 0.0 0.0 0.0 0.0 0.0 0.0 -0.26786076043140084 -1.2731330903930602 -1.722533776781876 -0.32761535672974107 5.365351024250713e-06 0.0 -3.077493641863137 -13.562873550942061 -19.580883469073395 -2.3822208052713236 4.141066486268675e-05 0.0 -2.899165932332174 -1.9813786945738734 1.951113526021139 -1.776055475274557 -0.8142526785479944 -1.2344020048724573 0.0 0.0 -0.0 -0.0 0.0 0.0 -0.49147337675094604 -1.0319956541061401 -1.5848225355148315 -0.27086421847343445 0.028856633231043816 -0.06874548643827438 -0.26786076043140084 -1.2731330903930602 -1.722533776781876 -0.32761535672974107 5.365351024250713e-06 0.0 0.2751519478256221 0.3840963837011643 0.408481310439797 -2.362635763958785 -0.013224486498143569 0.002619933870450698 0.0 0.0 0.0 0.0 0.0 0.0 4.238525274922431 -2.2080659992738965 2.067004399741614 -0.3827261254809755 0.2020243196713315 -0.12156847737296034 0.27516890595940957 0.3840956522069144 0.40849961114222055 -2.362594903911628 -0.013224721135400314 0.0025578841456381698 0.0 0.0 0.0 0.0 0.0 0.0 768 31.125 31.375 31.3125 35.25 37.0 37.0625 0.6057 7 253 253 253 253 253 253 1 0.0 0.19153612852096558 -9.979032516479492 0.0 0.5 0.0 47.737037658691406 47.76569747924805 0.5673302412033081 47.65659713745117 47.599266052246094 47.61359786987305 47.6279296875 47.54193115234375 47.48460006713867 3840 1
2561.448 -2.8991950000000006 -1.981376 1.9510960000000002 -1.776091 -0.814222 -1.234407 0.0 0.0 0.0 0.0 0.0 0.0 0.0 0.0 0.0 0.0 0.0 0.0 -0.26795173928350674 -1.2731508103298745 -1.7225417378992738 -0.327623343021655 7.769279455481386e-06 0.0 -3.078538911944686 -13.563062324028046 -19.580973966986498 -2.38227887675779 5.9964581310954895e-05 0.0 -2.899177853261129 -1.9813906155028285 1.9510887304889124 -1.7761393986144007 -0.8142049948321741 -1.2344139258014124 0.0 0.0 -0.0 -0.0 0.0 0.0 -0.4524924159049988 -1.0363067388534546 -1.5487123727798462 -0.26290643215179443 0.04370377957820892 -0.064398393034935 -0.26795173928350674 -1.2731508103298745 -1.7225417378992738 -0.327623343021655 7.769279455481386e-06 0.0 0.2751656300102709 0.3841044672568207 0.4085182224708003 -2.36256188039923 -0.013289145170822261 0.002489055755572622 0.0 0.0 0.0 0.0 0.0 0.0 4.213573620107721 -2.311457652045342 2.039621293219969 -0.3811839791783484 0.20511880551671852 -0.1195612651500045 0.27516890595940957 0.3840956522069144 0.40849961114222055 -2.362594903911628 -0.013224721135400314 0.0025578841456381698 0.0 0.0 0.0 0.0 0.0 0.0 768 31.125 31.375 31.3125 35.25 37.0 37.0625 0.601428 7 253 253 253 253 253 253 1 -0.17238251864910126 0.05746084079146385 -10.055646896362305 0.0 0.5 0.0 47.751365661621094 47.782711029052734 0.5091454982757568 47.670928955078125 47.584930419921875 47.599266052246094 47.61359786987305 47.5275993347168 47.48460006713867 3840 1
2561.468 -2.8991950000000006 -1.981376 1.9510960000000002 -1.776091 -0.814222 -1.234407 0.0 0.0 0.0 0.0 0.0 0.0 0.0 0.0 0.0 0.0 0.0 0.0 -0.2679051329089924 -1.2730513956548657 -1.7225513401570043 -0.3276274372710239 -2.3005354685694253e-06 0.0 -3.0780034441105504 -13.562003244913356 -19.581083120544005 -2.3823086476639093 -1.7755912495391065e-05 0.0 -2.899154011403219 -1.9814030132689417 1.9510658423053187 -1.7760912380614222 -0.8142526785479944 -1.2344139258014124 0.0 0.0 -0.0 -0.0 0.0 0.0 -0.5262492299079895 -1.0601781606674194 -1.5561641454696655 -0.2782329022884369 0.03945063799619675 -0.06464695185422897 -0.2679051329089924 -1.2730513956548657 -1.7225513401570043 -0.3276274372710239 -2.3005354685694253e-06 0.0 0.27515355180521606 0.38410126774568865 0.40852022359397894 -2.362610000492595 -0.013303585403489448 0.0024963284175366835 0.0 0.0 0.0 0.0 0.0 0.0 4.368904084810459 -2.5942285413730524 1.9451475812688326 -0.3737018161328232 0.20553367823835367 -0.11702619487144375 0.27516890595940957 0.3840956522069144 0.40849961114222055 -2.362594903911628 -0.013224721135400314 0.0025578841456381698 0.0 0.0 0.0 0.0 0.0 0.0 768 31.125 31.375 31.3125 35.25 37.0 37.0625 0.603504 7 253 253 253 253 253 253 1 -0.038307227194309235 0.2298433631658554 -9.921571731567383 0.0 0.5 0.0 47.7585334777832 47.78718948364258 0.5494276285171509 47.68526077270508 47.64226531982422 47.6279296875 47.64226531982422 47.570594787597656 47.54193115234375 3840 1
2561.488 -2.8991950000000006 -1.981376 1.9510960000000002 -1.776091 -0.814222 -1.234407 0.0 0.0 0.0 0.0 0.0 0.0 0.0 0.0 0.0 0.0 0.0 0.0 -0.267951485852888 -1.2731299205174624 -1.7225221608194998 -0.3276105873763482 -1.0265714733624798e-05 0.0 -3.078536000241171 -13.562839781792368 -19.58075142475082 -2.3821861254168946 -7.9232480873784e-05 0.0 -2.8991897741900843 -1.9813786945738734 1.9511373678790491 -1.7761036358275355 -0.8142049948321741 -1.234354321156637 0.0 0.0 -0.0 -0.0 0.0 0.0 -0.4861582815647125 -1.0093570947647095 -1.5832725763320923 -0.25569120049476624 0.040589265525341034 -0.068865567445755 -0.267951485852888 -1.2731299205174624 -1.7225221608194998 -0.3276105873763482 -1.0265714733624798e-05 0.0 0.2751609344353578 0.3840988182337517 0.4084832601391085 -2.362585282883406 -0.013159096978912025 0.0026226359286590797 0.0 0.0 0.0 0.0 0.0 0.0 4.332716859270356 -2.5698984647353758 1.9166678872878338 -0.37489862492331 0.20583393793521534 -0.12112417613536644 0.27516890595940957 0.3840956522069144 0.40849961114222055 -2.362594903911628 -0.013224721135400314 0.0025578841456381698 0.0 0.0 0.0 0.0 0.0 0.0 768 31.125 31.375 31.3125 35.25 37.0 37.0625 0.600576 7 253 253 253 253 253 253 1 -0.2298433631658554 0.13407528400421143 -9.979032516479492 0.0 0.5 0.0 47.764801025390625 47.78718948364258 0.5539045929908752 47.6995964050293 47.6279296875 47.64226531982422 47.6279296875 47.570594787597656 47.5275993347168 3840 1
2561.508 -2.8991950000000006 -1.981376 1.9510960000000002 -1.776091 -0.814222 -1.234407 0.0 0.0 0.0 0.0 0.0 0.0 0.0 0.0 0.0 0.0 0.0 0.0 -0.26793613969981384 -1.2730761969443871 -1.722538885734652 -0.32762510903611747 2.2081939671256757e-06 0.0 -3.0783596859186217 -13.562267456688401 -19.580941545037014 -2.3822917181472683 1.7043205544453324e-05 0.0 -2.8991897741900843 -1.9813667736449183 1.9510534445392054 -1.7761036358275355 -0.8142169157611292 -1.2344020048724573 0.0 0.0 -0.0 -0.0 0.0 0.0 -0.44749027490615845 -1.0439958572387695 -1.5616463422775269 -0.2680138349533081 0.033325858414173126 -0.055420782417058945 -0.26793613969981384 -1.2730761969443871 -1.722538885734652 -0.32762510903611747 2.2081939671256757e-06 0.0 0.27517648964653596 0.3841004547234608 0.408521399165017 -2.362579206801467 -0.013247514617035125 0.0025121294264900417 0.0 0.0 0.0 0.0 0.0 0.0 4.422976184056241 -2.3485390430902866 1.837846811423404 -0.37771205133492597 0.2075661025477999 -0.11769490880982177 0.27516890595940957 0.3840956522069144 0.40849961114222055 -2.362594903911628 -0.013224721135400314 0.0025578841456381698 0.0 0.0 0.0 0.0 0.0 0.0 768 31.125 31.375 31.3125 35.25 37.0 37.0625 0.693864 7 253 253 253 253 253 253 1 -0.09576806426048279 0.09576806426048279 -10.017339706420898 0.0 0.5 0.0 47.74778747558594 47.77375411987305 0.5382378697395325 47.670928955078125 47.61359786987305 47.6279296875 47.64226531982422 47.5562629699707 47.498931884765625 3840 1
2561.528 -2.8991950000000006 -1.981376 1.9510960000000002 -1.776091 -0.814222 -1.234407 0.0 0.0 0.0 0.0 0.0 0.0 0.0 0.0 0.0 0.0 0.0 0.0 -0.2678617299898309 -1.2730521920022113 -1.7225578367408994 -0.3276362995609037 3.2601792624541495e-06 0.0 -3.0775047812696665 -13.562011728518435 -19.581156970388875 -2.382373088877974 2.5162601704820247e-05 0.0 -2.8992136160479944 -1.9813786945738734 1.9510658423053187 -1.7761155567564906 -0.8142288366900843 -1.2344382444964808 0.0 0.0 -0.0 -0.0 0.0 0.0 -0.5027413964271545 -1.0251743793487549 -1.5476188659667969 -0.2671542167663574 0.04581422358751297 -0.06522213667631149 -0.2678617299898309 -1.2730521920022113 -1.7225578367408994 -0.3276362995609037 3.2601792624541495e-06 0.0 0.2751838620257014 0.38409122414566177 0.40851879838790545 -2.362587576329474 -0.013265748874964072 0.00246517835766688 0.0 0.0 0.0 0.0 0.0 0.0 4.321089482551873 -2.1249856934398577 2.0212579350443702 -0.3817072354707225 0.2042576126715789 -0.1176007272812302 0.27516890595940957 0.3840956522069144 0.40849961114222055 -2.362594903911628 -0.013224721135400314 0.0025578841456381698 0.0 0.0 0.0 0.0 0.0 0.0 768 31.125 31.375 31.3125 35.25 37.0 37.0625 0.606264 7 253 253 253 253 253 253 1 -0.038307227194309235 0.17238251864910126 -9.940725326538086 0.0 0.5 0.0 47.745994567871094 47.77107238769531 0.5762841701507568 47.670928955078125 47.61359786987305 47.6279296875 47.599266052246094 47.5562629699707 47.47026824951172 3840 1
2561.548 -2.8991950000000006 -1.981376 1.9510960000000002 -1.776091 -0.814222 -1.234407 0.0 0.0 0.0 0.0 0.0 0.0 0.0 0.0 0.0 0.0 0.0 0.0 -0.26798188435612763 -1.2730690874070796 -1.7225279010062902 -0.32762120642992903 -7.861465290447081e-06 0.0 -3.0788852533392777 -13.56219171774466 -19.58081667626005 -2.3822633407544935 -6.0676086802319184e-05 0.0 -2.899165932332174 -1.9814030132689417 1.9510887304889124 -1.7761036358275355 -0.8142526785479944 -1.2344382444964808 0.0 0.0 -0.0 -0.0 0.0 0.0 -0.45746472477912903 -1.0240992307662964 -1.5847840309143066 -0.2600945234298706 0.05196940153837204 -0.07378466427326202 -0.26798188435612763 -1.2730690874070796 -1.7225279010062902 -0.32762120642992903 -7.861465290447081e-06 0.0 0.27515679051701986 0.384097667112242 0.40850982983205064 -2.3626123096772136 -0.01331334941811514 0.0024908488141760126 0.0 0.0 0.0 0.0 0.0 0.0 4.344876296687625 -2.137010894002255 1.8118100200939562 -0.37921795372466016 0.2044772248630947 -0.11958599803438331 0.27516890595940957 0.3840956522069144 0.40849961114222055 -2.362594903911628 -0.013224721135400314 0.0025578841456381698 0.0 0.0 0.0 0.0 0.0 0.0 768 31.125 31.375 31.375 35.25 37.0 37.0625 0.60114 7 253 253 253 253 253 253 1 -0.07661445438861847 0.17238251864910126 -9.959878921508789 0.0 0.5 0.0 47.75942611694336 47.77823257446289 0.5069043636322021 47.670928955078125 47.599266052246094 47.61359786987305 47.599266052246094 47.54193115234375 47.498931884765625 3840 1
2561.5679999999998 -2.8991950000000006 -1.981376 1.9510960000000002 -1.776091 -0.814222 -1.234407 0.0 0.0 0.0 0.0 0.0 0.0 0.0 0.0 0.0 0.0 0.0 0.0 -0.2679496208739007 -1.2731317174377856 -1.7225238448199025 -0.32761322000112797 7.769118218294125e-06 0.0 -3.0785145732095796 -13.56285892464814 -19.58077056760659 -2.3822052682726675 5.9963336855728236e-05 0.0 -2.8992016951190394 -1.9814030132689417 1.9510772863971155 -1.7760912380614222 -0.8142526785479944 -1.2343900839435022 0.0 0.0 -0.0 -0.0 0.0 0.0 -0.4665997326374054 -0.9841188788414001 -1.5652660131454468 -0.2719530761241913 0.0447881817817688 -0.07442048192024231 -0.2679496208739007 -1.2731317174377856 -1.7225238448199025 -0.32761322000112797 7.769118218294125e-06 0.0 0.27517027149377754 0.38408774808224144 0.4085141691679303 -2.362613161246158 -0.013213699252894442 0.002497908114684476 0.0 0.0 0.0 0.0 0.0 0.0 4.199927070322272 -2.325894746200767 1.973843005356418 -0.3803041164666694 0.20562780880644907 -0.1227890616575215 0.27516890595940957 0.3840956522069144 0.40849961114222055 -2.362594903911628 -0.013224721135400314 0.0025578841456381698 0.0 0.0 0.0 0.0 0.0 0.0 768 31.125 31.375 31.375 35.25 37.0 37.0625 0.601645 7 253 253 253 253 253 253 1 -0.09576806426048279 0.1149216815829277 -10.036493301391602 0.0 0.5 0.0 47.73972702026367 47.754947662353516 0.5427148342132568 47.65659713745117 47.599266052246094 47.599266052246094 47.599266052246094 47.54193115234375 47.498931884765625 3840 1
2561.5879999999997 -2.8991950000000006 -1.981376 1.9510960000000002 -1.776091 -0.814222 -1.234407 0.0 0.0 0.0 0.0 0.0 0.0 0.0 0.0 0.0 0.0 0.0 0.0 -0.2679832705386966 -1.2731739516710596 -1.722527727527785 -0.3276185852554184 3.260576958506984e-06 0.0 -3.0789011794048786 -13.563308852129987 -19.58081470424508 -2.3822442811581555 2.516567118860364e-05 0.0 -2.8991897741900843 -1.9813906155028285 1.9510887304889124 -1.776067396203512 -0.8142049948321741 -1.2344020048724573 0.0 0.0 -0.0 -0.0 0.0 0.0 -0.4983760118484497 -1.0070551633834839 -1.5932215452194214 -0.26916268467903137 0.06062711775302887 -0.0658523440361023 -0.2679832705386966 -1.2731739516710596 -1.722527727527785 -0.3276185852554184 3.260576958506984e-06 0.0 0.2751594611492254 0.38409841492529695 0.4085082620767338 -2.362579389346919 -0.013226693526909679 0.0025714528478702555 0.0 0.0 0.0 0.0 0.0 0.0 4.154965276072995 -2.2677864928489964 2.186504889568533 -0.38187053737655613 0.20584837617009327 -0.12141213767487244 0.27516890595940957 0.3840956522069144 0.40849961114222055 -2.362594903911628 -0.013224721135400314 0.0025578841456381698 0.0 0.0 0.0 0.0 0.0 0.0 768 31.125 31.375 31.375 35.25 37.0 37.0625 0.604645 7 253 253 253 253 253 253 1 -0.19153612852096558 0.13407529890537262 -9.979032516479492 0.0 0.5 0.0 47.730770111083984 47.749576568603516 0.5337609052658081 47.670928955078125 47.599266052246094 47.61359786987305 47.599266052246094 47.570594787597656 47.498931884765625 3840 1
2561.6079999999997 -2.8991950000000006 -1.981376 1.9510960000000002 -1.776091 -0.814222 -1.234407 0.0 0.0 0.0 0.0 0.0 0.0 0.0 0.0 0.0 0.0 0.0 0.0 -0.2679026350296674 -1.2729441038042768 -1.722550665289441 -0.3276331960367989 -4.40545746991334e-06 0.0 -3.0779747455892417 -13.560860249091817 -19.581075448994515 -2.382350521927005 -3.400204796085611e-05 0.0 -2.8992016951190394 -1.9813548527159632 1.9510772863971155 -1.7760912380614222 -0.8142407576190394 -1.2344258467303675 0.0 0.0 -0.0 -0.0 0.0 0.0 -0.4424018859863281 -1.0259356498718262 -1.5807441473007202 -0.2665851414203644 0.04993187636137009 -0.07513071596622467 -0.2679026350296674 -1.2729441038042768 -1.722550665289441 -0.3276331960367989 -4.40545746991334e-06 0.0 0.27518075710994555 0.38409258378161637 0.4084988361616957 -2.362613024779893 -0.013235149213815878 0.0025406014362324286 0.0 0.0 0.0 0.0 0.0 0.0 4.362939698712113 -2.2747854868138795 1.920871371179952 -0.3816928174405824 0.20654034258006054 -0.11859052115994441 0.27516890595940957 0.3840956522069144 0.40849961114222055 -2.362594903911628 -0.013224721135400314 0.0025578841456381698 0.0 0.0 0.0 0.0 0.0 0.0 768 31.125 31.375 31.375 35.25 37.0 37.0625 0.700177 7 253 253 253 253 253 253 1 -0.1149216815829277 0.2106897532939911 -9.959878921508789 0.0 0.5 0.0 47.72897720336914 47.76569747924805 0.5606174468994141 47.65659713745117 47.599266052246094 47.61359786987305 47.570594787597656 47.5275993347168 47.47026824951172 3840 1
2561.6279999999997 -2.8991950000000006 -1.981376 1.9510960000000002 -1.776091 -0.814222 -1.234407 0.0 0.0 0.0 0.0 0.0 0.0 0.0 0.0 0.0 0.0 0.0 0.0 -0.26789086700690995 -1.2730786106183072 -1.722545470034344 -0.3276287078459593 1.2277871041061252e-05 0.0 -3.077839540958467 -13.562293169910703 -19.58101639199023 -2.3823178865166788 9.476263540085502e-05 0.0 -2.8991897741900843 -1.9813786945738734 1.9511373678790491 -1.7761155567564906 -0.8142169157611292 -1.2344139258014124 0.0 0.0 -0.0 -0.0 0.0 0.0 -0.4778791069984436 -1.0403997898101807 -1.5619457960128784 -0.2780410945415497 0.05284898728132248 -0.06838849186897278 -0.26789086700690995 -1.2730786106183072 -1.722545470034344 -0.3276287078459593 1.2277871041061252e-05 0.0 0.2751637229485289 0.3840972843291498 0.4084829338366244 -2.3625932297222296 -0.013233332879281112 0.002575372963565952 0.0 0.0 0.0 0.0 0.0 0.0 4.329768329001495 -2.264931551698244 2.014304428863296 -0.37706503185005313 0.20628253557271703 -0.11705729661283527 0.27516890595940957 0.3840956522069144 0.40849961114222055 -2.362594903911628 -0.013224721135400314 0.0025578841456381698 0.0 0.0 0.0 0.0 0.0 0.0 768 31.125 31.375 31.375 35.25 37.0 37.0625 0.605449 7 253 253 253 253 253 253 1 -0.07661445438861847 0.2298433631658554 -9.940725326538086 0.0 0.5 0.0 47.751365661621094 47.754947662353516 0.5516634583473206 47.68526077270508 47.61359786987305 47.599266052246094 47.599266052246094 47.599266052246094 47.4559326171875 3840 1
2561.6479999999997 -2.8991950000000006 -1.981376 1.9510960000000002 -1.776091 -0.814222 -1.234407 0.0 0.0 0.0 0.0 0.0 0.0 0.0 0.0 0.0 0.0 0.0 0.0 -0.26791740565826294 -1.2729936189396653 -1.7225285691454848 -0.3276161448532087 -7.861501061202115e-06 0.0 -3.0781444476221784 -13.561387741091828 -19.580824271324882 -2.382226536028699 -6.0676362886911214e-05 0.0 -2.8992136160479944 -1.9813906155028285 1.951102081929342 -1.7761036358275355 -0.8142407576190394 -1.2344139258014124 0.0 0.0 -0.0 -0.0 0.0 0.0 -0.4684818685054779 -1.0293502807617188 -1.607139229774475 -0.2647908627986908 0.05067411810159683 -0.06697166711091995 -0.26791740565826294 -1.2729936189396653 -1.7225285691454848 -0.3276161448532087 -7.861501061202115e-06 0.0 0.2751751939281392 0.3840868055063895 0.4085002860350734 -2.362607603625054 -0.013218022506791499 0.002513809125245094 0.0 0.0 0.0 0.0 0.0 0.0 4.212025895784654 -2.1488916496946726 2.098414116220966 -0.38566870537072784 0.20403255202322396 -0.11887107868142048 0.27516890595940957 0.3840956522069144 0.40849961114222055 -2.362594903911628 -0.013224721135400314 0.0025578841456381698 0.0 0.0 0.0 0.0 0.0 0.0 768 31.125 31.375 31.375 35.25 37.0 37.0625 0.599832 7 253 253 253 253 253 253 1 -0.15322890877723694 0.1149216815829277 -9.959878921508789 0.0 0.5 0.0 47.75405502319336 47.76927947998047 0.5180941224098206 47.670928955078125 47.61359786987305 47.61359786987305 47.599266052246094 47.5275993347168 47.498931884765625 3840 1
2561.6679999999997 -2.8991950000000006 -1.981376 1.9510960000000002 -1.776091 -0.814222 -1.234407 0.0 0.0 0.0 0.0 0.0 0.0 0.0 0.0 0.0 0.0 0.0 0.0 -0.26792151212552734 -1.2730090015171591 -1.7225429850694187 -0.3276264704096123 -1.687890228631546e-05 0.0 -3.0781916274587338 -13.561551613946135 -19.58098814417919 -2.3823016172322666 -0.00013027415404311953 0.0 -2.8991897741900843 -1.9813906155028285 1.9510887304889124 -1.7760797939696253 -0.8142049948321741 -1.2344020048724573 0.0 0.0 -0.0 -0.0 0.0 0.0 -0.44984549283981323 -1.0427101850509644 -1.5520603656768799 -0.28065580129623413 0.05411195009946823 -0.07063738256692886 -0.26792151212552734 -1.2730090015171591 -1.7225429850694187 -0.3276264704096123 -1.687890228631546e-05 0.0 0.2751613118002591 0.3840988922483382 0.40850997705451775 -2.3625764019785915 -0.013232597390501831 0.002557265225092422 0.0 0.0 0.0 0.0 0.0 0.0 4.447801027539877 -2.199479637878758 2.041736128876692 -0.37852907934077445 0.20731711014320497 -0.1146658484294765 0.27516890595940957 0.3840956522069144 0.40849961114222055 -2.362594903911628 -0.013224721135400314 0.0025578841456381698 0.0 0.0 0.0 0.0 0.0 0.0 768 31.125 31.375 31.375 35.25 37.0 37.0625 0.60066 7 253 253 253 253 253 253 1 -0.07661445438861847 0.038307227194309235 -9.979032516479492 0.0 0.5 0.0 47.764801025390625 47.80152130126953 0.5785199999809265 47.71392822265625 47.64226531982422 47.65659713745117 47.6279296875 47.599266052246094 47.54193115234375 3840 1
2561.688 -2.8991950000000006 -1.981376 1.9510960000000002 -1.776091 -0.814222 -1.234407 0.0 0.0 0.0 0.0 0.0 0.0 0.0 0.0 0.0 0.0 0.0 0.0 -0.2680083730918076 -1.2729974969916258 -1.7225235602556375 -0.3276217018933125 -9.486371903748343e-07 0.0 -3.079189586514114 -13.561429054548181 -19.580767332825484 -2.382266943464672 -7.321738426681806e-06 0.0 -2.899165932332174 -1.9813667736449183 1.9511249701129358 -1.7760797939696253 -0.8142169157611292 -1.2344258467303675 0.0 0.0 -0.0 -0.0 0.0 0.0 -0.4851224720478058 -1.0242905616760254 -1.5299729108810425 -0.26924794912338257 0.048815906047821045 -0.06590881198644638 -0.2680083730918076 -1.2729974969916258 -1.7225235602556375 -0.3276217018933125 -9.486371903748343e-07 0.0 0.27515380034831993 0.38410360354089823 0.40848026163532464 -2.3626015058607974 -0.013258785299781013 0.002621535810712862 0.0 0.0 0.0 0.0 0.0 0.0 4.7008078232292245 -2.4035690809896275 2.0325349612536048 -0.37980669666814487 0.21137978206991828 -0.11191237371909098 0.27516890595940957 0.3840956522069144 0.40849961114222055 -2.362594903911628 -0.013224721135400314 0.0025578841456381698 0.0 0.0 0.0 0.0 0.0 0.0 768 31.125 31.375 31.375 35.25 37.0 37.0625 0.599388 7 253 253 253 253 253 253 1 -0.13407529890537262 0.038307227194309235 -10.093954086303711 0.0 0.5 0.0 47.76301193237305 47.80241775512695 0.5852327942848206 47.71392822265625 47.6279296875 47.64226531982422 47.6279296875 47.599266052246094 47.51326370239258 3840 1
2561.708 -2.8991950000000006 -1.981376 1.9510960000000002 -1.776091 -0.814222 -1.234407 0.0 0.0 0.0 0.0 0.0 0.0 0.0 0.0 0.0 0.0 0.0 0.0 -0.2678910364757663 -1.2730823884908882 -1.7225490105023693 -0.32762860669793437 7.76919364884667e-06 0.0 -3.0778414880123277 -13.562333416141435 -19.58105663822096 -2.382317151029393 5.996391904118408e-05 0.0 -2.8991897741900843 -1.9813667736449183 1.9510887304889124 -1.7761036358275355 -0.8142288366900843 -1.2344139258014124 0.0 0.0 -0.0 -0.0 0.0 0.0 -0.4968467354774475 -1.0270482301712036 -1.5612937211990356 -0.2706751525402069 0.04759872704744339 -0.058102797716856 -0.2678910364757663 -1.2730823884908882 -1.7225490105023693 -0.32762860669793437 7.76919364884667e-06 0.0 0.2751725792536007 0.38409723178787697 0.408500756281785 -2.3625986902895573 -0.013243117738309112 0.002542142448267834 0.0 0.0 0.0 0.0 0.0 0.0 4.322590808312843 -2.342985602682365 2.0955234424684877 -0.38015941984181395 0.20225910433859248 -0.1184283765474343 0.27516890595940957 0.3840956522069144 0.40849961114222055 -2.362594903911628 -0.013224721135400314 0.0025578841456381698 0.0 0.0 0.0 0.0 0.0 0.0 768 31.125 31.375 31.375 35.25 37.0 37.0625 0.6669 7 253 253 253 253 253 253 1 -0.15322890877723694 0.15322890877723694 -9.959878921508789 0.0 0.5 0.0 47.762115478515625 47.76838302612305 0.5919508934020996 47.670928955078125 47.599266052246094 47.599266052246094 47.599266052246094 47.5562629699707 47.48460006713867 3840 1
2561.728 -2.8991950000000006 -1.981376 1.9510960000000002 -1.776091 -0.814222 -1.234407 0.0 0.0 0.0 0.0 0.0 0.0 0.0 0.0 0.0 0.0 0.0 0.0 -0.26790218247362374 -1.2729376820060827 -1.7225446470422179 -0.32763036188090594 -4.405311698313106e-06 0.0 -3.077969546102969 -13.560791836733728 -19.581007036636425 -2.3823299136588183 -3.4000922871583006e-05 0.0 -2.899177853261129 -1.9813786945738734 1.9510658423053187 -1.7760797939696253 -0.8142288366900843 -1.2344382444964808 0.0 0.0 -0.0 -0.0 0.0 0.0 -0.4588201940059662 -1.0550464391708374 -1.5503565073013306 -0.28495338559150696 0.051984578371047974 -0.06261903047561646 -0.26790218247362374 -1.2729376820060827 -1.7225446470422179 -0.32763036188090594 -4.405311698313106e-06 0.0 0.27516478730774213 0.38409968829118085 0.40851385110833627 -2.3625959763956326 -0.013290965644569448 0.002523444865320039 0.0 0.0 0.0 0.0 0.0 0.0 4.147753651313446 -2.2881341419355605 1.9366965060682502 -0.3795227263197514 0.19783184571118972 -0.12113420987586504 0.27516890595940957 0.3840956522069144 0.40849961114222055 -2.362594903911628 -0.013224721135400314 0.0025578841456381698 0.0 0.0 0.0 0.0 0.0 0.0 768 31.125 31.375 31.375 35.25 37.0 37.0625 0.605016 7 253 253 253 253 253 253 1 -0.09576806426048279 0.13407529890537262 -10.055646896362305 0.0 0.5 0.0 47.74509811401367 47.77196502685547 0.5337609052658081 47.670928955078125 47.61359786987305 47.599266052246094 47.61359786987305 47.54193115234375 47.48460006713867 3840 1
2561.748 -2.8991950000000006 -1.981376 1.9510960000000002 -1.776091 -0.814222 -1.234407 0.0 0.0 0.0 0.0 0.0 0.0 0.0 0.0 0.0 0.0 0.0 0.0 -0.2678587835741351 -1.2730350136790494 -1.7225417379174022 -0.32762334304999563 -1.2480809092352357e-06 0.0 -3.0774709294447287 -13.561828725322133 -19.580973967192573 -2.3822788769638654 -9.632894477966707e-06 0.0 -2.8991897741900843 -1.9813906155028285 1.9510772863971155 -1.7760797939696253 -0.8142526785479944 -1.2344139258014124 0.0 0.0 -0.0 -0.0 0.0 0.0 -0.4742785394191742 -1.036785364151001 -1.5325924158096313 -0.2753310799598694 0.05728749930858612 -0.06199411675333977 -0.2678587835741351 -1.2730350136790494 -1.7225417379174022 -0.32762334304999563 -1.2480809092352357e-06 0.0 0.27516694352503934 0.38409131956940956 0.4085081305265093 -2.3626186019578603 -0.013244666419876844 0.002519463542437263 0.0 0.0 0.0 0.0 0.0 0.0 4.300807101524274 -2.1623199708440355 1.9571122889697692 -0.3825787956573897 0.20674653067373738 -0.1206262101995396 0.27516890595940957 0.3840956522069144 0.40849961114222055 -2.362594903911628 -0.013224721135400314 0.0025578841456381698 0.0 0.0 0.0 0.0 0.0 0.0 768 31.125 31.375 31.375 35.25 37.0 37.0625 0.603552 7 253 253 253 253 253 253 1 -0.17238251864910126 0.13407529890537262 -9.940725326538086 0.0 0.5 0.0 47.76122283935547 47.786293029785156 0.5203352570533752 47.6995964050293 47.6279296875 47.6279296875 47.6279296875 47.5562629699707 47.51326370239258 3840 1
2561.768 -2.8991950000000006 -1.981376 1.9510960000000002 -1.776091 -0.814222 -1.234407 0.0 0.0 0.0 0.0 0.0 0.0 0.0 0.0 0.0 0.0 0.0 0.0 -0.2678872494613525 -1.273061500137996 -1.7225294347903979 -0.32761585212825145 1.2277881616405194e-05 0.0 -3.077797978418906 -13.562110889454235 -19.58083411153376 -2.3822244075097845 9.476271702310524e-05 0.0 -2.899165932332174 -1.9813548527159632 1.9510887304889124 -1.7761274776854457 -0.8142288366900843 -1.2343900839435022 0.0 0.0 -0.0 -0.0 0.0 0.0 -0.4480443298816681 -1.0288752317428589 -1.5534824132919312 -0.2596966028213501 0.0463048592209816 -0.055623289197683334 -0.2678872494613525 -1.273061500137996 -1.7225294347903979 -0.32761585212825145 1.2277881616405194e-05 0.0 0.275169825675478 0.38410541406676535 0.40849977011025096 -2.3625957848104884 -0.013248865048097302 0.0025516698019394453 0.0 0.0 0.0 0.0 0.0 0.0 4.093683684522614 -2.131155808180838 1.970094692516189 -0.38341363375994186 0.1987515805214527 -0.12281004390806619 0.27516890595940957 0.3840956522069144 0.40849961114222055 -2.362594903911628 -0.013224721135400314 0.0025578841456381698 0.0 0.0 0.0 0.0 0.0 0.0 768 31.125 31.375 31.375 35.25 37.0 37.0625 0.59634 7 253 253 253 253 253 253 1 -0.038307227194309235 0.17238251864910126 -10.036493301391602 0.0 0.5 0.0 47.790771484375 47.82570266723633 0.5539045929908752 47.71392822265625 47.65659713745117 47.65659713745117 47.6279296875 47.570594787597656 47.54193115234375 3840 1
2561.788 -2.8991950000000006 -1.981376 1.9510960000000002 -1.776091 -0.814222 -1.234407 0.0 0.0 0.0 0.0 0.0 0.0 0.0 0.0 0.0 0.0 0.0 0.0 -0.26787082369027104 -1.2730049388501599 -1.7225449277215228 -0.32762257837731196 2.2082217479454435e-06 0.0 -3.077609260198348 -13.561508333758693 -19.581010227255288 -2.382273316726414 1.7043419961406067e-05 0.0 -2.899177853261129 -1.9813667736449183 1.951041046773092 -1.7761036358275355 -0.8142288366900843 -1.2344020048724573 0.0 0.0 -0.0 -0.0 0.0 0.0 -0.48623335361480713 -1.0566685199737549 -1.5864592790603638 -0.2724749743938446 0.06680485606193542 -0.07192309945821762 -0.26787082369027104 -1.2730049388501599 -1.7225449277215228 -0.32762257837731196 2.2082217479454435e-06 0.0 0.27517464825324844 0.3841021743586227 0.4085259828977047 -2.362587455963667 -0.013265587168991327 0.0024989543535144415 0.0 0.0 0.0 0.0 0.0 0.0 4.075095046735139 -2.1982220812339683 1.9034114550087375 -0.38017905792235424 0.20349315676091803 -0.1250204605918926 0.27516890595940957 0.3840956522069144 0.40849961114222055 -2.362594903911628 -0.013224721135400314 0.0025578841456381698 0.0 0.0 0.0 0.0 0.0 0.0 768 31.125 31.375 31.375 35.25 37.0 37.0625 0.607512 7 253 253 253 253 253 253 1 -0.15322890877723694 0.13407529890537262 -9.940725326538086 0.0 0.5 0.0 47.76659393310547 47.78361129760742 0.5360020399093628 47.71392822265625 47.61359786987305 47.6279296875 47.64226531982422 47.584930419921875 47.5275993347168 3840 1
2561.808 -2.8991950000000006 -1.981376 1.9510960000000002 -1.776091 -0.814222 -1.234407 0.0 0.0 0.0 0.0 0.0 0.0 0.0 0.0 0.0 0.0 0.0 0.0 -0.2678903931207611 -1.273075087009184 -1.7225421678516566 -0.327623545490916 3.260598119525691e-06 0.0 -3.0778340964073214 -13.56225563238588 -19.580978854465407 -2.382280348991847 2.516583451283906e-05 0.0 -2.8991416136371058 -1.9813548527159632 1.9510772863971155 -1.7761036358275355 -0.8142288366900843 -1.2344139258014124 0.0 0.0 -0.0 -0.0 0.0 0.0 -0.5062846541404724 -1.040827751159668 -1.5862435102462769 -0.27668312191963196 0.05068329721689224 -0.07098443806171417 -0.2678903931207611 -1.273075087009184 -1.7225421678516566 -0.327623545490916 3.260598119525691e-06 0.0 0.2751585213173418 0.38411158665524975 0.40850252636830964 -2.3625985115876453 -0.0132997964778874 0.002566045436800644 0.0 0.0 0.0 0.0 0.0 0.0 4.283076679068463 -2.1756643903563604 2.046966686064668 -0.3830415497959359 0.20707673950170336 -0.12221942670477208 0.27516890595940957 0.3840956522069144 0.40849961114222055 -2.362594903911628 -0.013224721135400314 0.0025578841456381698 0.0 0.0 0.0 0.0 0.0 0.0 768 31.125 31.375 31.375 35.25 37.0 37.0625 0.638064 7 253 253 253 253 253 253 1 -0.07661445438861847 0.05746084079146385 -9.90241813659668 0.0 0.5 0.0 47.76122283935547 47.78718948364258 0.5829969644546509 47.670928955078125 47.61359786987305 47.61359786987305 47.61359786987305 47.5562629699707 47.5275993347168 3840 1
2561.828 -2.8991950000000006 -1.981376 1.9510960000000002 -1.776091 -0.814222 -1.234407 0.0 0.0 0.0 0.0 0.0 0.0 0.0 0.0 0.0 0.0 0.0 0.0 -0.2678916727527719 -1.2730631582807612 -1.722530988734136 -0.32761828143336663 -1.0265468230871226e-05 0.0 -3.077848798297105 -13.562128553892327 -19.58085177597185 -2.382242071947879 -7.923057832484178e-05 0.0 -2.8992016951190394 -1.9813786945738734 1.9510658423053187 -1.7760912380614222 -0.8142169157611292 -1.2344258467303675 0.0 0.0 -0.0 -0.0 0.0 0.0 -0.46760082244873047 -1.0330201387405396 -1.5563536882400513 -0.27145740389823914 0.059418968856334686 -0.0670643150806427 -0.2678916727527719 -1.2730631582807612 -1.722530988734136 -0.32761828143336663 -1.0265468230871226e-05 0.0 0.2751746441184979 0.38409556122419003 0.4085174094415515 -2.362582206685929 -0.013255456873341296 0.0025095200081773996 0.0 0.0 0.0 0.0 0.0 0.0 4.016651978410056 -2.304315786697985 2.2436977110218232 -0.383637326190006 0.20078247387902856 -0.12131299078212401 0.27516890595940957 0.3840956522069144 0.40849961114222055 -2.362594903911628 -0.013224721135400314 0.0025578841456381698 0.0 0.0 0.0 0.0 0.0 0.0 768 31.125 31.375 31.375 35.25 37.0 37.0625 0.606384 7 253 253 253 253 253 253 1 -0.09576806426048279 0.1149216815829277 -9.959878921508789 0.0 0.5 0.0 47.76838302612305 47.793460845947266 0.5315250754356384 47.6995964050293 47.6279296875 47.6279296875 47.6279296875 47.584930419921875 47.51326370239258 3840 1
2561.848 -2.8991950000000006 -1.981376 1.9510960000000002 -1.776091 -0.814222 -1.234407 0.0 0.0 0.0 0.0 0.0 0.0 0.0 0.0 0.0 0.0 0.0 0.0 -0.2679777916422517 -1.2730757644227841 -1.7225341584329499 -0.32761877694988145 5.664571479479843e-06 0.0 -3.078838231517527 -13.562262848972322 -19.580887807487713 -2.3822456750443965 4.372009772841141e-05 0.0 -2.899165932332174 -1.9813786945738734 1.951102081929342 -1.776067396203512 -0.814193073903219 -1.2344258467303675 0.0 0.0 -0.0 -0.0 0.0 0.0 -0.4624202847480774 -1.0263663530349731 -1.5443402528762817 -0.27289241552352905 0.059961624443531036 -0.07736299186944962 -0.2679777916422517 -1.2730757644227841 -1.7225341584329499 -0.32761877694988145 5.664571479479843e-06 0.0 0.27515027808751824 0.38410720622024164 0.40849888995013744 -2.362573789211956 -0.013272974991044132 0.002605193658330142 0.0 0.0 0.0 0.0 0.0 0.0 4.147551080962047 -2.2464277892193496 1.9941635200024308 -0.3823465926934154 0.20223974572523043 -0.11831033679405656 0.27516890595940957 0.3840956522069144 0.40849961114222055 -2.362594903911628 -0.013224721135400314 0.0025578841456381698 0.0 0.0 0.0 0.0 0.0 0.0 768 31.125 31.375 31.375 35.25 37.0 37.0625 0.597564 7 253 253 253 253 253 253 1 -0.13407529890537262 0.07661445438861847 -9.959878921508789 0.0 0.5 0.0 47.774654388427734 47.78361129760742 0.5225711464881897 47.71392822265625 47.64226531982422 47.6279296875 47.6279296875 47.570594787597656 47.5275993347168 3840 1
2561.868 -2.8991950000000006 -1.981376 1.9510960000000002 -1.776091 -0.814222 -1.234407 0.0 0.0 0.0 0.0 0.0 0.0 0.0 0.0 0.0 0.0 0.0 0.0 -0.26790766180134823 -1.2731514968917401 -1.722546703787747 -0.32762441143303894 4.31302305747708e-06 0.0 -3.0780324989453587 -13.563069638072303 -19.581030416668256 -2.3822866455994363 3.328862390754137e-05 0.0 -2.8992016951190394 -1.9813667736449183 1.951102081929342 -1.7760797939696253 -0.8142049948321741 -1.2344139258014124 0.0 0.0 -0.0 -0.0 0.0 0.0 -0.48205816745758057 -1.0424715280532837 -1.5723315477371216 -0.2681691348552704 0.045838676393032074 -0.07013539224863052 -0.26790766180134823 -1.2731514968917401 -1.722546703787747 -0.32762441143303894 4.31302305747708e-06 0.0 0.27516971940505747 0.38409655389499725 0.4084943454356396 -2.362585163636928 -0.01321509316570625 0.002588416569115861 0.0 0.0 0.0 0.0 0.0 0.0 4.334542777845853 -2.0677005103934185 2.15146075334047 -0.38482224390070596 0.20379719910447536 -0.1159581467002609 0.27516890595940957 0.3840956522069144 0.40849961114222055 -2.362594903911628 -0.013224721135400314 0.0025578841456381698 0.0 0.0 0.0 0.0 0.0 0.0 768 31.125 31.375 31.375 35.25 37.0 37.0625 0.601608 7 253 253 253 253 253 253 1 -0.1149216815829277 0.19153612852096558 -9.979032516479492 0.0 0.5 0.0 47.76659393310547 47.796146392822266 0.5762841701507568 47.6995964050293 47.6279296875 47.64226531982422 47.64226531982422 47.6279296875 47.5275993347168 3840 1
2561.888 -2.8991950000000006 -1.981376 1.9510960000000002 -1.776091 -0.814222 -1.234407 0.0 0.0 0.0 0.0 0.0 0.0 0.0 0.0 0.0 0.0 0.0 0.0 -0.26791893982767356 -1.2730107976104434 -1.7225446682947543 -0.3276291018227169 5.664416767645271e-06 0.0 -3.0781620739314564 -13.561570747991338 -19.581007278224394 -2.38232075127747 4.371890363693393e-05 0.0 -2.899177853261129 -1.9814030132689417 1.9510772863971155 -1.7760912380614222 -0.8142288366900843 -1.2344020048724573 0.0 0.0 -0.0 -0.0 0.0 0.0 -0.4548429250717163 -1.0072249174118042 -1.5596376657485962 -0.2665320932865143 0.051203690469264984 -0.0719849094748497 -0.26791893982767356 -1.2730107976104434 -1.7225446682947543 -0.3276291018227169 5.664416767645271e-06 0.0 0.27515909576781766 0.38409829434557496 0.4085181195295276 -2.3625904389174903 -0.013259649282851315 0.0025131296264299698 0.0 0.0 0.0 0.0 0.0 0.0 4.226125711951157 -1.9641284931876886 1.9550649786840522 -0.3865092214645965 0.20076942412679752 -0.11759488707651553 0.27516890595940957 0.3840956522069144 0.40849961114222055 -2.362594903911628 -0.013224721135400314 0.0025578841456381698 0.0 0.0 0.0 0.0 0.0 0.0 768 31.125 31.375 31.375 35.25 37.0 37.0625 0.59676 7 253 253 253 253 253 253 1 -0.15322890877723694 0.13407529890537262 -9.979032516479492 0.0 0.5 0.0 47.767486572265625 47.79793930053711 0.491242915391922 47.71392822265625 47.64226531982422 47.65659713745117 47.670928955078125 47.584930419921875 47.5275993347168 3840 1
2561.908 -2.8991950000000006 -1.981376 1.9510960000000002 -1.776091 -0.814222 -1.234407 0.0 0.0 0.0 0.0 0.0 0.0 0.0 0.0 0.0 0.0 0.0 0.0 -0.2678880045193224 -1.2730754100780688 -1.722542470618632 -0.3276183827930277 3.260573905542965e-06 0.0 -3.077806653396524 -13.562259074086096 -19.580982296165622 -2.382242808974054 2.5165647625323385e-05 0.0 -2.8991897741900843 -1.9813786945738734 1.9510887304889124 -1.7760797939696253 -0.8142049948321741 -1.2343900839435022 0.0 0.0 -0.0 -0.0 0.0 0.0 -0.4372742772102356 -1.0290253162384033 -1.5298042297363281 -0.26538538932800293 0.05822601169347763 -0.07273104786872864 -0.2678880045193224 -1.2730754100780688 -1.722542470618632 -0.3276183827930277 3.260573905542965e-06 0.0 0.27516415702108143 0.38409959593715 0.4085056929282683 -2.3625793006498172 -0.013212909101473116 0.002576736461551861 0.0 0.0 0.0 0.0 0.0 0.0 4.479049879355208 -2.34355677437016 2.05084203522808 -0.37906334226884236 0.20612716815471557 -0.1155261474031373 0.27516890595940957 0.3840956522069144 0.40849961114222055 -2.362594903911628 -0.013224721135400314 0.0025578841456381698 0.0 0.0 0.0 0.0 0.0 0.0 768 31.125 31.375 31.375 35.25 37.0 37.0625 0.632245 7 253 253 253 253 253 253 1 -0.19153612852096558 0.15322890877723694 -9.979032516479492 0.0 0.5 0.0 47.75584411621094 47.77196502685547 0.5762841701507568 47.670928955078125 47.599266052246094 47.6279296875 47.6279296875 47.5562629699707 47.48460006713867 3840 1
2561.928 -2.8991950000000006 -1.981376 1.9510960000000002 -1.776091 -0.814222 -1.234407 0.0 0.0 0.0 0.0 0.0 0.0 0.0 0.0 0.0 0.0 0.0 0.0 -0.26792178253880855 -1.2732042259458527 -1.7225290467093493 -0.3276131296553521 9.873942001098695e-06 0.0 -3.078194734278681 -13.563631368419887 -19.580829700026776 -2.3822046113328064 7.620871425429369e-05 0.0 -2.8991897741900843 -1.9813667736449183 1.951102081929342 -1.7760797939696253 -0.8142288366900843 -1.2344382444964808 0.0 0.0 -0.0 -0.0 0.0 0.0 -0.4668983221054077 -1.0209410190582275 -1.5667768716812134 -0.2767145037651062 0.05387303978204727 -0.07252809405326843 -0.26792178253880855 -1.2732042259458527 -1.7225290467093493 -0.3276131296553521 9.873942001098695e-06 0.0 0.2751671585534033 0.38409584835111693 0.4084903949004155 -2.362607409538331 -0.013254200689826426 0.002572965032415476 0.0 0.0 0.0 0.0 0.0 0.0 4.327399000211664 -2.0768195370025127 2.0207929601228973 -0.38539014335807587 0.20169504346564496 -0.1179658276952483 0.27516890595940957 0.3840956522069144 0.40849961114222055 -2.362594903911628 -0.013224721135400314 0.0025578841456381698 0.0 0.0 0.0 0.0 0.0 0.0 768 31.125 31.375 31.375 35.25 37.0 37.0625 0.604369 7 253 253 253 253 253 253 1 -0.038307227194309235 0.1149216815829277 -10.074800491333008 0.0 0.5 0.0 47.730770111083984 47.762115478515625 0.46214526891708374 47.670928955078125 47.61359786987305 47.61359786987305 47.599266052246094 47.570594787597656 47.48460006713867 3840 1
2561.948 -2.8991950000000006 -1.981376 1.9510960000000002 -1.776091 -0.814222 -1.234407 0.0 0.0 0.0 0.0 0.0 0.0 0.0 0.0 0.0 0.0 0.0 0.0 -0.2679080101300321 -1.2730493456740144 -1.7225494189986008 -0.32763006929094285 -1.1317978850016488e-05 0.0 -3.0780365009473996 -13.561981406166664 -19.58106128179731 -2.3823277861215 -8.735402902114176e-05 0.0 -2.899177853261129 -1.9813906155028285 1.9510887304889124 -1.776067396203512 -0.8142407576190394 -1.2344020048724573 0.0 0.0 -0.0 -0.0 0.0 0.0 -0.44436249136924744 -1.0452972650527954 -1.5645025968551636 -0.27499157190322876 0.059225477278232574 -0.08224257826805115 -0.2679080101300321 -1.2730493456740144 -1.7225494189986008 -0.32763006929094285 -1.1317978850016488e-05 0.0 0.27515790946719126 0.3840957163946896 0.4085023363495565 -2.3626130558320124 -0.013235221729434732 0.0025630715320672333 0.0 0.0 0.0 0.0 0.0 0.0 4.277625688965085 -2.06132060006713 2.1035212620911423 -0.3840823735565173 0.207546495214338 -0.11983322015930653 0.27516890595940957 0.3840956522069144 0.40849961114222055 -2.362594903911628 -0.013224721135400314 0.0025578841456381698 0.0 0.0 0.0 0.0 0.0 0.0 768 31.125 31.375 31.375 35.25 37.0 37.0625 0.602329 7 253 253 253 253 253 253 1 -0.1149216815829277 0.13407529890537262 -9.940725326538086 0.0 0.5 0.0 47.730770111083984 47.767486572265625 0.5695713758468628 47.670928955078125 47.599266052246094 47.61359786987305 47.61359786987305 47.5562629699707 47.48460006713867 3840 1
2561.968 -2.8991950000000006 -1.981376 1.9510960000000002 -1.776091 -0.814222 -1.234407 0.0 0.0 0.0 0.0 0.0 0.0 0.0 0.0 0.0 0.0 0.0 0.0 -0.2679022503258092 -1.273035134634595 -1.7225361009923454 -0.3276148847459968 -6.809218914715841e-06 0.0 -3.077970325667206 -13.5618300138793 -19.580909889509947 -2.3822173732908865 -5.255467558030722e-05 0.0 -2.899177853261129 -1.9814030132689417 1.9510534445392054 -1.7761036358275355 -0.8142169157611292 -1.2343900839435022 0.0 0.0 -0.0 -0.0 0.0 0.0 -0.47305166721343994 -1.0314981937408447 -1.5498567819595337 -0.2616526782512665 0.057145364582538605 -0.0784590020775795 -0.2679022503258092 -1.273035134634595 -1.7225361009923454 -0.3276148847459968 -6.809218914715841e-06 0.0 0.27516326064069135 0.3841015955637894 0.4085344232417962 -2.3625706665137245 -0.013264557393579306 0.0024820690953790167 0.0 0.0 0.0 0.0 0.0 0.0 4.565238937035314 -2.297936725116396 1.9181136658236495 -0.38004996005559877 0.20500381815661545 -0.1142048296093355 0.27516890595940957 0.3840956522069144 0.40849961114222055 -2.362594903911628 -0.013224721135400314 0.0025578841456381698 0.0 0.0 0.0 0.0 0.0 0.0 768 31.125 31.375 31.375 35.25 37.0 37.0625 0.600277 7 253 253 253 253 253 253 1 -0.17238251864910126 0.19153612852096558 -10.017339706420898 0.0 0.5 0.0 47.75763702392578 47.77375411987305 0.6053765416145325 47.6995964050293 47.6279296875 47.64226531982422 47.6279296875 47.584930419921875 47.5275993347168 3840 1
2561.988 -2.8991950000000006 -1.981376 1.9510960000000002 -1.776091 -0.814222 -1.234407 0.0 0.0 0.0 0.0 0.0 0.0 0.0 0.0 0.0 0.0 0.0 0.0 -0.2678916255582159 -1.2730734287242356 -1.7225406137746697 -0.327621115977493 -1.026543991349852e-05 0.0 -3.0778482560715625 -13.562237966433091 -19.580961188512617 -2.3822626830390643 -7.923035976668488e-05 0.0 -2.8991897741900843 -1.9813906155028285 1.951102081929342 -1.7761036358275355 -0.8142407576190394 -1.2344139258014124 0.0 0.0 -0.0 -0.0 0.0 0.0 -0.47602108120918274 -1.034924864768982 -1.5540200471878052 -0.26415473222732544 0.0436541810631752 -0.06985542178153992 -0.2678916255582159 -1.2730734287242356 -1.7225406137746697 -0.327621115977493 -1.026543991349852e-05 0.0 0.27516603650689 0.38409336608519346 0.4085002860350734 -2.362607458983564 -0.01324618705667553 0.0025253691386896353 0.0 0.0 0.0 0.0 0.0 0.0 4.119199839743744 -2.410935129345476 2.012665535809646 -0.3790322186317868 0.2021356880385393 -0.11854665589951383 0.27516890595940957 0.3840956522069144 0.40849961114222055 -2.362594903911628 -0.013224721135400314 0.0025578841456381698 0.0 0.0 0.0 0.0 0.0 0.0 768 31.125 31.375 31.375 35.25 37.0 37.0625 0.606096 7 253 253 253 253 253 253 1 -0.05746084079146385 0.15322890877723694 -10.017339706420898 0.0 0.5 0.0 47.76032257080078 47.77823257446289 0.49571460485458374 47.71392822265625 47.6279296875 47.6279296875 47.6279296875 47.570594787597656 47.5275993347168 3840 1
2562.008 -2.8991950000000006 -1.981376 1.9510960000000002 -1.776091 -0.814222 -1.234407 0.0 0.0 0.0 0.0 0.0 0.0 0.0 0.0 0.0 0.0 0.0 0.0 -0.26781489335184056 -1.273026485371256 -1.7225380682723033 -0.3276221843877896 -4.704334008730284e-06 0.0 -3.076966667902896 -13.561737872008305 -19.580932252542897 -2.3822704518728046 -3.63088264229413e-05 0.0 -2.8992136160479944 -1.9813786945738734 1.9511249701129358 -1.7761036358275355 -0.8142049948321741 -1.2344258467303675 0.0 0.0 -0.0 -0.0 0.0 0.0 -0.4797711968421936 -1.0363818407058716 -1.560913324356079 -0.2727103531360626 0.05360465496778488 -0.07577632367610931 -0.26781489335184056 -1.273026485371256 -1.7225380682723033 -0.3276221843877896 -4.704334008730284e-06 0.0 0.27517182073253815 0.38409268998266366 0.4084898189499561 -2.3625819906498333 -0.01322126732362422 0.0025621602533685813 0.0 0.0 0.0 0.0 0.0 0.0 4.383932854548132 -2.2092206324952897 1.9476048125448229 -0.3808113964370334 0.20350413484605065 -0.11225959223227416 0.27516890595940957 0.3840956522069144 0.40849961114222055 -2.362594903911628 -0.013224721135400314 0.0025578841456381698 0.0 0.0 0.0 0.0 0.0 0.0 768 31.125 31.375 31.375 35.25 37.0 37.0625 0.602316 7 253 253 253 253 253 253 1 -0.17238251864910126 0.2106897532939911 -9.959878921508789 0.0 0.5 0.0 47.745994567871094 47.76659393310547 0.5382378697395325 47.670928955078125 47.599266052246094 47.599266052246094 47.599266052246094 47.54193115234375 47.47026824951172 3840 1
2562.028 -2.8991950000000006 -1.981376 1.9510960000000002 -1.776091 -0.814222 -1.234407 0.0 0.0 0.0 0.0 0.0 0.0 0.0 0.0 0.0 0.0 0.0 0.0 -0.2679332629172909 -1.2730782474289817 -1.7225408073651425 -0.32762247712177156 1.1225582664779662e-05 0.0 -3.0783266341199593 -13.562289300801545 -19.580963389150156 -2.3822725804573412 8.664090001166242e-05 0.0 -2.899154011403219 -1.9814030132689417 1.9510658423053187 -1.7761036358275355 -0.8142288366900843 -1.2343781630145472 0.0 0.0 -0.0 -0.0 0.0 0.0 -0.4650348126888275 -1.0462417602539062 -1.5724869966506958 -0.2713904082775116 0.05469901114702225 -0.07033073902130127 -0.2679332629172909 -1.2730782474289817 -1.7225408073651425 -0.32762247712177156 1.1225582664779662e-05 0.0 0.27515338396726785 0.38410573086580524 0.40852588904703324 -2.3625847775332396 -0.013270945730588525 0.0025089229842927864 0.0 0.0 0.0 0.0 0.0 0.0 4.15896684641349 -2.377170735407325 1.9674145642639165 -0.37722875008798484 0.2049849765277805 -0.12096649390332988 0.27516890595940957 0.3840956522069144 0.40849961114222055 -2.362594903911628 -0.013224721135400314 0.0025578841456381698 0.0 0.0 0.0 0.0 0.0 0.0 768 31.125 31.375 31.375 35.25 37.0 37.0625 0.607884 7 253 253 253 253 253 253 1 -0.09576806426048279 0.17238251864910126 -9.998186111450195 0.0 0.5 0.0 47.76301193237305 47.79256820678711 0.5852327942848206 47.6995964050293 47.6279296875 47.64226531982422 47.6279296875 47.584930419921875 47.51326370239258 3840 1
2562.048 -2.8991950000000006 -1.981376 1.9510960000000002 -1.776091 -0.814222 -1.234407 0.0 0.0 0.0 0.0 0.0 0.0 0.0 0.0 0.0 0.0 0.0 0.0 -0.26808766137956636 -1.2732361794529108 -1.722510327790641 -0.32760982327657134 6.7166335781632985e-06 0.0 -3.0801005418965257 -13.563971773817414 -19.580616912927425 -2.382180569345275 5.1840086669749995e-05 0.0 -2.899165932332174 -1.9813786945738734 1.9511249701129358 -1.7761155567564906 -0.8142169157611292 -1.2344258467303675 0.0 0.0 -0.0 -0.0 0.0 0.0 -0.4705706834793091 -1.0014194250106812 -1.5697513818740845 -0.2693966329097748 0.04563587158918381 -0.06767105311155319 -0.26808766137956636 -1.2732361794529108 -1.722510327790641 -0.32760982327657134 6.7166335781632985e-06 0.0 0.2751562940067127 0.38410427692372345 0.40848949267647167 -2.362590075254077 -0.013281421453031786 0.0025669185023969475 0.0 0.0 0.0 0.0 0.0 0.0 3.8770328895532287 -2.2536820281401884 2.0091195880062984 -0.38153002336328556 0.19892122647720897 -0.12679621139454872 0.27516890595940957 0.3840956522069144 0.40849961114222055 -2.362594903911628 -0.013224721135400314 0.0025578841456381698 0.0 0.0 0.0 0.0 0.0 0.0 768 31.125 31.375 31.375 35.25 37.0 37.0625 0.599076 7 253 253 253 253 253 253 1 -0.13407529890537262 0.13407529890537262 -9.979032516479492 0.0 0.5 0.0 47.74778747558594 47.76659393310547 0.5382378697395325 47.68526077270508 47.61359786987305 47.61359786987305 47.599266052246094 47.5275993347168 47.498931884765625 3840 1
2562.0679999999998 -2.8991950000000006 -1.981376 1.9510960000000002 -1.776091 -0.814222 -1.234407 0.0 0.0 0.0 0.0 0.0 0.0 0.0 0.0 0.0 0.0 0.0 0.0 -0.2678997578867814 -1.272946153381686 -1.7225525860697546 -0.3276305640735843 4.612039364179811e-06 0.0 -3.0779416896503125 -13.56088208354058 -19.581097283443277 -2.382331383881734 3.559648112124053e-05 0.0 -2.899177853261129 -1.9813786945738734 1.9511249701129358 -1.7760797939696253 -0.8142288366900843 -1.2344382444964808 0.0 0.0 -0.0 -0.0 0.0 0.0 -0.48614755272865295 -1.030634880065918 -1.5521498918533325 -0.26306524872779846 0.04471052438020706 -0.06880859285593033 -0.2678997578867814 -1.272946153381686 -1.7225525860697546 -0.3276305640735843 4.612039364179811e-06 0.0 0.2751565432630231 0.3840976268713717 0.4084825704799333 -2.362609922205676 -0.013263103768489997 0.002591333183385939 0.0 0.0 0.0 0.0 0.0 0.0 4.273128959834711 -2.2362689308358963 1.9080082200368893 -0.3806187904279185 0.20033842034098653 -0.11736973149031896 0.27516890595940957 0.3840956522069144 0.40849961114222055 -2.362594903911628 -0.013224721135400314 0.0025578841456381698 0.0 0.0 0.0 0.0 0.0 0.0 768 31.125 31.375 31.375 35.25 37.0 37.0625 0.604992 7 253 253 253 253 253 253 1 -0.13407528400421143 0.13407529890537262 -9.940725326538086 0.0 0.5 0.0 47.78361129760742 47.790771484375 0.5762841701507568 47.71392822265625 47.64226531982422 47.65659713745117 47.670928955078125 47.599266052246094 47.54193115234375 3840 1
2562.0879999999997 -2.8991950000000006 -1.981376 1.9510960000000002 -1.776091 -0.814222 -1.234407 0.0 0.0 0.0 0.0 0.0 0.0 0.0 0.0 0.0 0.0 0.0 0.0 -0.2679028876492026 -1.2730186457042432 -1.7225206482396582 -0.3276146824226039 2.2081359866363686e-06 0.0 -3.0779776479740937 -13.561654354885718 -19.580734230516363 -2.382215902117493 1.7042758041466024e-05 0.0 -2.8992016951190394 -1.9813906155028285 1.9510772863971155 -1.7761036358275355 -0.8142407576190394 -1.2344139258014124 0.0 0.0 -0.0 -0.0 0.0 0.0 -0.4658183455467224 -1.0201884508132935 -1.552125334739685 -0.28490638732910156 0.044270314276218414 -0.0830974206328392 -0.2679028876492026 -1.2730186457042432 -1.7225206482396582 -0.3276146824226039 2.2081359866363686e-06 0.0 0.2751740721812298 0.3840909501437136 0.40851340388439006 -2.362601682838636 -0.013243788741605651 0.0024911198358408063 0.0 0.0 0.0 0.0 0.0 0.0 4.216252379210018 -2.0803432464829776 2.207978292260419 -0.3884720427039908 0.20234667223455743 -0.11920538907536464 0.27516890595940957 0.3840956522069144 0.40849961114222055 -2.362594903911628 -0.013224721135400314 0.0025578841456381698 0.0 0.0 0.0 0.0 0.0 0.0 768 31.125 31.375 31.375 35.25 37.0 37.0625 0.599388 7 253 253 253 253 253 253 1 -0.1149216815829277 0.13407529890537262 -9.979032516479492 0.0 0.5 0.0 47.76838302612305 47.79704284667969 0.5180941224098206 47.7282600402832 47.64226531982422 47.64226531982422 47.6279296875 47.599266052246094 47.5275993347168 3840 1
2562.1079999999997 -2.8991950000000006 -1.981376 1.9510960000000002 -1.776091 -0.814222 -1.234407 0.0 0.0 0.0 0.0 0.0 0.0 0.0 0.0 0.0 0.0 0.0 0.0 -0.26785997909540554 -1.273060205136762 -1.7225653463236206 -0.32763629940092553 7.76885943920234e-06 0.0 -3.077484664973227 -13.562097093616146 -19.581242335486586 -2.3823730877147096 5.9961339555981223e-05 0.0 -2.899177853261129 -1.9813906155028285 1.9510534445392054 -1.7760912380614222 -0.8142049948321741 -1.2344258467303675 0.0 0.0 -0.0 -0.0 0.0 0.0 -0.45649582147598267 -1.0523337125778198 -1.5540140867233276 -0.2666377127170563 0.04656995087862015 -0.06401993334293365 -0.26785997909540554 -1.273060205136762 -1.7225653463236206 -0.32763629940092553 7.76885943920234e-06 0.0 0.2751633602215171 0.38410384301420974 0.4085302278143766 -2.3625650775608467 -0.013296920794813592 0.0024978753751433995 0.0 0.0 0.0 0.0 0.0 0.0 4.188877066718543 -2.260710375138745 1.9805532107513164 -0.3837218975178231 0.2031079775822293 -0.12035522538875137 0.27516890595940957 0.3840956522069144 0.40849961114222055 -2.362594903911628 -0.013224721135400314 0.0025578841456381698 0.0 0.0 0.0 0.0 0.0 0.0 768 31.125 31.375 31.375 35.25 37.0 37.0625 0.608472 7 253 253 253 253 253 253 1 -0.1149216815829277 0.17238251864910126 -10.017339706420898 0.0 0.5 0.0 47.75047302246094 47.79166793823242 0.5762841701507568 47.68526077270508 47.6279296875 47.61359786987305 47.5562629699707 47.54193115234375 47.44160079956055 3840 1
2562.1279999999997 -2.8991950000000006 -1.981376 1.9510960000000002 -1.776091 -0.814222 -1.234407 0.0 0.0 0.0 0.0 0.0 0.0 0.0 0.0 0.0 0.0 0.0 0.0 -0.26796938879467236 -1.2731255273619426 -1.7225494189349284 -0.32763006919140264 -6.809298670771107e-06 0.0 -3.078741689904051 -13.562792980862245 -19.581061281073517 -2.382327785397704 -5.2555291150707074e-05 0.0 -2.8991897741900843 -1.9813906155028285 1.951102081929342 -1.7760797939696253 -0.8142169157611292 -1.2344139258014124 0.0 0.0 -0.0 -0.0 0.0 0.0 -0.47927427291870117 -1.033427119255066 -1.5465065240859985 -0.267325758934021 0.057848818600177765 -0.058647193014621735 -0.26796938879467236 -1.2731255273619426 -1.7225494189349284 -0.32763006919140264 -6.809298670771107e-06 0.0 0.27516045939261796 0.38409643394766035 0.4085009384090138 -2.3625907116672353 -0.013238536525412532 0.002562094150426192 0.0 0.0 0.0 0.0 0.0 0.0 4.446865483664533 -2.2393011647423147 2.077367481704974 -0.38645689405716194 0.2093911849772142 -0.1176939396405654 0.27516890595940957 0.3840956522069144 0.40849961114222055 -2.362594903911628 -0.013224721135400314 0.0025578841456381698 0.0 0.0 0.0 0.0 0.0 0.0 768 31.125 31.375 31.375 35.25 37.0 37.0625 0.603276 7 253 253 253 253 253 253 1 -0.15322890877723694 0.1149216815829277 -9.940725326538086 0.0 0.5 0.0 47.76122283935547 47.76838302612305 0.5494276285171509 47.6995964050293 47.61359786987305 47.6279296875 47.61359786987305 47.5562629699707 47.498931884765625 3840 1
2562.1479999999997 -2.8991950000000006 -1.981376 1.9510960000000002 -1.776091 -0.814222 -1.234407 0.0 0.0 0.0 0.0 0.0 0.0 0.0 0.0 0.0 0.0 0.0 0.0 -0.26790363447285775 -1.2730374178946684 -1.722538240770517 -0.3276248052788994 1.1225559080464136e-05 0.0 -3.077986228346398 -13.561854337783764 -19.580934213414412 -2.3822895094084235 8.664071798402214e-05 0.0 -2.899177853261129 -1.9814030132689417 1.9510772863971155 -1.7760797939696253 -0.8142288366900843 -1.2344020048724573 0.0 0.0 -0.0 -0.0 0.0 0.0 -0.4752595126628876 -1.0672101974487305 -1.5914127826690674 -0.2859152555465698 0.04881469905376434 -0.06823819130659103 -0.26790363447285775 -1.2730374178946684 -1.722538240770517 -0.3276248052788994 1.1225559080464136e-05 0.0 0.2751573874906965 0.38409785372168465 0.40851653639880403 -2.3625931968022917 -0.013254199730865529 0.0025262259439221483 0.0 0.0 0.0 0.0 0.0 0.0 4.013942914151323 -2.279629450865055 2.0189621980173116 -0.37967437546340627 0.20387302825288117 -0.12543777726948177 0.27516890595940957 0.3840956522069144 0.40849961114222055 -2.362594903911628 -0.013224721135400314 0.0025578841456381698 0.0 0.0 0.0 0.0 0.0 0.0 768 31.125 31.375 31.375 35.25 37.0 37.0625 0.60498 7 253 253 253 253 253 253 1 -0.17238251864910126 0.09576806426048279 -9.940725326538086 0.0 0.5 0.0 47.749576568603516 47.78361129760742 0.5583816170692444 47.68526077270508 47.61359786987305 47.6279296875 47.64226531982422 47.5562629699707 47.48460006713867 3840 1
2562.1679999999997 -2.8991950000000006 -1.981376 1.9510960000000002 -1.776091 -0.814222 -1.234407 0.0 0.0 0.0 0.0 0.0 0.0 0.0 0.0 0.0 0.0 0.0 0.0 -0.2678712606920048 -1.2730083933649814 -1.7225481651518504 -0.3276276395039535 1.1225499718449343e-05 0.0 -3.0776142809787523 -13.561545135211786 -19.58104702870838 -2.3823101181795083 8.664025981819308e-05 0.0 -2.8992016951190394 -1.9814030132689417 1.951102081929342 -1.7761155567564906 -0.8142407576190394 -1.2344382444964808 0.0 0.0 -0.0 -0.0 0.0 0.0 -0.47219476103782654 -1.0238244533538818 -1.5630344152450562 -0.2764441668987274 0.056576669216156006 -0.07682834565639496 -0.2678712606920048 -1.2730083933649814 -1.7225481651518504 -0.3276276395039535 1.1225499718449343e-05 0.0 0.27516943575311065 0.3840898129847605 0.40850639062876054 -2.3626015584004665 -0.013272339247004548 0.002479916848715107 0.0 0.0 0.0 0.0 0.0 0.0 4.284216562706573 -2.292755315395999 2.1189125907216835 -0.3840555961097048 0.20439062898601154 -0.11873121749986656 0.27516890595940957 0.3840956522069144 0.40849961114222055 -2.362594903911628 -0.013224721135400314 0.0025578841456381698 0.0 0.0 0.0 0.0 0.0 0.0 768 31.125 31.375 31.375 35.25 37.0 37.0625 0.603372 7 253 253 253 253 253 253 1 -0.1149216815829277 0.13407528400421143 -9.998186111450195 0.0 0.5 0.0 47.76032257080078 47.790771484375 0.5695713758468628 47.6995964050293 47.64226531982422 47.64226531982422 47.6279296875 47.570594787597656 47.5275993347168 3840 1
2562.188 -2.8991950000000006 -1.981376 1.9510960000000002 -1.776091 -0.814222 -1.234407 0.0 0.0 0.0 0.0 0.0 0.0 0.0 0.0 0.0 0.0 0.0 0.0 -0.2679055440800776 -1.273132403939473 -1.7225288106519794 -0.32761428828730565 4.312870636314798e-06 0.0 -3.0780081681186444 -13.562866238051308 -19.580827016647262 -2.38221303620389 3.328744749585075e-05 0.0 -2.8992016951190394 -1.9814030132689417 1.9510658423053187 -1.7760797939696253 -0.8142169157611292 -1.2344020048724573 0.0 0.0 -0.0 -0.0 0.0 0.0 -0.46028628945350647 -1.0431383848190308 -1.5701709985733032 -0.2834106981754303 0.05159536749124527 -0.06757508218288422 -0.2679055440800776 -1.273132403939473 -1.7225288106519794 -0.32761428828730565 4.312870636314798e-06 0.0 0.27516713127374237 0.3840936851135074 0.408524566011808 -2.3625793961203576 -0.013233279735092694 0.002506246775793371 0.0 0.0 0.0 0.0 0.0 0.0 4.327929231243912 -2.450025392794373 2.0055772648162806 -0.37843768911872505 0.20262163365883729 -0.11584475444401453 0.27516890595940957 0.3840956522069144 0.40849961114222055 -2.362594903911628 -0.013224721135400314 0.0025578841456381698 0.0 0.0 0.0 0.0 0.0 0.0 768 31.125 31.375 31.375 35.25 37.0 37.0625 0.60336 7 253 253 253 253 253 253 1 -0.019153613597154617 0.13407528400421143 -9.998186111450195 0.0 0.5 0.0 47.75405502319336 47.77913284301758 0.5024327039718628 47.670928955078125 47.61359786987305 47.6279296875 47.599266052246094 47.599266052246094 47.51326370239258 3840 1
2562.208 -2.8991950000000006 -1.981376 1.9510960000000002 -1.776091 -0.814222 -1.234407 0.0 0.0 0.0 0.0 0.0 0.0 0.0 0.0 0.0 0.0 0.0 0.0 -0.267918635107164 -1.273011051487991 -1.7225449062184321 -0.3276238383762252 -7.861489100330352e-06 0.0 -3.0781585729504646 -13.561573452586092 -19.581009982819147 -2.382282478676744 -6.067627057092856e-05 0.0 -2.8992016951190394 -1.9814149341978968 1.9510772863971155 -1.7761274776854457 -0.8142407576190394 -1.2343781630145472 0.0 0.0 -0.0 -0.0 0.0 0.0 -0.47772684693336487 -1.0332351922988892 -1.5583847761154175 -0.2577739357948303 0.054533399641513824 -0.06657780706882477 -0.267918635107164 -1.273011051487991 -1.7225449062184321 -0.3276238383762252 -7.861489100330352e-06 0.0 0.27517182652308064 0.38409043248988517 0.40852544191444556 -2.362590453375166 -0.013224331801230518 0.0024532460074472395 0.0 0.0 0.0 0.0 0.0 0.0 4.676343933429544 -2.4949278040035354 2.087967758709893 -0.37497376634011664 0.21154050067400748 -0.11256324820771339 0.27516890595940957 0.3840956522069144 0.40849961114222055 -2.362594903911628 -0.013224721135400314 0.0025578841456381698 0.0 0.0 0.0 0.0 0.0 0.0 768 31.125 31.375 31.375 35.25 37.0 37.0625 0.598128 7 253 253 253 253 253 253 1 -0.1149216815829277 0.15322890877723694 -9.959878921508789 0.0 0.5 0.0 47.74509811401367 47.76927947998047 0.5539045929908752 47.68526077270508 47.599266052246094 47.61359786987305 47.61359786987305 47.570594787597656 47.48460006713867 3840 1
2562.228 -2.8991950000000006 -1.981376 1.9510960000000002 -1.776091 -0.814222 -1.234407 0.0 0.0 0.0 0.0 0.0 0.0 0.0 0.0 0.0 0.0 0.0 0.0 -0.26784489352453444 -1.273069852617877 -1.7225430129351986 -0.3276245126607343 4.313022413853003e-06 0.0 -3.0773113445198503 -13.562199869647525 -19.580988460943132 -2.382287381666037 3.32886189399445e-05 0.0 -2.899177853261129 -1.9813906155028285 1.951102081929342 -1.7761155567564906 -0.8142288366900843 -1.2344258467303675 0.0 0.0 -0.0 -0.0 0.0 0.0 -0.48890870809555054 -1.0398980379104614 -1.5614488124847412 -0.2603365182876587 0.0536549910902977 -0.05869940668344498 -0.26784489352453444 -1.273069852617877 -1.7225430129351986 -0.3276245126607343 4.313022413853003e-06 0.0 0.27516222812042707 0.3840990981811475 0.40850391031150524 -2.3625931819837107 -0.013281879428486257 0.0025164475932208507 0.0 0.0 0.0 0.0 0.0 0.0 4.250670337461666 -2.424649081208446 1.8984955139998294 -0.37680366396983017 0.2045049564586609 -0.12079375783353898 0.27516890595940957 0.3840956522069144 0.40849961114222055 -2.362594903911628 -0.013224721135400314 0.0025578841456381698 0.0 0.0 0.0 0.0 0.0 0.0 768 31.125 31.375 31.375 35.25 37.0 37.0625 0.610993 7 253 253 253 253 253 253 1 -0.07661445438861847 0.15322890877723694 -9.959878921508789 0.0 0.5 0.0 47.73793411254883 47.7639045715332 0.5158582925796509 47.670928955078125 47.54193115234375 47.61359786987305 47.599266052246094 47.5562629699707 47.48460006713867 3840 1
2562.248 -2.8991950000000006 -1.981376 1.9510960000000002 -1.776091 -0.814222 -1.234407 0.0 0.0 0.0 0.0 0.0 0.0 0.0 0.0 0.0 0.0 0.0 0.0 -0.2679179773472414 -1.273009001282614 -1.7225429848496128 -0.32762647006598566 5.66449861623992e-06 0.0 -3.0781510158451364 -13.561551611447493 -19.58098814168055 -2.3823016147336213 4.371953535789816e-05 0.0 -2.8992255369769495 -1.9813786945738734 1.9510887304889124 -1.7761155567564906 -0.8142049948321741 -1.2344258467303675 0.0 0.0 -0.0 -0.0 0.0 0.0 -0.44279903173446655 -1.0310226678848267 -1.5987519025802612 -0.2695908844470978 0.03933735936880112 -0.059541989117860794 -0.2679179773472414 -1.273009001282614 -1.7225429848496128 -0.32762647006598566 5.66449861623992e-06 0.0 0.2751832317243569 0.3840911317424295 0.4085106400466032 -2.362570643762413 -0.013229939283533717 0.002501129408365367 0.0 0.0 0.0 0.0 0.0 0.0 4.249869258937881 -2.357821566052671 2.07504681477422 -0.37984497970915604 0.20654368724590588 -0.12313465716203802 0.27516890595940957 0.3840956522069144 0.40849961114222055 -2.362594903911628 -0.013224721135400314 0.0025578841456381698 0.0 0.0 0.0 0.0 0.0 0.0 768 31.125 31.375 31.375 35.25 37.0 37.0625 0.599089 7 253 253 253 253 253 253 1 -0.1149216815829277 0.09576806426048279 -10.055646896362305 0.0 0.5 0.0 47.76838302612305 47.80331039428711 0.5762841701507568 47.6995964050293 47.64226531982422 47.64226531982422 47.61359786987305 47.570594787597656 47.54193115234375 3840 1
2562.268 -2.8991950000000006 -1.981376 1.9510960000000002 -1.776091 -0.814222 -1.234407 0.0 0.0 0.0 0.0 0.0 0.0 0.0 0.0 0.0 0.0 0.0 0.0 -0.26792168944036937 -1.2731094937997127 -1.7225387151500688 -0.327618382668091 -1.0265466640095226e-05 0.0 -3.0781936646563364 -13.562622172972057 -19.580939605918672 -2.3822428080655906 -7.923056604697002e-05 0.0 -2.899165932332174 -1.9813667736449183 1.951113526021139 -1.776067396203512 -0.8142407576190394 -1.2344020048724573 0.0 0.0 -0.0 -0.0 0.0 0.0 -0.475125789642334 -1.0468608140945435 -1.5644463300704956 -0.25651878118515015 0.04179767519235611 -0.046338386833667755 -0.26792168944036937 -1.2731094937997127 -1.7225387151500688 -0.327618382668091 -1.0265466640095226e-05 0.0 0.27515556336825864 0.38409953937751584 0.4084806504867916 -2.362624458333431 -0.01322640800664777 0.002624703354282474 0.0 0.0 0.0 0.0 0.0 0.0 4.3230956185815765 -2.333317841598242 1.9807566587510972 -0.3785792224301475 0.20355573788446932 -0.11300365891953096 0.27516890595940957 0.3840956522069144 0.40849961114222055 -2.362594903911628 -0.013224721135400314 0.0025578841456381698 0.0 0.0 0.0 0.0 0.0 0.0 768 31.125 31.375 31.375 35.25 37.0 37.0625 0.602005 7 253 253 253 253 253 253 1 -0.07661445438861847 0.15322890877723694 -9.921571731567383 0.0 0.5 0.0 47.774654388427734 47.788089752197266 0.5583816170692444 47.6995964050293 47.6279296875 47.64226531982422 47.6279296875 47.54193115234375 47.51326370239258 3840 1
2562.288 -2.8991950000000006 -1.981376 1.9510960000000002 -1.776091 -0.814222 -1.234407 0.0 0.0 0.0 0.0 0.0 0.0 0.0 0.0 0.0 0.0 0.0 0.0 -0.2679826173874523 -1.2729915312004985 -1.7225536661252798 -0.32763941563563753 -9.966881925805592e-06 0.0 -3.0788936752493683 -13.56136550010026 -19.5811095609624 -2.38239574708953 -7.692603993475803e-05 0.0 -2.899177853261129 -1.9813906155028285 1.9510658423053187 -1.776067396203512 -0.8142407576190394 -1.2344139258014124 0.0 0.0 -0.0 -0.0 0.0 0.0 -0.4274742305278778 -0.9857799410820007 -1.5771442651748657 -0.2735365033149719 0.04522547870874405 -0.0630195140838623 -0.2679826173874523 -1.2729915312004985 -1.7225536661252798 -0.32763941563563753 -9.966881925805592e-06 0.0 0.275161100439211 0.3840965142966519 0.4085144450464558 -2.3626075716146007 -0.01326008911721298 0.00253101220367165 0.0 0.0 0.0 0.0 0.0 0.0 3.9544847951205013 -2.1925352232806703 1.971157013506408 -0.3846299361264045 0.2006166545275696 -0.12548131664585616 0.27516890595940957 0.3840956522069144 0.40849961114222055 -2.362594903911628 -0.013224721135400314 0.0025578841456381698 0.0 0.0 0.0 0.0 0.0 0.0 768 31.125 31.375 31.3125 35.25 37.0 37.0625 0.601129 7 253 253 253 253 253 253 1 -0.07661445438861847 0.13407529890537262 -9.959878921508789 0.0 0.5 0.0 47.77196502685547 47.774654388427734 0.4890017807483673 47.6995964050293 47.64226531982422 47.64226531982422 47.64226531982422 47.584930419921875 47.5275993347168 3840 1
2562.308 -2.8991950000000006 -1.981376 1.9510960000000002 -1.776091 -0.814222 -1.234407 0.0 0.0 0.0 0.0 0.0 0.0 0.0 0.0 0.0 0.0 0.0 0.0 -0.26787901192617264 -1.2731154315789148 -1.7225486023527365 -0.3276271446491993 -4.704369751571569e-06 0.0 -3.0777033361051163 -13.562685429004834 -19.58105199858457 -2.382306519894913 -3.63091022920904e-05 0.0 -2.8992016951190394 -1.9813906155028285 1.9510772863971155 -1.7760912380614222 -0.8142288366900843 -1.2344258467303675 0.0 0.0 -0.0 -0.0 0.0 0.0 -0.4337005317211151 -1.0299302339553833 -1.5977786779403687 -0.25578632950782776 0.04125077277421951 -0.058568187057971954 -0.26787901192617264 -1.2731154315789148 -1.7225486023527365 -0.3276271446491993 -4.704369751571569e-06 0.0 0.2751712124419094 0.38409246575745654 0.4085136640206052 -2.362593338810372 -0.01325381881144674 0.0025042480391727906 0.0 0.0 0.0 0.0 0.0 0.0 4.343084344826635 -2.3827156886052085 1.9112514060537182 -0.3783581010762433 0.2064130688097687 -0.11651224652945663 0.27516890595940957 0.3840956522069144 0.40849961114222055 -2.362594903911628 -0.013224721135400314 0.0025578841456381698 0.0 0.0 0.0 0.0 0.0 0.0 768 31.125 31.375 31.3125 35.25 37.0625 37.0625 0.598765 7 253 253 253 253 253 253 1 -0.19153612852096558 0.2106897532939911 -9.979032516479492 0.0 0.5 0.0 47.75405502319336 47.78361129760742 0.5785199999809265 47.670928955078125 47.599266052246094 47.61359786987305 47.584930419921875 47.54193115234375 47.498931884765625 3840 1
2562.328 -2.8991950000000006 -1.981376 1.9510960000000002 -1.776091 -0.814222 -1.234407 0.0 0.0 0.0 0.0 0.0 0.0 0.0 0.0 0.0 0.0 0.0 0.0 -0.2679366602327526 -1.2730854106374998 -1.7225475204318677 -0.3276273360461397 -2.300532854904921e-06 0.0 -3.0783656664019405 -13.562365611512565 -19.581039699861176 -2.3823079116177497 -1.7755892322696987e-05 0.0 -2.8992016951190394 -1.9814030132689417 1.9510887304889124 -1.776067396203512 -0.8141806761371058 -1.2344139258014124 0.0 0.0 -0.0 -0.0 0.0 0.0 -0.4632173776626587 -1.0614453554153442 -1.5383433103561401 -0.27156177163124084 0.034038953483104706 -0.06001351401209831 -0.2679366602327526 -1.2730854106374998 -1.7225475204318677 -0.3276273360461397 -2.300532854904921e-06 0.0 0.27515902245864376 0.38409846832985733 0.40851674711916014 -2.3625535080508984 -0.01323630084864331 0.0025552831857790998 0.0 0.0 0.0 0.0 0.0 0.0 4.014691105245137 -2.2497034583244324 1.9637780823691 -0.3777483473506301 0.1992750012269195 -0.12489343623531687 0.27516890595940957 0.3840956522069144 0.40849961114222055 -2.362594903911628 -0.013224721135400314 0.0025578841456381698 0.0 0.0 0.0 0.0 0.0 0.0 768 31.125 31.375 31.3125 35.25 37.0625 37.0625 0.602388 7 253 253 253 253 253 253 1 -0.1149216815829277 0.17238251864910126 -9.998186111450195 0.0 0.5 0.0 47.74509811401367 47.77823257446289 0.5829969644546509 47.65659713745117 47.6279296875 47.599266052246094 47.584930419921875 47.570594787597656 47.48460006713867 3840 1
2562.348 -2.8991950000000006 -1.981376 1.9510960000000002 -1.776091 -0.814222 -1.234407 0.0 0.0 0.0 0.0 0.0 0.0 0.0 0.0 0.0 0.0 0.0 0.0 -0.26787349216894596 -1.2731000482085764 -1.7225341856857814 -0.3276168192814259 1.333030934655279e-05 0.0 -3.0776399187619328 -13.562521547704236 -19.580888117283973 -2.38223144006295 0.00010288552796843876 0.0 -2.899177853261129 -1.9813906155028285 1.9510887304889124 -1.7760797939696253 -0.8142049948321741 -1.2344020048724573 0.0 0.0 -0.0 -0.0 0.0 0.0 -0.4271507263183594 -1.0325329303741455 -1.5729106664657593 -0.27236247062683105 0.036430709064006805 -0.0574430488049984 -0.26787349216894596 -1.2731000482085764 -1.7225341856857814 -0.3276168192814259 1.333030934655279e-05 0.0 0.275156732965134 0.3841021723994068 0.40850997705451775 -2.362576329718272 -0.013246679480294798 0.0025630454117079736 0.0 0.0 0.0 0.0 0.0 0.0 4.109508764776581 -2.2015256331488486 1.860122905937265 -0.3805224780581707 0.20248919636953167 -0.1212666918123465 0.27516890595940957 0.3840956522069144 0.40849961114222055 -2.362594903911628 -0.013224721135400314 0.0025578841456381698 0.0 0.0 0.0 0.0 0.0 0.0 768 31.125 31.375 31.3125 35.25 37.0625 37.0625 0.602784 7 253 253 253 253 253 253 1 -0.17238251864910126 0.05746084079146385 -9.90241813659668 0.0 0.5 0.0 47.76301193237305 47.76838302612305 0.4979557394981384 47.68526077270508 47.599266052246094 47.6279296875 47.61359786987305 47.570594787597656 47.48460006713867 3840 1
2562.368 -2.8991950000000006 -1.981376 1.9510960000000002 -1.776091 -0.814222 -1.234407 0.0 0.0 0.0 0.0 0.0 0.0 0.0 0.0 0.0 0.0 0.0 0.0 -0.26782924049977075 -1.2730163806936616 -1.722559973032011 -0.3276337690855112 3.2603165644199135e-06 0.0 -3.077131504501071 -13.56163022539577 -19.581181254654226 -2.3823546887907883 2.5163661424056424e-05 0.0 -2.899177853261129 -1.9813786945738734 1.951113526021139 -1.7760912380614222 -0.814193073903219 -1.2343900839435022 0.0 0.0 -0.0 -0.0 0.0 0.0 -0.46897855401039124 -1.0131311416625977 -1.5431658029556274 -0.26919037103652954 0.04678911715745926 -0.055742066353559494 -0.26782924049977075 -1.2730163806936616 -1.722559973032011 -0.3276337690855112 3.2603165644199135e-06 0.0 0.2751568203217697 0.38410444513931274 0.40849613360304454 -2.3625710728597973 -0.013222607772307085 0.002602609740537175 0.0 0.0 0.0 0.0 0.0 0.0 4.041980658761834 -2.3485874549234196 1.9429626385748364 -0.3796174750404015 0.19954716827141333 -0.12396769597958318 0.27516890595940957 0.3840956522069144 0.40849961114222055 -2.362594903911628 -0.013224721135400314 0.0025578841456381698 0.0 0.0 0.0 0.0 0.0 0.0 768 31.125 31.375 31.3125 35.25 37.0625 37.0625 0.597192 7 253 253 253 253 253 253 1 -0.038307227194309235 0.09576806426048279 -9.979032516479492 0.0 0.5 0.0 47.7585334777832 47.77644348144531 0.5852327942848206 47.6995964050293 47.599266052246094 47.61359786987305 47.599266052246094 47.5562629699707 47.51326370239258 3840 1
2562.388 -2.8991950000000006 -1.981376 1.9510960000000002 -1.776091 -0.814222 -1.234407 0.0 0.0 0.0 0.0 0.0 0.0 0.0 0.0 0.0 0.0 0.0 0.0 -0.2678446390155221 -1.2730762755020477 -1.7225490322001542 -0.3276273469564191 8.821667145814474e-06 0.0 -3.077308420426504 -13.56226829357468 -19.58105688487029 -2.3823079909507054 6.808708322239072e-05 0.0 -2.8992016951190394 -1.9813906155028285 1.951041046773092 -1.7760912380614222 -0.8142169157611292 -1.2344382444964808 0.0 0.0 -0.0 -0.0 0.0 0.0 -0.44275856018066406 -1.0113176107406616 -1.5409557819366455 -0.26808908581733704 0.036337710916996 -0.056323546916246414 -0.2678446390155221 -1.2730762755020477 -1.7225490322001542 -0.3276273469564191 8.821667145814474e-06 0.0 0.2751752551824721 0.38409572172904516 0.4085348115401966 -2.3625734557380156 -0.013287392484090608 0.0024613484593976873 0.0 0.0 0.0 0.0 0.0 0.0 3.9702465437628507 -2.218303942167078 1.9662159716701684 -0.38019026120875277 0.19660825374924037 -0.12133470661765824 0.27516890595940957 0.3840956522069144 0.40849961114222055 -2.362594903911628 -0.013224721135400314 0.0025578841456381698 0.0 0.0 0.0 0.0 0.0 0.0 768 31.125 31.375 31.3125 35.25 37.0625 37.0625 0.603276 7 253 253 253 253 253 253 1 -0.13407528400421143 0.038307227194309235 -9.940725326538086 0.0 0.5 0.0 47.744205474853516 47.78361129760742 0.5337609052658081 47.68526077270508 47.6279296875 47.61359786987305 47.599266052246094 47.5562629699707 47.48460006713867 3840 1
2562.408 -2.8991950000000006 -1.981376 1.9510960000000002 -1.776091 -0.814222 -1.234407 0.0 0.0 0.0 0.0 0.0 0.0 0.0 0.0 0.0 0.0 0.0 0.0 -0.2679493514874839 -1.272963408732563 -1.7225630075862766 -0.3276420463965782 3.5589150206907916e-06 0.0 -3.078511478187436 -13.561065907324432 -19.58121574991595 -2.3824148763925916 2.746829359914804e-05 0.0 -2.8991897741900843 -1.9814030132689417 1.951113526021139 -1.7761036358275355 -0.8142049948321741 -1.2344020048724573 0.0 0.0 -0.0 -0.0 0.0 0.0 -0.44579994678497314 -1.070457935333252 -1.5588771104812622 -0.26234424114227295 0.04676464945077896 -0.04833216220140457 -0.2679493514874839 -1.272963408732563 -1.7225630075862766 -0.3276420463965782 3.5589150206907916e-06 0.0 0.2751584547856139 0.3840982139803367 0.4085046128397047 -2.362573579387054 -0.013238097050467268 0.0025442115851522494 0.0 0.0 0.0 0.0 0.0 0.0 4.277453376807993 -2.5150676537502226 1.994542597890379 -0.37953005129006734 0.20666019032807326 -0.11709090749541001 0.27516890595940957 0.3840956522069144 0.40849961114222055 -2.362594903911628 -0.013224721135400314 0.0025578841456381698 0.0 0.0 0.0 0.0 0.0 0.0 768 31.125 31.3125 31.3125 35.25 37.0625 37.0625 0.599232 7 253 253 253 253 253 253 1 -0.09576806426048279 0.13407529890537262 -9.883264541625977 0.0 0.5 0.0 47.704795837402344 47.73255920410156 0.6367100477218628 47.6279296875 47.570594787597656 47.599266052246094 47.584930419921875 47.51326370239258 47.4559326171875 3840 1
2562.428 -2.8991950000000006 -1.981376 1.9510960000000002 -1.776091 -0.814222 -1.234407 0.0 0.0 0.0 0.0 0.0 0.0 0.0 0.0 0.0 0.0 0.0 0.0 -0.2679381602645735 -1.2730834293924185 -1.7225456636898229 -0.32763006909186165 -2.300618490465279e-06 0.0 -3.0783829004991783 -13.562344505018109 -19.58101859336672 -2.382327784673902 -1.7756553272087674e-05 0.0 -2.8992016951190394 -1.9813906155028285 1.9510887304889124 -1.7760797939696253 -0.8142288366900843 -1.234354321156637 0.0 0.0 -0.0 -0.0 0.0 0.0 -0.432831346988678 -1.032508134841919 -1.572816014289856 -0.27787888050079346 0.04059445112943649 -0.05932905897498131 -0.2679381602645735 -1.2730834293924185 -1.7225456636898229 -0.32763006909186165 -2.300618490465279e-06 0.0 0.27516790864708607 0.38409162625848203 0.40850602655658075 -2.362599307507944 -0.013158483691473925 0.002565164433767795 0.0 0.0 0.0 0.0 0.0 0.0 4.360501278176761 -2.5366416708832626 1.983027769628547 -0.3759721226879835 0.2068839245300918 -0.1161086022140217 0.27516890595940957 0.3840956522069144 0.40849961114222055 -2.362594903911628 -0.013224721135400314 0.0025578841456381698 0.0 0.0 0.0 0.0 0.0 0.0 768 31.125 31.3125 31.3125 35.25 37.0625 37.0625 0.607512 7 253 253 253 253 253 253 1 -0.05746084079146385 0.17238251864910126 -9.940725326538086 0.0 0.5 0.0 47.71464920043945 47.736141204833984 0.5852327942848206 47.65659713745117 47.584930419921875 47.584930419921875 47.570594787597656 47.5275993347168 47.4559326171875 3840 1
2562.448 -2.8991950000000006 -1.981376 1.9510960000000002 -1.776091 -0.814222 -1.234407 0.0 0.0 0.0 0.0 0.0 0.0 0.0 0.0 0.0 0.0 0.0 0.0 -0.2678454308748557 -1.2730660743583069 -1.7225394721045029 -0.3276246138883554 4.3130217273662644e-06 0.0 -3.0773175182206733 -13.562159619294139 -19.580948210589746 -2.3822881177320974 3.328861364152654e-05 0.0 -2.899177853261129 -1.9813906155028285 1.9510658423053187 -1.7761036358275355 -0.8142407576190394 -1.2343781630145472 0.0 0.0 -0.0 -0.0 0.0 0.0 -0.5106194019317627 -1.0735225677490234 -1.5508500337600708 -0.2669888436794281 0.04415682703256607 -0.05656101554632187 -0.2678454308748557 -1.2730660743583069 -1.7225394721045029 -0.3276246138883554 4.3130217273662644e-06 0.0 0.27516651005784887 0.3840979096245891 0.4085194583061817 -2.3625990947558275 -0.013235099321747953 0.0025068804624650384 0.0 0.0 0.0 0.0 0.0 0.0 4.244242578290541 -2.2979820879200346 2.1634470434324737 -0.38145222987547034 0.20076530192565417 -0.11866260693754821 0.27516890595940957 0.3840956522069144 0.40849961114222055 -2.362594903911628 -0.013224721135400314 0.0025578841456381698 0.0 0.0 0.0 0.0 0.0 0.0 768 31.125 31.3125 31.3125 35.25 37.0625 37.0625 0.601692 7 253 253 253 253 253 253 1 -0.019153613597154617 0.07661445438861847 -9.998186111450195 0.0 0.5 0.0 47.730770111083984 47.76838302612305 0.5516634583473206 47.670928955078125 47.61359786987305 47.599266052246094 47.599266052246094 47.54193115234375 47.498931884765625 3840 1
2562.468 -2.8991950000000006 -1.981376 1.9510960000000002 -1.776091 -0.814222 -1.234407 0.0 0.0 0.0 0.0 0.0 0.0 0.0 0.0 0.0 0.0 0.0 0.0 -0.2678785232548703 -1.2731171588103236 -1.7225502210435324 -0.3276296751744247 4.31293266830051e-06 0.0 -3.07769772168506 -13.562703829454374 -19.58107039903411 -2.382324920344454 3.328792626895608e-05 0.0 -2.899177853261129 -1.9813786945738734 1.9510887304889124 -1.7761036358275355 -0.8141806761371058 -1.2344258467303675 0.0 0.0 -0.0 -0.0 0.0 0.0 -0.4450327157974243 -1.0302069187164307 -1.5307905673980713 -0.270764023065567 0.05205531418323517 -0.05993084982037544 -0.2678785232548703 -1.2731171588103236 -1.7225502210435324 -0.3276296751744247 4.31293266830051e-06 0.0 0.27516107853622734 0.3841078594241573 0.4085130205857681 -2.3625502841543367 -0.013284367392474466 0.002547521890076419 0.0 0.0 0.0 0.0 0.0 0.0 4.1812878401918425 -2.3773137027192446 1.8807613398664553 -0.380655468027483 0.20397885983819672 -0.11904973006643199 0.27516890595940957 0.3840956522069144 0.40849961114222055 -2.362594903911628 -0.013224721135400314 0.0025578841456381698 0.0 0.0 0.0 0.0 0.0 0.0 768 31.125 31.3125 31.3125 35.25 37.0625 37.0625 0.6015 7 253 253 253 253 253 253 1 -0.15322890877723694 0.17238251864910126 -9.979032516479492 0.0 0.5 0.0 47.762115478515625 47.79704284667969 0.5606174468994141 47.6995964050293 47.6279296875 47.61359786987305 47.6279296875 47.54193115234375 47.5275993347168 3840 1
2562.488 -2.8991950000000006 -1.981376 1.9510960000000002 -1.776091 -0.814222 -1.234407 0.0 0.0 0.0 0.0 0.0 0.0 0.0 0.0 0.0 0.0 0.0 0.0 -0.2679665433460493 -1.2731038572202615 -1.7225291105624057 -0.32762227468329524 6.716903461010455e-06 0.0 -3.078708998105403 -13.56256212566441 -19.580830425875682 -2.3822711084471306 5.184216967011386e-05 0.0 -2.8991897741900843 -1.9813786945738734 1.9510534445392054 -1.7761036358275355 -0.8142049948321741 -1.2344020048724573 0.0 0.0 -0.0 -0.0 0.0 0.0 -0.4835010766983032 -1.004429817199707 -1.5462069511413574 -0.2589675188064575 0.03821152448654175 -0.05911434814333916 -0.2679665433460493 -1.2731038572202615 -1.7225291105624057 -0.32762227468329524 6.716903461010455e-06 0.0 0.2751726351041455 0.3841017438345638 0.4085276586746529 -2.3625651472540667 -0.013254972478869123 0.002503159072581451 0.0 0.0 0.0 0.0 0.0 0.0 4.064737020660187 -2.275654573593091 1.9658760929933723 -0.37960156406907086 0.19750580494224396 -0.11789044887482106 0.27516890595940957 0.3840956522069144 0.40849961114222055 -2.362594903911628 -0.013224721135400314 0.0025578841456381698 0.0 0.0 0.0 0.0 0.0 0.0 768 31.125 31.3125 31.3125 35.25 37.0625 37.0625 0.603264 7 253 253 253 253 253 253 1 -0.13407529890537262 0.1149216741323471 -9.90241813659668 0.0 0.5 0.0 47.74778747558594 47.76838302612305 0.5158582925796509 47.6995964050293 47.6279296875 47.64226531982422 47.64226531982422 47.570594787597656 47.5275993347168 3840 1
