Edkamb/ConfLiftingaaS/DTProject/python-app/test_results/ur5e_actual.csv
timestamp target_q_0 target_q_1 target_q_2 target_q_3 target_q_4 target_q_5 target_qd_0 target_qd_1 target_qd_2 target_qd_3 target_qd_4 target_qd_5 target_qdd_0 target_qdd_1 target_qdd_2 target_qdd_3 target_qdd_4 target_qdd_5 target_current_0 target_current_1 target_current_2 target_current_3 target_current_4 target_current_5 target_moment_0 target_moment_1 target_moment_2 target_moment_3 target_moment_4 target_moment_5 actual_q_0 actual_q_1 actual_q_2 actual_q_3 actual_q_4 actual_q_5 actual_qd_0 actual_qd_1 actual_qd_2 actual_qd_3 actual_qd_4 actual_qd_5 actual_current_0 actual_current_1 actual_current_2 actual_current_3 actual_current_4 actual_current_5 joint_control_output_0 joint_control_output_1 joint_control_output_2 joint_control_output_3 joint_control_output_4 joint_control_output_5 actual_TCP_pose_0 actual_TCP_pose_1 actual_TCP_pose_2 actual_TCP_pose_3 actual_TCP_pose_4 actual_TCP_pose_5 actual_TCP_speed_0 actual_TCP_speed_1 actual_TCP_speed_2 actual_TCP_speed_3 actual_TCP_speed_4 actual_TCP_speed_5 actual_TCP_force_0 actual_TCP_force_1 actual_TCP_force_2 actual_TCP_force_3 actual_TCP_force_4 actual_TCP_force_5 target_TCP_pose_0 target_TCP_pose_1 target_TCP_pose_2 target_TCP_pose_3 target_TCP_pose_4 target_TCP_pose_5 target_TCP_speed_0 target_TCP_speed_1 target_TCP_speed_2 target_TCP_speed_3 target_TCP_speed_4 target_TCP_speed_5 actual_digital_input_bits joint_temperatures_0 joint_temperatures_1 joint_temperatures_2 joint_temperatures_3 joint_temperatures_4 joint_temperatures_5 actual_execution_time robot_mode joint_mode_0 joint_mode_1 joint_mode_2 joint_mode_3 joint_mode_4 joint_mode_5 safety_mode actual_tool_accelerometer_0 actual_tool_accelerometer_1 actual_tool_accelerometer_2 speed_scaling target_speed_fraction actual_momentum actual_main_voltage actual_robot_voltage actual_robot_current actual_joint_voltage_0 actual_joint_voltage_1 actual_joint_voltage_2 actual_joint_voltage_3 actual_joint_voltage_4 actual_joint_voltage_5 actual_digital_output_bits runtime_state
17020.765 -2.666677 -2.0663800000000005 2.3151730000000006 -2.248468 -0.8907210000000001 -0.9420859999999998 0.0 0.0 0.0 0.0 0.0 0.0 0.0 0.0 0.0 0.0 0.0 0.0 0.2335593886054325 -1.3813557616226793 -1.5113850519717604 -0.3503076492155289 -2.31030271070204e-05 0.0 2.683399883853981 -14.715785541297551 -17.18065269805504 -2.547225436978927 -0.0001783129768244747 0.0 -2.6667173544513147 -2.066372057000631 2.3151758352862757 -2.2484737835326136 -0.8907406965838831 -0.9421380201922815 0.0 0.0 -0.0 0.0 0.0 -0.0 0.49899953603744507 -1.6038024425506592 -1.2992219924926758 -0.45124343037605286 -0.019966360181570053 0.06559054553508759 0.2335593886054325 -1.3813557616226793 -1.5113850519717604 -0.3503076492155289 -2.31030271070204e-05 0.0 0.17469788117634283 0.41923755904110027 0.3027406328471505 -2.3613591577180686 -0.014666192859356561 0.0014819221563041466 0.0 0.0 0.0 0.0 0.0 0.0 12.488584232497738 -12.100040594215363 1.152280603324722 0.2711969778449761 0.1932968240962889 0.12462182403295594 0.1746769280968488 0.4192468359229866 0.3027467533030364 -2.3613411376090006 -0.014660099016828493 0.0015352698068651608 0.0 0.0 0.0 0.0 0.0 0.0 768 30.4375 30.9375 30.375 34.625 36.875 37.125 0.604272 7 253 253 253 253 253 253 1 -0.24899697303771973 0.1149216815829277 -9.940725326538086 0.0 1.0 0.0 47.76032257080078 47.77644348144531 0.5337609052658081 47.670928955078125 47.61359786987305 47.6279296875 47.6279296875 47.5562629699707 47.51326370239258 3840 1
17020.785 -2.666677 -2.0663800000000005 2.3151730000000006 -2.248468 -0.8907210000000001 -0.9420859999999998 0.0 0.0 0.0 0.0 0.0 0.0 0.0 0.0 0.0 0.0 0.0 0.0 0.23366097592351392 -1.381309425890328 -1.5114040406115437 -0.35030944228921135 -1.5024946309072083e-05 0.0 2.68456703623937 -14.715291919944438 -17.1808685512057 -2.5472384751266937 -0.0001159650157785785 0.0 -2.666657272969381 -2.066360136071676 2.3151281515704554 -2.248486181298727 -0.8907530943499964 -0.942077938710348 0.0 0.0 -0.0 0.0 0.0 -0.0 0.52393639087677 -1.6476246118545532 -1.3183656930923462 -0.4577770233154297 -0.011299967765808105 0.0742243155837059 0.23366097592351392 -1.381309425890328 -1.5114040406115437 -0.35030944228921135 -1.5024946309072083e-05 0.0 0.17468742063743 0.4192529540856421 0.302763042553567 -2.3613472938368987 -0.014683525963800665 0.0014809123284018311 0.0 0.0 0.0 0.0 0.0 0.0 12.276513055411055 -12.162309588364518 1.2070890468195117 0.27497606040475475 0.19291120964801128 0.11881137723260027 0.1746769280968488 0.4192468359229866 0.3027467533030364 -2.3613411376090006 -0.014660099016828493 0.0015352698068651608 0.0 0.0 0.0 0.0 0.0 0.0 768 30.4375 30.9375 30.375 34.625 36.875 37.125 0.601392 7 253 253 253 253 253 253 1 -0.05746084079146385 0.2106897532939911 -9.959878921508789 0.0 1.0 0.0 47.77196502685547 47.79435729980469 0.4778119921684265 47.68526077270508 47.6279296875 47.6279296875 47.61359786987305 47.5562629699707 47.5275993347168 3840 1
17020.805 -2.666677 -2.0663800000000005 2.3151730000000006 -2.248468 -0.8907210000000001 -0.9420859999999998 0.0 0.0 0.0 0.0 0.0 0.0 0.0 0.0 0.0 0.0 0.0 0.0 0.23347885167267618 -1.3814220071523793 -1.5113586930532308 -0.3502996933859861 -6.942864511723596e-06 0.0 2.6824745825963667 -14.71649126464212 -17.180353063343052 -2.547167586996407 -5.358617435886752e-05 0.0 -2.6666696707354944 -2.0663839779295863 2.3151634375201624 -2.2484737835326136 -0.8907049337970179 -0.9420903364764612 0.0 0.0 -0.0 0.0 0.0 -0.0 0.4974677860736847 -1.679965615272522 -1.309673547744751 -0.4499940276145935 -0.013262417167425156 0.04883962869644165 0.23347885167267618 -1.3814220071523793 -1.5113586930532308 -0.3502996933859861 -6.942864511723596e-06 0.0 0.1746736451192801 0.4192515376231017 0.30275665172022104 -2.3613192843225055 -0.014686743760082296 0.0015276489439457522 0.0 0.0 0.0 0.0 0.0 0.0 12.441480790752317 -12.16128705477721 1.311524913165754 0.2708496926661336 0.19471768681072055 0.11815060955507273 0.1746769280968488 0.4192468359229866 0.3027467533030364 -2.3613411376090006 -0.014660099016828493 0.0015352698068651608 0.0 0.0 0.0 0.0 0.0 0.0 768 30.4375 30.9375 30.375 34.625 36.875 37.125 0.601369 7 253 253 253 253 253 253 1 -0.019153613597154617 0.15322890877723694 -9.998186111450195 0.0 1.0 0.0 47.72629165649414 47.748680114746094 0.5427148342132568 47.64226531982422 47.599266052246094 47.584930419921875 47.584930419921875 47.51326370239258 47.4559326171875 3840 1
17020.825 -2.666677 -2.0663800000000005 2.3151730000000006 -2.248468 -0.8907210000000001 -0.9420859999999998 0.0 0.0 0.0 0.0 0.0 0.0 0.0 0.0 0.0 0.0 0.0 0.0 0.2335913204762167 -1.381484892508362 -1.511357085141732 -0.3503077638093934 -2.077229072370336e-06 0.0 2.683766754048604 -14.717161191563223 -17.180334785427046 -2.5472262702362283 -1.6032396868380205e-05 0.0 -2.6666696707354944 -2.066372057000631 2.3151634375201624 -2.2484499416747035 -0.8907530943499964 -0.9420421759234827 0.0 0.0 -0.0 0.0 0.0 -0.0 0.497388631105423 -1.647915244102478 -1.3311734199523926 -0.4606420397758484 -0.02122453972697258 0.05874630808830261 0.2335913204762167 -1.381484892508362 -1.511357085141732 -0.3503077638093934 -2.077229072370336e-06 0.0 0.17467944369702315 0.4192439392099782 0.302741614637413 -2.3613748920956175 -0.01460084838892913 0.001554853001779911 0.0 0.0 0.0 0.0 0.0 0.0 11.90759617559332 -12.03008349004116 1.4294119363294895 0.27186842462406785 0.1892957354355694 0.10663316285954541 0.1746769280968488 0.4192468359229866 0.3027467533030364 -2.3613411376090006 -0.014660099016828493 0.0015352698068651608 0.0 0.0 0.0 0.0 0.0 0.0 768 30.4375 30.9375 30.375 34.625 36.875 37.125 0.601717 7 253 253 253 253 253 253 1 -0.05746084079146385 0.1149216815829277 -10.055646896362305 0.0 1.0 0.0 47.77823257446289 47.786293029785156 0.5292839407920837 47.6995964050293 47.670928955078125 47.65659713745117 47.64226531982422 47.584930419921875 47.570594787597656 3840 1
17020.844999999998 -2.666677 -2.0663800000000005 2.3151730000000006 -2.248468 -0.8907210000000001 -0.9420859999999998 0.0 0.0 0.0 0.0 0.0 0.0 0.0 0.0 0.0 0.0 0.0 0.0 0.2335873996067387 -1.3814100516484311 -1.5113145245396598 -0.35029379004030414 -2.1986768132509922e-05 0.0 2.683721706573678 -14.716363900904968 -17.179850978258337 -2.547124661435638 -0.00016969750579853653 0.0 -2.6666696707354944 -2.066348215142721 2.3151758352862757 -2.2484737835326136 -0.8907406965838831 -0.9421141783343714 0.0 0.0 -0.0 0.0 0.0 -0.0 0.47749581933021545 -1.6552125215530396 -1.3305542469024658 -0.45819419622421265 -0.01242620125412941 0.057933226227760315 0.2335873996067387 -1.3814100516484311 -1.5113145245396598 -0.35029379004030414 -2.1986768132509922e-05 0.0 0.17468086049710893 0.4192474164227656 0.30273235688522687 -2.3613698239457928 -0.014684076460664018 0.001541763559797423 0.0 0.0 0.0 0.0 0.0 0.0 12.192080240454313 -12.054770997180706 1.2667647900333696 0.2704015344334469 0.18918426154956067 0.11624169594702977 0.1746769280968488 0.4192468359229866 0.3027467533030364 -2.3613411376090006 -0.014660099016828493 0.0015352698068651608 0.0 0.0 0.0 0.0 0.0 0.0 768 30.4375 30.9375 30.375 34.625 36.875 37.125 0.605893 7 253 253 253 253 253 253 1 -0.05746084079146385 0.17238251864910126 -9.979032516479492 0.0 1.0 0.0 47.7244987487793 47.754947662353516 0.5337609052658081 47.670928955078125 47.599266052246094 47.599266052246094 47.61359786987305 47.5275993347168 47.51326370239258 3840 1
17020.864999999998 -2.666677 -2.0663800000000005 2.3151730000000006 -2.248468 -0.8907210000000001 -0.9420859999999998 0.0 0.0 0.0 0.0 0.0 0.0 0.0 0.0 0.0 0.0 0.0 0.0 0.23352886199472084 -1.381461152217471 -1.5113126440296132 -0.350283172330448 3.190182807434345e-06 0.0 2.6830491589093444 -14.716908282762212 -17.179829601581385 -2.5470474558687917 2.462235751067527e-05 0.0 -2.6666815916644495 -2.066360136071676 2.3151405493365687 -2.248486181298727 -0.8907406965838831 -0.9421017805682581 0.0 0.0 -0.0 0.0 0.0 -0.0 0.5202276110649109 -1.6712523698806763 -1.3257529735565186 -0.45544102787971497 -0.01845681667327881 0.06688085943460464 0.23352886199472084 -1.381461152217471 -1.5113126440296132 -0.350283172330448 3.190182807434345e-06 0.0 0.17469319279310494 0.41924913979473183 0.3027579912625534 -2.361342896171495 -0.014681102802519356 0.0014792728858792786 0.0 0.0 0.0 0.0 0.0 0.0 12.394259118422234 -12.247312704325594 1.0361228844601706 0.2737844194219636 0.19425638059713024 0.11897017728340031 0.1746769280968488 0.4192468359229866 0.3027467533030364 -2.3613411376090006 -0.014660099016828493 0.0015352698068651608 0.0 0.0 0.0 0.0 0.0 0.0 768 30.4375 30.9375 30.375 34.625 36.875 37.125 0.601813 7 253 253 253 253 253 253 1 -0.09576806426048279 0.19153612852096558 -9.979032516479492 0.0 1.0 0.0 47.76569747924805 47.76838302612305 0.5360020399093628 47.68526077270508 47.6279296875 47.65659713745117 47.599266052246094 47.570594787597656 47.498931884765625 3840 1
17020.885 -2.666677 -2.0663800000000005 2.3151730000000006 -2.248468 -0.8907210000000001 -0.9420859999999998 0.0 0.0 0.0 0.0 0.0 0.0 0.0 0.0 0.0 0.0 0.0 0.0 0.2336249090623279 -1.3814145694204378 -1.5113298551450918 -0.3502845020417116 -6.586072916238963e-06 0.0 2.684152658501462 -14.716412029392806 -17.18002524874436 -2.547057124725187 -5.083239792939321e-05 0.0 -2.6666935125934046 -2.0663958988585414 2.3151634375201624 -2.2484737835326136 -0.890728775654928 -0.9420540968524378 0.0 0.0 -0.0 0.0 0.0 -0.0 0.4673278033733368 -1.6101495027542114 -1.2917543649673462 -0.4603040814399719 -0.010865559801459312 0.05729161947965622 0.2336249090623279 -1.3814145694204378 -1.5113298551450918 -0.3502845020417116 -6.586072916238963e-06 0.0 0.17468571146471829 0.41924321965661926 0.30275740858275585 -2.3613335677099334 -0.014614229209848978 0.0015044110500538688 0.0 0.0 0.0 0.0 0.0 0.0 12.41696674180733 -12.211511786408003 1.1014443945086256 0.2718971334593437 0.19402026240892464 0.11982861827078889 0.1746769280968488 0.4192468359229866 0.3027467533030364 -2.3613411376090006 -0.014660099016828493 0.0015352698068651608 0.0 0.0 0.0 0.0 0.0 0.0 768 30.4375 30.9375 30.375 34.625 36.875 37.125 0.790597 7 253 253 253 253 253 253 1 -0.1149216815829277 0.17238251864910126 -9.959878921508789 0.0 1.0 0.0 47.78898239135742 47.8068962097168 0.5136224627494812 47.71392822265625 47.64226531982422 47.64226531982422 47.670928955078125 47.570594787597656 47.5562629699707 3840 1
17020.905 -2.666677 -2.0663800000000005 2.3151730000000006 -2.248468 -0.8907210000000001 -0.9420859999999998 0.0 0.0 0.0 0.0 0.0 0.0 0.0 0.0 0.0 0.0 0.0 0.0 0.23354546705582302 -1.3814329780811005 -1.5113911651597896 -0.3503040323677386 -7.70195838511e-06 0.0 2.6832399370206375 -14.71660813955497 -17.180722189651686 -2.5471991374484606 -5.9444986177151675e-05 0.0 -2.6667173544513147 -2.0663839779295863 2.3151758352862757 -2.248486181298727 -0.8907406965838831 -0.9420660177813929 0.0 0.0 -0.0 0.0 0.0 -0.0 0.511994481086731 -1.6340411901474 -1.3027853965759277 -0.4627606272697449 -0.01090185809880495 0.07084342837333679 0.23354546705582302 -1.3814329780811005 -1.5113911651597896 -0.3503040323677386 -7.70195838511e-06 0.0 0.17469788833218555 0.4192375833385962 0.3027468868966172 -2.361348605870149 -0.014591692907029549 0.0014913203083024883 0.0 0.0 0.0 0.0 0.0 0.0 12.215104353114748 -12.115413631414995 1.1132654238826323 0.2728057022933146 0.19088056640590756 0.1204774913686284 0.1746769280968488 0.4192468359229866 0.3027467533030364 -2.3613411376090006 -0.014660099016828493 0.0015352698068651608 0.0 0.0 0.0 0.0 0.0 0.0 768 30.4375 30.9375 30.375 34.625 36.8125 37.125 0.599088 7 253 253 253 253 253 253 1 -0.13407528400421143 0.09576806426048279 -9.940725326538086 0.0 1.0 0.0 47.75315856933594 47.7585334777832 0.5494276285171509 47.670928955078125 47.599266052246094 47.64226531982422 47.570594787597656 47.5275993347168 47.48460006713867 3840 1
17020.925 -2.666677 -2.0663800000000005 2.3151730000000006 -2.248468 -0.8907210000000001 -0.9420859999999998 0.0 0.0 0.0 0.0 0.0 0.0 0.0 0.0 0.0 0.0 0.0 0.0 0.23355288541141692 -1.3814026737760532 -1.5113627652016808 -0.35029824631788176 -1.2210511792886826e-05 0.0 2.6833251676536594 -14.71628530334836 -17.180399353445075 -2.547157064792017 -9.424274560446593e-05 0.0 -2.6666935125934046 -2.066372057000631 2.315188233052389 -2.2484737835326136 -0.8906930128680628 -0.9420660177813929 0.0 0.0 -0.0 0.0 0.0 -0.0 0.47804686427116394 -1.6201657056808472 -1.292809009552002 -0.4645443558692932 -0.00684984028339386 0.05758179724216461 0.23355288541141692 -1.3814026737760532 -1.5113627652016808 -0.35029824631788176 -1.2210511792886826e-05 0.0 0.17467819933259524 0.4192471743989051 0.3027405859036981 -2.3613266676379396 -0.014617403574184723 0.001574904283262584 0.0 0.0 0.0 0.0 0.0 0.0 12.042046801704382 -12.039258377698808 1.1440578988243821 0.27184129252633515 0.19088249308129113 0.11276733182843557 0.1746769280968488 0.4192468359229866 0.3027467533030364 -2.3613411376090006 -0.014660099016828493 0.0015352698068651608 0.0 0.0 0.0 0.0 0.0 0.0 768 30.4375 30.9375 30.375 34.625 36.8125 37.125 0.606 7 253 253 253 253 253 253 1 -0.05746084079146385 0.09576806426048279 -10.055646896362305 0.0 1.0 0.0 47.77375411987305 47.79435729980469 0.5583816170692444 47.71392822265625 47.64226531982422 47.65659713745117 47.65659713745117 47.570594787597656 47.5562629699707 3840 1
17020.945 -2.666677 -2.0663800000000005 2.3151730000000006 -2.248468 -0.8907210000000001 -0.9420859999999998 0.0 0.0 0.0 0.0 0.0 0.0 0.0 0.0 0.0 0.0 0.0 0.0 0.23356623827416265 -1.381451924930254 -1.5113150926858456 -0.3502939059221384 5.566339016128732e-07 0.0 2.6834785807558044 -14.716809983118061 -17.17985743665376 -2.5471255040582768 4.296192336105263e-06 0.0 -2.6666935125934046 -2.066348215142721 2.3151405493365687 -2.2484737835326136 -0.8907049337970179 -0.9421141783343714 0.0 0.0 -0.0 0.0 0.0 -0.0 0.43955299258232117 -1.6404587030410767 -1.3270572423934937 -0.46450138092041016 0.0004517406923696399 0.06085024029016495 0.23356623827416265 -1.381451924930254 -1.5113150926858456 -0.3502939059221384 5.566339016128732e-07 0.0 0.17469284960231765 0.4192521172441099 0.3027568086892194 -2.3613251141808496 -0.014681221569061762 0.0015180691698509572 0.0 0.0 0.0 0.0 0.0 0.0 12.11761896722302 -12.010445837941045 1.3045770386013738 0.27059423391166576 0.19056577995713667 0.11100283208783973 0.1746769280968488 0.4192468359229866 0.3027467533030364 -2.3613411376090006 -0.014660099016828493 0.0015352698068651608 0.0 0.0 0.0 0.0 0.0 0.0 768 30.4375 30.9375 30.375 34.625 36.8125 37.125 0.6036 7 253 253 253 253 253 253 1 -0.09576806426048279 0.1149216815829277 -10.017339706420898 0.0 1.0 0.0 47.72987747192383 47.764801025390625 0.5561404824256897 47.65659713745117 47.599266052246094 47.570594787597656 47.599266052246094 47.54193115234375 47.48460006713867 3840 1
17020.965 -2.666677 -2.0663800000000005 2.3151730000000006 -2.248468 -0.8907210000000001 -0.9420859999999998 0.0 0.0 0.0 0.0 0.0 0.0 0.0 0.0 0.0 0.0 0.0 0.0 0.23360679723972297 -1.3814135606352123 -1.5113564867729665 -0.35029992372538865 -3.9520452381873175e-06 0.0 2.6839445689745767 -14.716401282655832 -17.18032798347679 -2.5471692618852844 -3.050253751171988e-05 0.0 -2.6667054335223597 -2.0663839779295863 2.3151634375201624 -2.2484499416747035 -0.8907406965838831 -0.9421141783343714 0.0 0.0 -0.0 0.0 0.0 -0.0 0.5392658114433289 -1.6529659032821655 -1.28603994846344 -0.473563015460968 -0.03248301520943642 0.05503200739622116 0.23360679723972297 -1.3814135606352123 -1.5113564867729665 -0.35029992372538865 -3.9520452381873175e-06 0.0 0.1746911025686551 0.41923869073513886 0.30274751071640704 -2.361359173157305 -0.014652258870864462 0.0014986610203196508 0.0 0.0 0.0 0.0 0.0 0.0 12.203007682330268 -11.933486536475545 1.2954962715013032 0.27007893260100935 0.18805381305707047 0.11886449934765121 0.1746769280968488 0.4192468359229866 0.3027467533030364 -2.3613411376090006 -0.014660099016828493 0.0015352698068651608 0.0 0.0 0.0 0.0 0.0 0.0 768 30.4375 30.9375 30.375 34.625 36.8125 37.125 0.604596 7 253 253 253 253 253 253 1 -0.1149216815829277 0.15322890877723694 -9.90241813659668 0.0 1.0 0.0 47.75226593017578 47.77375411987305 0.5427148342132568 47.68526077270508 47.61359786987305 47.65659713745117 47.599266052246094 47.570594787597656 47.5275993347168 3840 1
17020.985 -2.666677 -2.0663800000000005 2.3151730000000006 -2.248468 -0.8907210000000001 -0.9420859999999998 0.0 0.0 0.0 0.0 0.0 0.0 0.0 0.0 0.0 0.0 0.0 0.0 0.23356541763489977 -1.3814294745853886 -1.5113603042905794 -0.3503005315804707 -1.0335655349646361e-05 0.0 2.6834691523045833 -14.716570816301267 -17.180371379065615 -2.5471736818399457 -7.977229409332323e-05 0.0 -2.6666696707354944 -2.066348215142721 2.315188233052389 -2.2484737835326136 -0.8907049337970179 -0.9421017805682581 0.0 0.0 -0.0 0.0 0.0 -0.0 0.5384972095489502 -1.6451126337051392 -1.3245326280593872 -0.45874661207199097 -0.011171496473252773 0.05435626208782196 0.23356541763489977 -1.3814294745853886 -1.5113603042905794 -0.3503005315804707 -1.0335655349646361e-05 0.0 0.17467295194313198 0.4192511718648495 0.30273061945419827 -2.361346668713877 -0.014674154443344406 0.0015858864399619639 0.0 0.0 0.0 0.0 0.0 0.0 12.223999755566842 -11.859762679420996 1.3997804945612584 0.26253044757947475 0.19240906130377256 0.11368570578870028 0.1746769280968488 0.4192468359229866 0.3027467533030364 -2.3613411376090006 -0.014660099016828493 0.0015352698068651608 0.0 0.0 0.0 0.0 0.0 0.0 768 30.4375 30.9375 30.375 34.625 36.8125 37.125 0.601956 7 253 253 253 253 253 253 1 -0.19153612852096558 0.17238251864910126 -9.998186111450195 0.0 1.0 0.0 47.788089752197266 47.81853485107422 0.5829969644546509 47.68526077270508 47.65659713745117 47.64226531982422 47.6279296875 47.570594787597656 47.54193115234375 3840 1
17021.005 -2.666677 -2.0663800000000005 2.3151730000000006 -2.248468 -0.8907210000000001 -0.9420859999999998 0.0 0.0 0.0 0.0 0.0 0.0 0.0 0.0 0.0 0.0 0.0 0.0 0.23351831631423567 -1.3815777818059038 -1.5113281152208762 -0.3503018619084224 -2.07710976834361e-06 0.0 2.682927997957699 -14.718150754874635 -17.180005470175274 -2.547183355180524 -1.6031476060208442e-05 0.0 -2.6666935125934046 -2.066360136071676 2.3151758352862757 -2.2484499416747035 -0.890716854725973 -0.9420540968524378 0.0 0.0 -0.0 0.0 0.0 -0.0 0.48715004324913025 -1.6557656526565552 -1.2869986295700073 -0.4671635031700134 -0.02281295880675316 0.05744131654500961 0.23351831631423567 -1.3815777818059038 -1.5113281152208762 -0.3503018619084224 -2.07710976834361e-06 0.0 0.17468294491302536 0.419244361738278 0.3027358067316338 -2.36135674103031 -0.014586491196863425 0.001588489541418777 0.0 0.0 0.0 0.0 0.0 0.0 12.252668619417259 -12.055211602983437 1.042764676022025 0.27228702487247364 0.19146725761406735 0.11721573678077657 0.1746769280968488 0.4192468359229866 0.3027467533030364 -2.3613411376090006 -0.014660099016828493 0.0015352698068651608 0.0 0.0 0.0 0.0 0.0 0.0 768 30.4375 31.0 30.375 34.625 36.8125 37.125 0.603636 7 253 253 253 253 253 253 1 -0.1149216815829277 0.13407529890537262 -9.959878921508789 0.0 1.0 0.0 47.751365661621094 47.780025482177734 0.5606174468994141 47.71392822265625 47.65659713745117 47.6995964050293 47.65659713745117 47.570594787597656 47.5562629699707 3840 1
17021.024999999998 -2.666677 -2.0663800000000005 2.3151730000000006 -2.248468 -0.8907210000000001 -0.9420859999999998 0.0 0.0 0.0 0.0 0.0 0.0 0.0 0.0 0.0 0.0 0.0 0.0 0.2335720103735769 -1.3813950545877154 -1.5113942982079283 -0.3503097025420064 -7.70218460722271e-06 0.0 2.6835448972973497 -14.71620413501744 -17.18075780454141 -2.5472403675276762 -5.944673219676002e-05 0.0 -2.6666815916644495 -2.066360136071676 2.3151519934283655 -2.2484737835326136 -0.890728775654928 -0.942077938710348 0.0 0.0 -0.0 0.0 0.0 -0.0 0.5031436681747437 -1.6058212518692017 -1.3297672271728516 -0.46921131014823914 -0.018585121259093285 0.0654725432395935 0.2335720103735769 -1.3813950545877154 -1.5113942982079283 -0.3503097025420064 -7.70218460722271e-06 0.0 0.17468754605631553 0.4192488200502906 0.3027512801392962 -2.3613443385062856 -0.014645992269480289 0.0015242471047189365 0.0 0.0 0.0 0.0 0.0 0.0 12.214719243360827 -12.031373068856396 1.2022449359201977 0.26778339903079557 0.1917133596388485 0.11829955129799885 0.1746769280968488 0.4192468359229866 0.3027467533030364 -2.3613411376090006 -0.014660099016828493 0.0015352698068651608 0.0 0.0 0.0 0.0 0.0 0.0 768 30.4375 31.0 30.375 34.625 36.8125 37.125 0.602592 7 253 253 253 253 253 253 1 -0.15322890877723694 0.1149216815829277 -9.90241813659668 0.0 1.0 0.0 47.81316375732422 47.81853485107422 0.49571460485458374 47.7282600402832 47.65659713745117 47.64226531982422 47.65659713745117 47.599266052246094 47.570594787597656 3840 1
17021.045 -2.666677 -2.0663800000000005 2.3151730000000006 -2.248468 -0.8907210000000001 -0.9420859999999998 0.0 0.0 0.0 0.0 0.0 0.0 0.0 0.0 0.0 0.0 0.0 0.0 0.23357443985754694 -1.381403118391322 -1.5113356043409778 -0.3503005315325918 -5.826975168622164e-06 0.0 2.6835728100138625 -14.716290039900034 -17.180090602664386 -2.547173681491799 -4.4973556209159335e-05 0.0 -2.6666696707354944 -2.0664078197874964 2.3151634375201624 -2.2484499416747035 -0.8907645384417933 -0.9421017805682581 0.0 0.0 -0.0 0.0 0.0 -0.0 0.5245400667190552 -1.657198429107666 -1.3187509775161743 -0.4569510221481323 -0.015393529087305069 0.06116195023059845 0.23357443985754694 -1.381403118391322 -1.5113356043409778 -0.3503005315325918 -5.826975168622164e-06 0.0 0.17467669478909822 0.41924002063379645 0.30275240560933 -2.361367447833424 -0.014683400217214558 0.0014802251851828907 0.0 0.0 0.0 0.0 0.0 0.0 12.298519895256726 -12.211198720653725 1.3029439731329768 0.27012994917332867 0.1937870540420577 0.11574866499797429 0.1746769280968488 0.4192468359229866 0.3027467533030364 -2.3613411376090006 -0.014660099016828493 0.0015352698068651608 0.0 0.0 0.0 0.0 0.0 0.0 768 30.4375 31.0 30.375 34.625 36.8125 37.125 0.604596 7 253 253 253 253 253 253 1 -0.19153612852096558 0.13407528400421143 -9.998186111450195 0.0 1.0 0.0 47.73883056640625 47.774654388427734 0.5404736995697021 47.68526077270508 47.6279296875 47.599266052246094 47.6279296875 47.570594787597656 47.51326370239258 3840 1
17021.065 -2.666677 -2.0663800000000005 2.3151730000000006 -2.248468 -0.8907210000000001 -0.9420859999999998 0.0 0.0 0.0 0.0 0.0 0.0 0.0 0.0 0.0 0.0 0.0 0.0 0.23359738584547673 -1.3813770044399196 -1.5113498049876841 -0.35030342459854796 -5.827033416173561e-06 0.0 2.6838364400126964 -14.716011844145438 -17.180252028357216 -2.54719471811835 -4.4974005773375925e-05 0.0 -2.6666696707354944 -2.0663839779295863 2.3151405493365687 -2.2484623394408167 -0.8907049337970179 -0.9420421759234827 0.0 0.0 -0.0 0.0 0.0 -0.0 0.4717935025691986 -1.6542500257492065 -1.333528995513916 -0.47256535291671753 -0.013095937669277191 0.05189128965139389 0.23359738584547673 -1.3813770044399196 -1.5113498049876841 -0.35030342459854796 -5.827033416173561e-06 0.0 0.17467701998208612 0.4192532628075287 0.3027672694798341 -2.3613145276210776 -0.014634795907050819 0.0015389203235898887 0.0 0.0 0.0 0.0 0.0 0.0 12.16172518865844 -12.272503342811609 1.4251180434587525 0.2713096415324351 0.19338597686156284 0.11377621543969602 0.1746769280968488 0.4192468359229866 0.3027467533030364 -2.3613411376090006 -0.014660099016828493 0.0015352698068651608 0.0 0.0 0.0 0.0 0.0 0.0 768 30.4375 31.0 30.375 34.625 36.8125 37.125 0.6033 7 253 253 253 253 253 253 1 -0.05746084079146385 0.17238251864910126 -9.940725326538086 0.0 1.0 0.0 47.767486572265625 47.786293029785156 0.5046685338020325 47.68526077270508 47.6279296875 47.6279296875 47.61359786987305 47.599266052246094 47.51326370239258 3840 1
17021.085 -2.666677 -2.0663800000000005 2.3151730000000006 -2.248468 -0.8907210000000001 -0.9420859999999998 0.0 0.0 0.0 0.0 0.0 0.0 0.0 0.0 0.0 0.0 0.0 0.0 0.23353249035971624 -1.3815249459489882 -1.5113448511892749 -0.3503025852280015 9.573959501974687e-06 0.0 2.6830908457550984 -14.71758788674112 -17.18019571610913 -2.5471886147232 7.389339980799793e-05 0.0 -2.6667054335223597 -2.0663839779295863 2.3151758352862757 -2.2484623394408167 -0.8907406965838831 -0.942077938710348 0.0 0.0 -0.0 0.0 0.0 -0.0 0.5097995400428772 -1.5928236246109009 -1.333208441734314 -0.46637439727783203 -0.017116883769631386 0.044832468032836914 0.23353249035971624 -1.3815249459489882 -1.5113448511892749 -0.3503025852280015 9.573959501974687e-06 0.0 0.1746900205770212 0.41923815031066813 0.30274281749524906 -2.3613593800427184 -0.014609499457389399 0.001516315005781448 0.0 0.0 0.0 0.0 0.0 0.0 12.429722369497311 -12.164585866351764 1.0189104634682966 0.27925084482575024 0.19339881925987487 0.11689338329892454 0.1746769280968488 0.4192468359229866 0.3027467533030364 -2.3613411376090006 -0.014660099016828493 0.0015352698068651608 0.0 0.0 0.0 0.0 0.0 0.0 768 30.4375 31.0 30.375 34.625 36.8125 37.125 0.599544 7 253 253 253 253 253 253 1 -0.15322890877723694 0.15322890877723694 -10.036493301391602 0.0 1.0 0.0 47.76838302612305 47.79435729980469 0.4554324448108673 47.6995964050293 47.6279296875 47.65659713745117 47.6279296875 47.5562629699707 47.5275993347168 3840 1
17021.105 -2.666677 -2.0663800000000005 2.3151730000000006 -2.248468 -0.8907210000000001 -0.9420859999999998 0.0 0.0 0.0 0.0 0.0 0.0 0.0 0.0 0.0 0.0 0.0 0.0 0.23357075081954273 -1.3813950546899938 -1.5113942983037796 -0.3503097026918524 -1.2210864782739413e-05 0.0 2.6835304260865405 -14.716204136107029 -17.180757805631 -2.547240368617266 -9.424547003841617e-05 0.0 -2.6666815916644495 -2.0663958988585414 2.3151634375201624 -2.2484260998167933 -0.890716854725973 -0.9420903364764612 0.0 0.0 -0.0 0.0 0.0 -0.0 0.4995681345462799 -1.643107533454895 -1.2879873514175415 -0.45750218629837036 -0.024992648512125015 0.05237288028001785 0.23357075081954273 -1.3813950546899938 -1.5113942983037796 -0.3503097026918524 -1.2210864782739413e-05 0.0 0.17467319575905463 0.41924396555867766 0.3027509603801028 -2.3613454797307196 -0.014653760630616722 0.0015509427874337818 0.0 0.0 0.0 0.0 0.0 0.0 12.48598073078387 -12.055617729741222 1.4545184910186943 0.2692645364355966 0.19239109023482667 0.11968522690871002 0.1746769280968488 0.4192468359229866 0.3027467533030364 -2.3613411376090006 -0.014660099016828493 0.0015352698068651608 0.0 0.0 0.0 0.0 0.0 0.0 768 30.4375 31.0 30.375 34.625 36.8125 37.125 0.599892 7 253 253 253 253 253 253 1 -0.17238251864910126 0.2298433631658554 -10.036493301391602 0.0 1.0 0.0 47.73793411254883 47.774654388427734 0.5158582925796509 47.65659713745117 47.61359786987305 47.61359786987305 47.584930419921875 47.54193115234375 47.498931884765625 3840 1
17021.125 -2.666677 -2.0663800000000005 2.3151730000000006 -2.248468 -0.8907210000000001 -0.9420859999999998 0.0 0.0 0.0 0.0 0.0 0.0 0.0 0.0 0.0 0.0 0.0 0.0 0.23355196953824875 -1.3814066231583124 -1.5113664664015778 -0.35030403246291286 -1.2210638563910674e-05 0.0 2.6833146450453937 -14.716327376696853 -17.180441426793568 -2.54719913814051 -9.424372404415406e-05 0.0 -2.6666935125934046 -2.066360136071676 2.3151281515704554 -2.248498102227682 -0.890716854725973 -0.9420660177813929 0.0 0.0 -0.0 0.0 0.0 -0.0 0.5130301713943481 -1.6345688104629517 -1.317845106124878 -0.46491992473602295 -0.024874847382307053 0.0535440593957901 0.23355196953824875 -1.3814066231583124 -1.5113664664015778 -0.35030403246291286 -1.2210638563910674e-05 0.0 0.174698643702238 0.4192525329332768 0.3027702163905448 -2.361312907849943 -0.014642038276562531 0.0014819901405603306 0.0 0.0 0.0 0.0 0.0 0.0 12.32772609044315 -12.249194152677145 1.2764977554697543 0.2752452538682439 0.1971525826028527 0.1164497649038555 0.1746769280968488 0.4192468359229866 0.3027467533030364 -2.3613411376090006 -0.014660099016828493 0.0015352698068651608 0.0 0.0 0.0 0.0 0.0 0.0 768 30.4375 31.0 30.375 34.625 36.8125 37.125 0.599736 7 253 253 253 253 253 253 1 -0.05746084079146385 0.13407529890537262 -10.036493301391602 0.0 1.0 0.0 47.82211685180664 47.826595306396484 0.48452481627464294 47.7282600402832 47.65659713745117 47.68526077270508 47.64226531982422 47.570594787597656 47.5275993347168 3840 1
17021.145 -2.666677 -2.0663800000000005 2.3151730000000006 -2.248468 -0.8907210000000001 -0.9420859999999998 0.0 0.0 0.0 0.0 0.0 0.0 0.0 0.0 0.0 0.0 0.0 0.0 0.23355380236242917 -1.3814192790372686 -1.5113120758317475 -0.35028305635585366 -5.827182074349958e-06 0.0 2.6833357026454423 -14.716462201631696 -17.179823142598494 -2.5470466125716578 -4.497515314172034e-05 0.0 -2.666657272969381 -2.066360136071676 2.3150928656207483 -2.2484499416747035 -0.8906930128680628 -0.9421017805682581 0.0 0.0 -0.0 0.0 0.0 -0.0 0.48702749609947205 -1.6269181966781616 -1.3325763940811157 -0.4676274061203003 -0.006285377312451601 0.05645164102315903 0.23355380236242917 -1.3814192790372686 -1.5113120758317475 -0.35028305635585366 -5.827182074349958e-06 0.0 0.17468142316012936 0.4192629725370554 0.30278475771824076 -2.361299243125284 -0.014728095447896663 0.0015122427474721012 0.0 0.0 0.0 0.0 0.0 0.0 12.466929626795999 -12.208365776609288 1.418143570455129 0.2656238375465837 0.1934294645217262 0.12252726986349306 0.1746769280968488 0.4192468359229866 0.3027467533030364 -2.3613411376090006 -0.014660099016828493 0.0015352698068651608 0.0 0.0 0.0 0.0 0.0 0.0 768 30.4375 30.9375 30.375 34.625 36.8125 37.125 0.602845 7 253 253 253 253 253 253 1 -0.15322890877723694 0.05746084079146385 -10.017339706420898 0.0 1.0 0.0 47.74151611328125 47.775550842285156 0.5270481109619141 47.6995964050293 47.6279296875 47.599266052246094 47.570594787597656 47.5562629699707 47.5275993347168 3840 1
17021.165 -2.666677 -2.0663800000000005 2.3151730000000006 -2.248468 -0.8907210000000001 -0.9420859999999998 0.0 0.0 0.0 0.0 0.0 0.0 0.0 0.0 0.0 0.0 0.0 0.0 0.23354455133068822 -1.3814369272893676 -1.5113948661966279 -0.3503098182578574 -7.702190275185348e-06 0.0 2.68322941611315 -14.716650211049894 -17.18076426114661 -2.5472412089433853 -5.944677594303128e-05 0.0 -2.6666815916644495 -2.066348215142721 2.3151634375201624 -2.2484499416747035 -0.8907049337970179 -0.9420903364764612 0.0 0.0 -0.0 0.0 0.0 -0.0 0.5227733850479126 -1.6365116834640503 -1.3309720754623413 -0.4642476439476013 -0.015188080258667469 0.04616010934114456 0.23354455133068822 -1.3814369272893676 -1.5113948661966279 -0.3503098182578574 -7.702190275185348e-06 0.0 0.17468022890481794 0.4192502312793861 0.30274016856145164 -2.3613465421647137 -0.014646925921592916 0.0015845332034650022 0.0 0.0 0.0 0.0 0.0 0.0 12.36083372757415 -12.149225924921474 1.1963037533656289 0.26964454379490693 0.195174167044038 0.12166625842083979 0.1746769280968488 0.4192468359229866 0.3027467533030364 -2.3613411376090006 -0.014660099016828493 0.0015352698068651608 0.0 0.0 0.0 0.0 0.0 0.0 768 30.4375 30.9375 30.375 34.625 36.8125 37.125 0.597265 7 253 253 253 253 253 253 1 -0.09576806426048279 0.1149216815829277 -9.921571731567383 0.0 1.0 0.0 47.76838302612305 47.767486572265625 0.5180941224098206 47.68526077270508 47.6279296875 47.6995964050293 47.6279296875 47.5562629699707 47.51326370239258 3840 1
17021.184999999998 -2.666677 -2.0663800000000005 2.3151730000000006 -2.248468 -0.8907210000000001 -0.9420859999999998 0.0 0.0 0.0 0.0 0.0 0.0 0.0 0.0 0.0 0.0 0.0 0.0 0.2335806909170784 -1.381462764934568 -1.5113639252804358 -0.35029379025490703 9.57399313113603e-06 0.0 2.6836446294021594 -14.716925463273997 -17.180412540627366 -2.5471246629961 7.389365936341632e-05 0.0 -2.6666696707354944 -2.066360136071676 2.3151634375201624 -2.248486181298727 -0.890716854725973 -0.9420421759234827 0.0 0.0 -0.0 0.0 0.0 -0.0 0.5132432579994202 -1.6535154581069946 -1.2955955266952515 -0.4652261734008789 -0.011386084370315075 0.04467865824699402 0.2335806909170784 -1.381462764934568 -1.5113639252804358 -0.35029379025490703 9.57399313113603e-06 0.0 0.1746798861739338 0.4192521588640231 0.3027488012674818 -2.361334402183876 -0.014621638361157508 0.0015548017316584096 0.0 0.0 0.0 0.0 0.0 0.0 12.039494523291042 -12.337618949977795 1.1200117200530624 0.27573983313812045 0.18464486117139184 0.11515060513250233 0.1746769280968488 0.4192468359229866 0.3027467533030364 -2.3613411376090006 -0.014660099016828493 0.0015352698068651608 0.0 0.0 0.0 0.0 0.0 0.0 768 30.4375 30.9375 30.375 34.625 36.8125 37.125 0.601789 7 253 253 253 253 253 253 1 -0.15322890877723694 0.05746084079146385 -10.093954086303711 0.0 1.0 0.0 47.77644348144531 47.79793930053711 0.5270481109619141 47.6995964050293 47.6279296875 47.6279296875 47.6279296875 47.570594787597656 47.54193115234375 3840 1
17021.204999999998 -2.666677 -2.0663800000000005 2.3151730000000006 -2.248468 -0.8907210000000001 -0.9420859999999998 0.0 0.0 0.0 0.0 0.0 0.0 0.0 0.0 0.0 0.0 0.0 0.0 0.23356195657802345 -1.381394130126877 -1.5113547584423013 -0.3503042634175291 1.0332755076964177e-05 0.0 2.6834293876876463 -14.716194286600535 -17.18030833669725 -2.5472008175028495 7.974990931001464e-05 0.0 -2.6667054335223597 -2.066348215142721 2.3151405493365687 -2.248498102227682 -0.890716854725973 -0.9420540968524378 0.0 0.0 -0.0 0.0 0.0 -0.0 0.5147902965545654 -1.6617482900619507 -1.325832724571228 -0.46447452902793884 -0.02408042550086975 0.05781128257513046 0.23356195657802345 -1.381394130126877 -1.5113547584423013 -0.3503042634175291 1.0332755076964177e-05 0.0 0.17470255277234725 0.4192498857910694 0.30275926890738813 -2.3613241141993635 -0.014603405239889698 0.0015076070506533327 0.0 0.0 0.0 0.0 0.0 0.0 12.346250171101746 -12.115643549871894 1.0895125416609863 0.2711829425289503 0.196409920325706 0.11513451819475481 0.1746769280968488 0.4192468359229866 0.3027467533030364 -2.3613411376090006 -0.014660099016828493 0.0015352698068651608 0.0 0.0 0.0 0.0 0.0 0.0 768 30.4375 30.9375 30.375 34.625 36.8125 37.125 0.600061 7 253 253 253 253 253 253 1 -0.13407529890537262 0.05746084079146385 -9.940725326538086 0.0 1.0 0.0 47.737037658691406 47.76122283935547 0.5762841701507568 47.65659713745117 47.61359786987305 47.6279296875 47.599266052246094 47.54193115234375 47.498931884765625 3840 1
17021.225 -2.666677 -2.0663800000000005 2.3151730000000006 -2.248468 -0.8907210000000001 -0.9420859999999998 0.0 0.0 0.0 0.0 0.0 0.0 0.0 0.0 0.0 0.0 0.0 0.0 0.23352023315573725 -1.3813855359460512 -1.5114018599057581 -0.3503084877849892 -6.943216279665366e-06 0.0 2.6829500208457255 -14.71610273153163 -17.180843762057037 -2.547231534549062 -5.358888936190836e-05 0.0 -2.6667173544513147 -2.066336294213766 2.3151634375201624 -2.2484737835326136 -0.8907049337970179 -0.9420903364764612 0.0 0.0 -0.0 0.0 0.0 -0.0 0.5045294761657715 -1.6505316495895386 -1.30405855178833 -0.46433377265930176 -0.008883841335773468 0.0665607824921608 0.23352023315573725 -1.3813855359460512 -1.5114018599057581 -0.3503084877849892 -6.943216279665366e-06 0.0 0.1746995776894871 0.4192462632619849 0.30274009977357197 -2.3613412523971173 -0.014609911601365596 0.00155473581895567 0.0 0.0 0.0 0.0 0.0 0.0 12.394666448086303 -12.032798017006373 1.30267625999684 0.2704200154757409 0.19122055657399295 0.12032115439371766 0.1746769280968488 0.4192468359229866 0.3027467533030364 -2.3613411376090006 -0.014660099016828493 0.0015352698068651608 0.0 0.0 0.0 0.0 0.0 0.0 768 30.4375 30.9375 30.375 34.625 36.8125 37.125 0.600673 7 253 253 253 253 253 253 1 -0.15322890877723694 0.15322890877723694 -10.036493301391602 0.0 1.0 0.0 47.786293029785156 47.80778884887695 0.4979557394981384 47.7282600402832 47.65659713745117 47.6995964050293 47.64226531982422 47.61359786987305 47.570594787597656 3840 1
17021.245 -2.666677 -2.0663800000000005 2.3151730000000006 -2.248468 -0.8907210000000001 -0.9420859999999998 0.0 0.0 0.0 0.0 0.0 0.0 0.0 0.0 0.0 0.0 0.0 0.0 0.23348782467896975 -1.3814810156702455 -1.5113201636473728 -0.3502895668598684 1.3155218162865738e-06 0.0 2.6825776748513595 -14.717119891038125 -17.179915080752284 -2.547093953020749 1.015341453104722e-05 0.0 -2.6666815916644495 -2.0663839779295863 2.3151519934283655 -2.248486181298727 -0.8907406965838831 -0.9420903364764612 0.0 0.0 -0.0 0.0 0.0 -0.0 0.5176404118537903 -1.657819151878357 -1.2497824430465698 -0.46494632959365845 -0.017830336466431618 0.06302329897880554 0.23348782467896975 -1.3814810156702455 -1.5113201636473728 -0.3502895668598684 1.3155218162865738e-06 0.0 0.17468784571738283 0.4192463856412944 0.30275998181396924 -2.3613373562895914 -0.014672918607153973 0.0014717642643662186 0.0 0.0 0.0 0.0 0.0 0.0 12.34108930047315 -12.038588916725484 1.1970997399073253 0.2702872790217932 0.1926912706635157 0.1173787000512703 0.1746769280968488 0.4192468359229866 0.3027467533030364 -2.3613411376090006 -0.014660099016828493 0.0015352698068651608 0.0 0.0 0.0 0.0 0.0 0.0 768 30.4375 30.9375 30.375 34.625 36.8125 37.125 0.602004 7 253 253 253 253 253 253 1 -0.15322890877723694 0.09576806426048279 -9.940725326538086 0.0 1.0 0.0 47.76659393310547 47.77913284301758 0.4890017807483673 47.6995964050293 47.6279296875 47.65659713745117 47.61359786987305 47.570594787597656 47.51326370239258 3840 1
17021.265 -2.666677 -2.0663800000000005 2.3151730000000006 -2.248468 -0.8907210000000001 -0.9420859999999998 0.0 0.0 0.0 0.0 0.0 0.0 0.0 0.0 0.0 0.0 0.0 0.0 0.23357690916896898 -1.3814884814245056 -1.5113217745649068 -0.35029040483940976 6.940169982038281e-06 0.0 2.6836011803141218 -14.71719942481331 -17.17993339283936 -2.5471000463013502 5.356537753397071e-05 0.0 -2.6667054335223597 -2.0663958988585414 2.3151519934283655 -2.2484141788878382 -0.8907049337970179 -0.9421017805682581 0.0 0.0 -0.0 0.0 0.0 -0.0 0.49104174971580505 -1.6020644903182983 -1.3175594806671143 -0.4580761194229126 -0.016788948327302933 0.055228255689144135 0.23357690916896898 -1.3814884814245056 -1.5113217745649068 -0.35029040483940976 6.940169982038281e-06 0.0 0.17468235458830575 0.4192419641529164 0.3027569018126121 -2.3613362179781183 -0.01464224590167631 0.001542604656691123 0.0 0.0 0.0 0.0 0.0 0.0 12.37663352762441 -11.979799713187926 1.4879336650518953 0.2631230092455708 0.19687180791699893 0.12160274724859713 0.1746769280968488 0.4192468359229866 0.3027467533030364 -2.3613411376090006 -0.014660099016828493 0.0015352698068651608 0.0 0.0 0.0 0.0 0.0 0.0 768 30.4375 30.9375 30.375 34.625 36.8125 37.125 0.603588 7 253 253 253 253 253 253 1 -0.13407529890537262 0.17238251864910126 -9.979032516479492 0.0 1.0 0.0 47.7585334777832 47.79435729980469 0.5136224627494812 47.6995964050293 47.6279296875 47.670928955078125 47.65659713745117 47.61359786987305 47.5562629699707 3840 1
17021.285 -2.666677 -2.0663800000000005 2.3151730000000006 -2.248468 -0.8907210000000001 -0.9420859999999998 0.0 0.0 0.0 0.0 0.0 0.0 0.0 0.0 0.0 0.0 0.0 0.0 0.23349270536455857 -1.3816087717963588 -1.511316936757598 -0.35028438643788623 -2.0773977994056813e-06 0.0 2.6826337498018047 -14.718480895788458 -17.17987839911881 -2.547056284124061 -1.603369913149074e-05 0.0 -2.6666935125934046 -2.0663839779295863 2.3151519934283655 -2.2484499416747035 -0.8907406965838831 -0.942077938710348 0.0 0.0 -0.0 0.0 0.0 -0.0 0.5305983424186707 -1.6514097452163696 -1.2998943328857422 -0.4508427381515503 -0.004506546072661877 0.054658442735672 0.23349270536455857 -1.3816087717963588 -1.511316936757598 -0.35028438643788623 -2.0773977994056813e-06 0.0 0.17468848117312064 0.4192419995177104 0.3027537962368588 -2.3613541765142494 -0.014628485203479499 0.0015099874675960788 0.0 0.0 0.0 0.0 0.0 0.0 11.937124083786186 -12.175608233681183 1.1609749678459327 0.2707820368072249 0.18790663194339557 0.11421011999371372 0.1746769280968488 0.4192468359229866 0.3027467533030364 -2.3613411376090006 -0.014660099016828493 0.0015352698068651608 0.0 0.0 0.0 0.0 0.0 0.0 768 30.4375 30.9375 30.375 34.625 36.8125 37.125 0.5949 7 253 253 253 253 253 253 1 -0.038307227194309235 0.15322890877723694 -10.036493301391602 0.0 1.0 0.0 47.80241775512695 47.81853485107422 0.5203352570533752 47.71392822265625 47.65659713745117 47.6995964050293 47.6279296875 47.584930419921875 47.5562629699707 3840 1
17021.305 -2.666677 -2.0663800000000005 2.3151730000000006 -2.248468 -0.8907210000000001 -0.9420859999999998 0.0 0.0 0.0 0.0 0.0 0.0 0.0 0.0 0.0 0.0 0.0 0.0 0.23355202226779856 -1.3814192734549888 -1.5113783217434211 -0.35030403217738576 1.3154019751937838e-06 0.0 2.6833152508633344 -14.716462142162849 -17.18057619225956 -2.5471991360643296 1.0152489577710919e-05 0.0 -2.6667173544513147 -2.066348215142721 2.3151758352862757 -2.248486181298727 -0.890728775654928 -0.9421141783343714 0.0 0.0 -0.0 0.0 0.0 -0.0 0.457992821931839 -1.6814229488372803 -1.3200843334197998 -0.4626675248146057 -0.008559055626392365 0.05626749247312546 0.23355202226779856 -1.3814192734549888 -1.5113783217434211 -0.35030403217738576 1.3154019751937838e-06 0.0 0.17470056613477725 0.41924156943732027 0.3027361634611312 -2.361354840205393 -0.014636510889247365 0.0015139661514494505 0.0 0.0 0.0 0.0 0.0 0.0 12.523880810822767 -12.232119380993971 1.2207007674372239 0.2714722162441892 0.1965334911632952 0.12140292741023334 0.1746769280968488 0.4192468359229866 0.3027467533030364 -2.3613411376090006 -0.014660099016828493 0.0015352698068651608 0.0 0.0 0.0 0.0 0.0 0.0 768 30.4375 30.9375 30.375 34.625 36.8125 37.125 0.59502 7 253 253 253 253 253 253 1 -0.038307227194309235 0.19153612852096558 -9.998186111450195 0.0 1.0 0.0 47.71554183959961 47.73972702026367 0.5382378697395325 47.65659713745117 47.599266052246094 47.599266052246094 47.61359786987305 47.5275993347168 47.51326370239258 3840 1
17021.325 -2.666677 -2.0663800000000005 2.3151730000000006 -2.248468 -0.8907210000000001 -0.9420859999999998 0.0 0.0 0.0 0.0 0.0 0.0 0.0 0.0 0.0 0.0 0.0 0.0 0.23351115872045042 -1.3814403549781205 -1.5113207315969437 -0.35028968245780884 -1.221051708001147e-05 0.0 2.6828457632573657 -14.716686726720939 -17.179921536912687 -2.5470947935790837 -9.424278641136667e-05 0.0 -2.6667054335223597 -2.066372057000631 2.3151519934283655 -2.248486181298727 -0.890716854725973 -0.942077938710348 0.0 0.0 -0.0 0.0 0.0 -0.0 0.546558678150177 -1.6123520135879517 -1.2863909006118774 -0.45736658573150635 -0.018794972449541092 0.05589510500431061 0.23351115872045042 -1.3814403549781205 -1.5113207315969437 -0.35028968245780884 -1.221051708001147e-05 0.0 0.17469577066149125 0.41924637401231857 0.30275922480047956 -2.361323779012625 -0.01463171054263971 0.0014954651468394426 0.0 0.0 0.0 0.0 0.0 0.0 12.40568330400305 -12.112899329232146 1.1232356356622555 0.27348316787787036 0.19720943779651554 0.12283835069071546 0.1746769280968488 0.4192468359229866 0.3027467533030364 -2.3613411376090006 -0.014660099016828493 0.0015352698068651608 0.0 0.0 0.0 0.0 0.0 0.0 768 30.4375 30.9375 30.375 34.625 36.8125 37.125 0.596316 7 253 253 253 253 253 253 1 0.0 0.09576806426048279 -10.074800491333008 0.0 1.0 0.0 47.80152130126953 47.79435729980469 0.5919508934020996 47.6995964050293 47.65659713745117 47.68526077270508 47.65659713745117 47.61359786987305 47.54193115234375 3840 1
17021.344999999998 -2.666677 -2.0663800000000005 2.3151730000000006 -2.248468 -0.8907210000000001 -0.9420859999999998 0.0 0.0 0.0 0.0 0.0 0.0 0.0 0.0 0.0 0.0 0.0 0.0 0.23356807038240385 -1.3814440255111275 -1.5113076896725801 -0.350282332673027 5.563123330669773e-07 0.0 2.6834996301303167 -14.716725829447448 -17.179773282983145 -2.5470413503876648 4.293710416986777e-06 0.0 -2.6666935125934046 -2.066348215142721 2.3151405493365687 -2.2484499416747035 -0.890716854725973 -0.9421017805682581 0.0 0.0 -0.0 0.0 0.0 -0.0 0.5073931813240051 -1.6395221948623657 -1.2847867012023926 -0.45521408319473267 -0.010706763714551926 0.04345022886991501 0.23356807038240385 -1.3814440255111275 -1.5113076896725801 -0.350282332673027 5.563123330669773e-07 0.0 0.17469175760464284 0.4192489069523006 0.3027510487976094 -2.361345781606683 -0.014652885251332 0.0015407340847983628 0.0 0.0 0.0 0.0 0.0 0.0 12.192886739667493 -12.180156566924316 1.1588025284612042 0.27670601615836243 0.18612806531249618 0.11695079802591915 0.1746769280968488 0.4192468359229866 0.3027467533030364 -2.3613411376090006 -0.014660099016828493 0.0015352698068651608 0.0 0.0 0.0 0.0 0.0 0.0 768 30.4375 30.9375 30.375 34.625 36.8125 37.125 0.594696 7 253 253 253 253 253 253 1 -0.2298433631658554 0.15322890877723694 -9.959878921508789 0.0 1.0 0.0 47.736141204833984 47.76838302612305 0.5337609052658081 47.68526077270508 47.6279296875 47.61359786987305 47.6279296875 47.5562629699707 47.51326370239258 3840 1
17021.364999999998 -2.666677 -2.0663800000000005 2.3151730000000006 -2.248468 -0.8907210000000001 -0.9420859999999998 0.0 0.0 0.0 0.0 0.0 0.0 0.0 0.0 0.0 0.0 0.0 0.0 0.2335516267374345 -1.3814232287428074 -1.5113157773346089 -0.35028884297451357 -1.0335687574294424e-05 0.0 2.6833107065539004 -14.716504278424132 -17.17986521939093 -2.5470886893640934 -7.97725428084763e-05 0.0 -2.666741196309225 -2.0663839779295863 2.3151519934283655 -2.2484499416747035 -0.890728775654928 -0.942077938710348 0.0 0.0 -0.0 0.0 0.0 -0.0 0.5065460205078125 -1.6406351327896118 -1.3147118091583252 -0.4647786617279053 -0.02251221239566803 0.057655081152915955 0.2335516267374345 -1.3814232287428074 -1.5113157773346089 -0.35028884297451357 -1.0335687574294424e-05 0.0 0.174706694070277 0.4192353640918661 0.302755486755383 -2.361344884900067 -0.01457554215114797 0.001495187263248996 0.0 0.0 0.0 0.0 0.0 0.0 12.26350253599752 -12.074830657455387 1.2268216502915719 0.2756632920224587 0.19270623983745044 0.11624509739974734 0.1746769280968488 0.4192468359229866 0.3027467533030364 -2.3613411376090006 -0.014660099016828493 0.0015352698068651608 0.0 0.0 0.0 0.0 0.0 0.0 768 30.4375 30.9375 30.375 34.625 36.8125 37.125 0.603684 7 253 253 253 253 253 253 1 -0.1149216815829277 0.13407529890537262 -9.921571731567383 0.0 1.0 0.0 47.736141204833984 47.75584411621094 0.5449506640434265 47.65659713745117 47.599266052246094 47.6279296875 47.599266052246094 47.54193115234375 47.498931884765625 3840 1
17021.385 -2.666677 -2.0663800000000005 2.3151730000000006 -2.248468 -0.8907210000000001 -0.9420859999999998 0.0 0.0 0.0 0.0 0.0 0.0 0.0 0.0 0.0 0.0 0.0 0.0 0.2334789819772841 -1.3814417217080308 -1.5113109171875294 -0.3502875131181334 -5.593212157642948e-07 0.0 2.68247607968613 -14.716701286695143 -17.179809971723284 -2.5470790194524975 -4.316933470320395e-06 0.0 -2.6667054335223597 -2.066372057000631 2.3151281515704554 -2.2484623394408167 -0.890716854725973 -0.9420540968524378 0.0 0.0 -0.0 0.0 0.0 -0.0 0.5059812664985657 -1.660464882850647 -1.2964699268341064 -0.46929359436035156 -0.007201114669442177 0.05870956927537918 0.2334789819772841 -1.3814417217080308 -1.5113109171875294 -0.3502875131181334 -5.593212157642948e-07 0.0 0.174697851272869 0.419247413218401 0.3027682502661092 -2.3613240959239516 -0.014603507763270981 0.0015069226303756967 0.0 0.0 0.0 0.0 0.0 0.0 12.462823469887253 -12.013869459294092 1.2047634840897077 0.2674770742237076 0.19290983939398293 0.12001629563657329 0.1746769280968488 0.4192468359229866 0.3027467533030364 -2.3613411376090006 -0.014660099016828493 0.0015352698068651608 0.0 0.0 0.0 0.0 0.0 0.0 768 30.4375 30.9375 30.375 34.625 36.8125 37.125 0.598668 7 253 253 253 253 253 253 1 -0.09576806426048279 0.13407529890537262 -9.90241813659668 0.0 1.0 0.0 47.77286148071289 47.796146392822266 0.4979557394981384 47.68526077270508 47.64226531982422 47.61359786987305 47.61359786987305 47.5562629699707 47.5562629699707 3840 1
17021.405 -2.666677 -2.0663800000000005 2.3151730000000006 -2.248468 -0.8907210000000001 -0.9420859999999998 0.0 0.0 0.0 0.0 0.0 0.0 0.0 0.0 0.0 0.0 0.0 0.0 0.23358197309378173 -1.3814218557974582 -1.5113918378497875 -0.350311988105028 -1.5025067403444455e-05 0.0 2.6836593605283086 -14.716489652235946 -17.180729836447725 -2.547256986760169 -0.0001159659504049335 0.0 -2.6667054335223597 -2.066372057000631 2.3151519934283655 -2.248486181298727 -0.890716854725973 -0.9421141783343714 0.0 0.0 -0.0 0.0 0.0 -0.0 0.5067800879478455 -1.664283275604248 -1.3070573806762695 -0.46431636810302734 -0.028772836551070213 0.053638756275177 0.23358197309378173 -1.3814218557974582 -1.5113918378497875 -0.350311988105028 -1.5025067403444455e-05 0.0 0.17469577066149125 0.41924637401231857 0.30275922480047956 -2.361323501762237 -0.014674497210258222 0.0014778715181635329 0.0 0.0 0.0 0.0 0.0 0.0 12.503400820317855 -11.956442323332636 1.2057145927130941 0.2657734150173723 0.19429528787187605 0.12418037921623049 0.1746769280968488 0.4192468359229866 0.3027467533030364 -2.3613411376090006 -0.014660099016828493 0.0015352698068651608 0.0 0.0 0.0 0.0 0.0 0.0 768 30.4375 30.9375 30.375 34.625 36.8125 37.125 0.60132 7 253 253 253 253 253 253 1 -0.07661445438861847 0.17238251864910126 -9.998186111450195 0.0 1.0 0.0 47.73524856567383 47.756744384765625 0.5539045929908752 47.65659713745117 47.61359786987305 47.599266052246094 47.584930419921875 47.5562629699707 47.48460006713867 3840 1
17021.425 -2.666677 -2.0663800000000005 2.3151730000000006 -2.248468 -0.8907210000000001 -0.9420859999999998 0.0 0.0 0.0 0.0 0.0 0.0 0.0 0.0 0.0 0.0 0.0 0.0 0.2335194815293099 -1.3815001987244782 -1.5113492368226686 -0.3503033086528875 7.699009961307946e-06 0.0 2.682941385293629 -14.717324250928574 -17.180245569747747 -2.547193875031605 5.942222975555164e-05 0.0 -2.6667173544513147 -2.066372057000631 2.3151519934283655 -2.2484623394408167 -0.8907049337970179 -0.9420903364764612 0.0 0.0 -0.0 0.0 0.0 -0.0 0.5436901450157166 -1.637338638305664 -1.3303123712539673 -0.4644353985786438 -0.014147499576210976 0.05233800411224365 0.2335194815293099 -1.3815001987244782 -1.5113492368226686 -0.3503033086528875 7.699009961307946e-06 0.0 0.17469612054953373 0.41924447073488164 0.3027568459670639 -2.3613250914586783 -0.014625286231154722 0.001517002124482102 0.0 0.0 0.0 0.0 0.0 0.0 12.338230010340062 -11.974375532668969 1.1138643567818232 0.27094203438506126 0.19230839434464986 0.12119601323184238 0.1746769280968488 0.4192468359229866 0.3027467533030364 -2.3613411376090006 -0.014660099016828493 0.0015352698068651608 0.0 0.0 0.0 0.0 0.0 0.0 768 30.4375 30.9375 30.375 34.625 36.8125 37.125 0.598788 7 253 253 253 253 253 253 1 0.019153613597154617 0.15322890877723694 -10.055646896362305 0.0 1.0 0.0 47.79166793823242 47.80509948730469 0.5225711464881897 47.7282600402832 47.670928955078125 47.670928955078125 47.65659713745117 47.599266052246094 47.570594787597656 3840 1
17021.445 -2.666677 -2.0663800000000005 2.3151730000000006 -2.248468 -0.8907210000000001 -0.9420859999999998 0.0 0.0 0.0 0.0 0.0 0.0 0.0 0.0 0.0 0.0 0.0 0.0 0.2335691436361101 -1.3814168237253666 -1.5113484484207915 -0.3503005315804708 -1.0335655349680573e-05 0.0 2.683511960907888 -14.716436044833866 -17.180236607598218 -2.547173681839946 -7.977229409358727e-05 0.0 -2.6666935125934046 -2.0663839779295863 2.3151634375201624 -2.2484623394408167 -0.8907049337970179 -0.9421017805682581 0.0 0.0 -0.0 0.0 0.0 -0.0 0.527524471282959 -1.6494996547698975 -1.3217154741287231 -0.4675876498222351 -0.020178847014904022 0.061047621071338654 0.2335691436361101 -1.3814168237253666 -1.5113484484207915 -0.3503005315804708 -1.0335655349680573e-05 0.0 0.17468226325654534 0.4192466455074627 0.3027546984251027 -2.3613246187527985 -0.014667141447991423 0.0015225156128052168 0.0 0.0 0.0 0.0 0.0 0.0 12.434566595955623 -12.187859083254548 1.098440301117325 0.27443938589941386 0.1949445472898162 0.12320102357810983 0.1746769280968488 0.4192468359229866 0.3027467533030364 -2.3613411376090006 -0.014660099016828493 0.0015352698068651608 0.0 0.0 0.0 0.0 0.0 0.0 768 30.4375 30.9375 30.375 34.625 36.8125 37.125 0.602928 7 253 253 253 253 253 253 1 -0.2106897532939911 0.13407529890537262 -10.055646896362305 0.0 1.0 0.0 47.748680114746094 47.7639045715332 0.5337609052658081 47.65659713745117 47.61359786987305 47.6279296875 47.599266052246094 47.5562629699707 47.498931884765625 3840 1
17021.465 -2.666677 -2.0663800000000005 2.3151730000000006 -2.248468 -0.8907210000000001 -0.9420859999999998 0.0 0.0 0.0 0.0 0.0 0.0 0.0 0.0 0.0 0.0 0.0 0.0 0.2335127616469234 -1.3814443045443154 -1.511324432969218 -0.3502954688723208 -3.193127916683578e-06 0.0 2.682864179527151 -14.716728802028927 -17.179963612220675 -2.547136868887079 -2.46450883500095e-05 0.0 -2.6666815916644495 -2.0663839779295863 2.3151405493365687 -2.2484623394408167 -0.8906930128680628 -0.9420903364764612 0.0 0.0 -0.0 0.0 0.0 -0.0 0.487077921628952 -1.6327723264694214 -1.272830843925476 -0.46038374304771423 -0.015422179363667965 0.05465593934059143 0.2335127616469234 -1.3814443045443154 -1.511324432969218 -0.3502954688723208 -3.193127916683578e-06 0.0 0.17468023980117817 0.41925287511246334 0.302768960055134 -2.361304617949984 -0.014680938221673984 0.0015181004544160739 0.0 0.0 0.0 0.0 0.0 0.0 12.290145054678696 -11.943408538012035 1.393359977714252 0.2662745386664146 0.19348393168271294 0.11958266769386802 0.1746769280968488 0.4192468359229866 0.3027467533030364 -2.3613411376090006 -0.014660099016828493 0.0015352698068651608 0.0 0.0 0.0 0.0 0.0 0.0 768 30.4375 30.9375 30.375 34.625 36.8125 37.125 0.59976 7 253 253 253 253 253 253 1 -0.05746084079146385 0.15322890877723694 -9.921571731567383 0.0 1.0 0.0 47.76659393310547 47.78898239135742 0.5337609052658081 47.68526077270508 47.6279296875 47.65659713745117 47.61359786987305 47.570594787597656 47.498931884765625 3840 1
17021.485 -2.666677 -2.0663800000000005 2.3151730000000006 -2.248468 -0.8907210000000001 -0.9420859999999998 0.0 0.0 0.0 0.0 0.0 0.0 0.0 0.0 0.0 0.0 0.0 0.0 0.23359422636891775 -1.381470345618255 -1.5113434523899172 -0.350304986533786 -6.585839487281194e-06 0.0 2.683800140298598 -14.717006221409225 -17.18017981527305 -2.54720607556709 -5.083059628616507e-05 0.0 -2.6666815916644495 -2.0663958988585414 2.3151634375201624 -2.2484623394408167 -0.8907049337970179 -0.9420660177813929 0.0 0.0 -0.0 0.0 0.0 -0.0 0.5067257881164551 -1.5957778692245483 -1.3172414302825928 -0.470173180103302 -0.018204202875494957 0.06365358084440231 0.23359422636891775 -1.381470345618255 -1.5113434523899172 -0.350304986533786 -6.585839487281194e-06 0.0 0.17467578004855952 0.41924796395274844 0.30275883634341805 -2.3613194005065687 -0.014644125765705694 0.0015331061804697516 0.0 0.0 0.0 0.0 0.0 0.0 12.28835067770229 -12.258550244648536 1.1433440631069853 0.27893616855037123 0.1931779501243156 0.11465817918799014 0.1746769280968488 0.4192468359229866 0.3027467533030364 -2.3613411376090006 -0.014660099016828493 0.0015352698068651608 0.0 0.0 0.0 0.0 0.0 0.0 768 30.4375 30.9375 30.375 34.625 36.8125 37.125 0.601477 7 253 253 253 253 253 253 1 -0.17238253355026245 0.15322890877723694 -9.940725326538086 0.0 1.0 0.0 47.76569747924805 47.793460845947266 0.5471917986869812 47.670928955078125 47.6279296875 47.61359786987305 47.64226531982422 47.570594787597656 47.5275993347168 3840 1
17021.505 -2.666677 -2.0663800000000005 2.3151730000000006 -2.248468 -0.8907210000000001 -0.9420859999999998 0.0 0.0 0.0 0.0 0.0 0.0 0.0 0.0 0.0 0.0 0.0 0.0 0.23358834115964242 -1.3815701128045148 -1.5113420188410678 -0.3502974926477732 -1.177816241229821e-05 0.0 2.683732524220391 -14.71806905587797 -17.180163519422518 -2.5471515845586397 -9.09058017172492e-05 0.0 -2.6667173544513147 -2.066348215142721 2.3151634375201624 -2.248498102227682 -0.890728775654928 -0.9420660177813929 0.0 0.0 -0.0 0.0 0.0 -0.0 0.5268295407295227 -1.6660934686660767 -1.286576747894287 -0.4627658724784851 -0.02323903702199459 0.07451102882623672 0.23358834115964242 -1.3815701128045148 -1.5113420188410678 -0.3502974926477732 -1.177816241229821e-05 0.0 0.1747045757492378 0.41924365576441414 0.3027450073703131 -2.3613441111962525 -0.01459017107958798 0.0015117908667847404 0.0 0.0 0.0 0.0 0.0 0.0 12.41034794584226 -11.807046069957044 1.3499422808880261 0.2650792480599937 0.19105617606754818 0.12216493770426833 0.1746769280968488 0.4192468359229866 0.3027467533030364 -2.3613411376090006 -0.014660099016828493 0.0015352698068651608 0.0 0.0 0.0 0.0 0.0 0.0 768 30.4375 30.9375 30.375 34.625 36.8125 37.125 0.597841 7 253 253 253 253 253 253 1 -0.07661445438861847 0.17238251864910126 -9.940725326538086 0.0 1.0 0.0 47.73883056640625 47.762115478515625 0.5248122811317444 47.68526077270508 47.584930419921875 47.6279296875 47.61359786987305 47.5562629699707 47.5275993347168 3840 1
17021.524999999998 -2.666677 -2.0663800000000005 2.3151730000000006 -2.248468 -0.8907210000000001 -0.9420859999999998 0.0 0.0 0.0 0.0 0.0 0.0 0.0 0.0 0.0 0.0 0.0 0.0 0.23363347250614783 -1.381369633804033 -1.5113539940625214 -0.3502967991066721 -8.4607117706524e-06 0.0 2.684251045229946 -14.715933323680238 -17.180299647618643 -2.547146541547052 -6.530117005405156e-05 0.0 -2.6666696707354944 -2.0663839779295863 2.3151634375201624 -2.2484623394408167 -0.8907049337970179 -0.9421017805682581 0.0 0.0 -0.0 0.0 0.0 -0.0 0.4667569696903229 -1.621953010559082 -1.3317049741744995 -0.4643794894218445 -0.022885918617248535 0.06027805060148239 0.23363347250614783 -1.381369633804033 -1.5113539940625214 -0.3502967991066721 -8.4607117706524e-06 0.0 0.1746722675879118 0.41925081013798515 0.3027546984251027 -2.3613244516783136 -0.014695290679376962 0.0015340903561278521 0.0 0.0 0.0 0.0 0.0 0.0 12.32760211661678 -12.148800342832729 1.2464215742465328 0.268447248742666 0.19215677603401396 0.1180260570608683 0.1746769280968488 0.4192468359229866 0.3027467533030364 -2.3613411376090006 -0.014660099016828493 0.0015352698068651608 0.0 0.0 0.0 0.0 0.0 0.0 768 30.4375 30.9375 30.375 34.625 36.8125 37.125 0.604069 7 253 253 253 253 253 253 1 -0.05746084079146385 0.13407528400421143 -10.036493301391602 0.0 1.0 0.0 47.78450393676758 47.80778884887695 0.5404736995697021 47.71392822265625 47.65659713745117 47.6995964050293 47.64226531982422 47.584930419921875 47.5562629699707 3840 1
17021.545 -2.666677 -2.0663800000000005 2.3151730000000006 -2.248468 -0.8907210000000001 -0.9420859999999998 0.0 0.0 0.0 0.0 0.0 0.0 0.0 0.0 0.0 0.0 0.0 0.0 0.23356028228136255 -1.3813279134604706 -1.511320280589559 -0.3502843886079424 8.457972378812427e-06 0.0 2.6834101514347504 -14.715488870740863 -17.17991641009128 -2.5470562999033977 6.528002697563974e-05 0.0 -2.6667054335223597 -2.0663839779295863 2.3151758352862757 -2.2484737835326136 -0.8907406965838831 -0.9421017805682581 0.0 0.0 -0.0 0.0 0.0 -0.0 0.5151368379592896 -1.631778597831726 -1.328537106513977 -0.4624362289905548 -0.031024694442749023 0.07299800217151642 0.23356028228136255 -1.3813279134604706 -1.511320280589559 -0.3502843886079424 8.457972378812427e-06 0.0 0.17469139820762628 0.4192388777846713 0.3027447707982488 -2.3613539427216974 -0.014642613549612403 0.001492743129863445 0.0 0.0 0.0 0.0 0.0 0.0 12.557589296890981 -12.211699415194161 1.2608846128833546 0.27248070925992096 0.1949823276289571 0.12235972909483356 0.1746769280968488 0.4192468359229866 0.3027467533030364 -2.3613411376090006 -0.014660099016828493 0.0015352698068651608 0.0 0.0 0.0 0.0 0.0 0.0 768 30.4375 30.9375 30.375 34.625 36.8125 37.125 0.597685 7 253 253 253 253 253 253 1 -0.07661445438861847 0.038307227194309235 -9.883264541625977 0.0 1.0 0.0 47.71733474731445 47.756744384765625 0.5561404824256897 47.65659713745117 47.584930419921875 47.599266052246094 47.599266052246094 47.5562629699707 47.51326370239258 3840 1
17021.565 -2.666677 -2.0663800000000005 2.3151730000000006 -2.248468 -0.8907210000000001 -0.9420859999999998 0.0 0.0 0.0 0.0 0.0 0.0 0.0 0.0 0.0 0.0 0.0 0.0 0.23359252940048356 -1.3813888138731847 -1.5113608723066505 -0.35030064730518057 -1.0335657174986823e-05 0.0 2.6837806435661977 -14.716137651770179 -17.180377835981957 -2.547174523320071 -7.977230818160221e-05 0.0 -2.6667054335223597 -2.066360136071676 2.3151405493365687 -2.2484260998167933 -0.8907406965838831 -0.942077938710348 0.0 0.0 -0.0 0.0 0.0 -0.0 0.46243640780448914 -1.6380603313446045 -1.2745856046676636 -0.45832559466362 -0.025131387636065483 0.06985801458358765 0.23359252940048356 -1.3813888138731847 -1.5113608723066505 -0.35030064730518057 -1.0335657174986823e-05 0.0 0.17469595585720138 0.4192411554240089 0.3027477364257115 -2.3613708350549794 -0.014598739805151207 0.0015422596069663429 0.0 0.0 0.0 0.0 0.0 0.0 12.323516521140442 -12.06071240550898 1.1570290360087396 0.2701742288993233 0.19251805519057175 0.11713117844516575 0.1746769280968488 0.4192468359229866 0.3027467533030364 -2.3613411376090006 -0.014660099016828493 0.0015352698068651608 0.0 0.0 0.0 0.0 0.0 0.0 768 30.4375 30.9375 30.375 34.625 36.8125 37.125 0.596964 7 253 253 253 253 253 253 1 -0.07661445438861847 0.1149216815829277 -10.017339706420898 0.0 1.0 0.0 47.749576568603516 47.76301193237305 0.5650944113731384 47.65659713745117 47.6279296875 47.61359786987305 47.599266052246094 47.54193115234375 47.51326370239258 3840 1
17021.585 -2.666677 -2.0663800000000005 2.3151730000000006 -2.248468 -0.8907210000000001 -0.9420859999999998 0.0 0.0 0.0 0.0 0.0 0.0 0.0 0.0 0.0 0.0 0.0 0.0 0.23351077105558493 -1.3814549018749454 -1.5113343643550547 -0.35029246002293185 1.3155504081787234e-06 0.0 2.68284130931586 -14.716841696946506 -17.180076507138253 -2.5471149903534047 1.0153635207990488e-05 0.0 -2.6666696707354944 -2.066372057000631 2.3151405493365687 -2.248486181298727 -0.890716854725973 -0.9420660177813929 0.0 0.0 -0.0 0.0 0.0 -0.0 0.47348257899284363 -1.6184831857681274 -1.3214869499206543 -0.4586944282054901 -0.031548209488391876 0.06493499130010605 0.23351077105558493 -1.3814549018749454 -1.5113343643550547 -0.35029246002293185 1.3155504081787234e-06 0.0 0.1746831533385399 0.4192538476919157 0.3027655103576421 -2.3613184294188314 -0.01466479869909167 0.0015065611644592002 0.0 0.0 0.0 0.0 0.0 0.0 12.164900142771138 -12.029763678018844 1.3811988069030825 0.265218461385844 0.19037221645872146 0.11512239575287456 0.1746769280968488 0.4192468359229866 0.3027467533030364 -2.3613411376090006 -0.014660099016828493 0.0015352698068651608 0.0 0.0 0.0 0.0 0.0 0.0 768 30.4375 30.9375 30.375 34.625 36.8125 37.125 0.59406 7 253 253 253 253 253 253 1 -0.15322890877723694 0.07661445438861847 -9.959878921508789 0.0 1.0 0.0 47.77375411987305 47.788089752197266 0.5158582925796509 47.68526077270508 47.64226531982422 47.6279296875 47.61359786987305 47.570594787597656 47.51326370239258 3840 1
17021.605 -2.666677 -2.0663800000000005 2.3151730000000006 -2.248468 -0.8907210000000001 -0.9420859999999998 0.0 0.0 0.0 0.0 0.0 0.0 0.0 0.0 0.0 0.0 0.0 0.0 0.23355249846609866 -1.3814172198525783 -1.5113763971910403 -0.35030102349384984 1.3154810180458398e-06 0.0 2.683320721979143 -14.716440264835155 -17.180554314931868 -2.547177258736639 1.0153099643490678e-05 0.0 -2.6666815916644495 -2.066360136071676 2.3151519934283655 -2.248486181298727 -0.8907049337970179 -0.9420903364764612 0.0 0.0 -0.0 0.0 0.0 -0.0 0.527266800403595 -1.6274080276489258 -1.3225339651107788 -0.4744423031806946 -0.027561217546463013 0.0755673423409462 0.23355249846609866 -1.3814172198525783 -1.5113763971910403 -0.35030102349384984 1.3154810180458398e-06 0.0 0.1746854823496328 0.41925299754726153 0.30275677732176165 -2.361319302024622 -0.01467271986252356 0.0015219288031137978 0.0 0.0 0.0 0.0 0.0 0.0 12.164552117056143 -12.281434023995391 1.083308145446762 0.27994811354891863 0.18743482202363843 0.11610200935624414 0.1746769280968488 0.4192468359229866 0.3027467533030364 -2.3613411376090006 -0.014660099016828493 0.0015352698068651608 0.0 0.0 0.0 0.0 0.0 0.0 768 30.4375 30.9375 30.375 34.625 36.8125 37.125 0.598572 7 253 253 253 253 253 253 1 -0.038307227194309235 0.17238251864910126 -9.921571731567383 0.0 1.0 0.0 47.744205474853516 47.777339935302734 0.5941867828369141 47.68526077270508 47.6279296875 47.6279296875 47.6279296875 47.5562629699707 47.51326370239258 3840 1
17021.625 -2.666677 -2.0663800000000005 2.3151730000000006 -2.248468 -0.8907210000000001 -0.9420859999999998 0.0 0.0 0.0 0.0 0.0 0.0 0.0 0.0 0.0 0.0 0.0 0.0 0.23365021817666434 -1.3813923190139368 -1.5114139274080336 -0.3503140408185019 1.8590911791032874e-05 0.0 2.684443438824515 -14.716174992548734 -17.180980939254376 -2.5472719128515275 0.00014348772600162677 0.0 -2.66672927538027 -2.066372057000631 2.315188233052389 -2.2484623394408167 -0.890716854725973 -0.9420903364764612 0.0 0.0 -0.0 0.0 0.0 -0.0 0.48475730419158936 -1.6083793640136719 -1.3090108633041382 -0.4722086787223816 -0.026745928451418877 0.06893600523471832 0.23365021817666434 -1.3813923190139368 -1.5114139274080336 -0.3503140408185019 1.8590911791032874e-05 0.0 0.17469537081985353 0.41923681014396874 0.30273525145334773 -2.361351234342789 -0.014592215384138813 0.001541036639236474 0.0 0.0 0.0 0.0 0.0 0.0 12.091800373661115 -12.158935750953042 1.1792653201333403 0.27392710906214196 0.1889248055036103 0.11369017091186805 0.1746769280968488 0.4192468359229866 0.3027467533030364 -2.3613411376090006 -0.014660099016828493 0.0015352698068651608 0.0 0.0 0.0 0.0 0.0 0.0 768 30.4375 30.9375 30.375 34.625 36.8125 37.125 0.59718 7 253 253 253 253 253 253 1 -0.15322890877723694 0.07661445438861847 -9.883264541625977 0.0 1.0 0.0 47.780025482177734 47.79256820678711 0.5136224627494812 47.71392822265625 47.65659713745117 47.65659713745117 47.64226531982422 47.570594787597656 47.5275993347168 3840 1
17021.645 -2.666677 -2.0663800000000005 2.3151730000000006 -2.248468 -0.8907210000000001 -0.9420859999999998 0.0 0.0 0.0 0.0 0.0 0.0 0.0 0.0 0.0 0.0 0.0 0.0 0.23352863601402626 -1.3814472835312614 -1.511365898214481 -0.35030391645978387 1.3154055409361657e-06 0.0 2.683046562582246 -14.716760537613808 -17.180434967933092 -2.547198294635889 1.015251709869922e-05 0.0 -2.6666696707354944 -2.066348215142721 2.3151405493365687 -2.2484737835326136 -0.8907406965838831 -0.942077938710348 0.0 0.0 -0.0 0.0 0.0 -0.0 0.4787850081920624 -1.6273610591888428 -1.2296861410140991 -0.46176785230636597 -0.027244113385677338 0.05857595056295395 0.23352863601402626 -1.3814472835312614 -1.511365898214481 -0.35030391645978387 1.3154055409361657e-06 0.0 0.1746881879260148 0.41925119804394134 0.30275173705566094 -2.3613540976914327 -0.014656516841824736 0.001522190801397071 0.0 0.0 0.0 0.0 0.0 0.0 12.330336471834187 -12.163990772738792 1.2723745862830365 0.2730156687587961 0.19431652749217984 0.11917071228713708 0.1746769280968488 0.4192468359229866 0.3027467533030364 -2.3613411376090006 -0.014660099016828493 0.0015352698068651608 0.0 0.0 0.0 0.0 0.0 0.0 768 30.4375 30.9375 30.375 34.625 36.8125 37.125 0.599388 7 253 253 253 253 253 253 1 -0.05746084079146385 0.07661445438861847 -9.921571731567383 0.0 1.0 0.0 47.72629165649414 47.75942611694336 0.5494276285171509 47.65659713745117 47.599266052246094 47.599266052246094 47.599266052246094 47.5562629699707 47.498931884765625 3840 1
17021.665 -2.666677 -2.0663800000000005 2.3151730000000006 -2.248468 -0.8907210000000001 -0.9420859999999998 0.0 0.0 0.0 0.0 0.0 0.0 0.0 0.0 0.0 0.0 0.0 0.0 0.2336003817024094 -1.3813543939657693 -1.5113948661000605 -0.3503098181068933 -3.1935100986766133e-06 0.0 2.6838708598756407 -14.715770971447885 -17.18076426004888 -2.547241207845666 -2.464803809371846e-05 0.0 -2.6666815916644495 -2.066372057000631 2.3151634375201624 -2.2484623394408167 -0.890728775654928 -0.9420660177813929 0.0 0.0 -0.0 0.0 0.0 -0.0 0.5006177425384521 -1.60218346118927 -1.3082406520843506 -0.4588647782802582 -0.030791137367486954 0.05991331487894058 0.2336003817024094 -1.3813543939657693 -1.5113948661000605 -0.3503098181068933 -3.1935100986766133e-06 0.0 0.1746823067864177 0.41924610230697446 0.30274717935594675 -2.3613494665363213 -0.014627147336392905 0.0015415263359902327 0.0 0.0 0.0 0.0 0.0 0.0 12.436848357087625 -12.046396277271471 1.26513509097465 0.26957733424804586 0.19206491943676357 0.1179008739564445 0.1746769280968488 0.4192468359229866 0.3027467533030364 -2.3613411376090006 -0.014660099016828493 0.0015352698068651608 0.0 0.0 0.0 0.0 0.0 0.0 768 30.4375 30.9375 30.375 34.625 36.8125 37.125 0.596076 7 253 253 253 253 253 253 1 -0.09576806426048279 0.19153612852096558 -10.055646896362305 0.0 1.0 0.0 47.751365661621094 47.77644348144531 0.5136224627494812 47.68526077270508 47.61359786987305 47.64226531982422 47.6279296875 47.5275993347168 47.51326370239258 3840 1
17021.684999999998 -2.666677 -2.0663800000000005 2.3151730000000006 -2.248468 -0.8907210000000001 -0.9420859999999998 0.0 0.0 0.0 0.0 0.0 0.0 0.0 0.0 0.0 0.0 0.0 0.0 0.23355783430184426 -1.3813901810540825 -1.5113510575324216 -0.35029847772588785 -7.701834664860857e-06 0.0 2.683382026220028 -14.716152216548815 -17.180266266645532 -2.547158747451133 -5.944403128384632e-05 0.0 -2.6666815916644495 -2.066336294213766 2.3151281515704554 -2.248486181298727 -0.890728775654928 -0.9420903364764612 0.0 0.0 -0.0 0.0 0.0 -0.0 0.4568069279193878 -1.5892339944839478 -1.2940032482147217 -0.4681936502456665 -0.029833951964974403 0.07516653835773468 0.23355783430184426 -1.3813901810540825 -1.5113510575324216 -0.35029847772588785 -7.701834664860857e-06 0.0 0.17469695988538347 0.419253690891047 0.30275821483754656 -2.3613385546417613 -0.014666031010058266 0.0015052374731321179 0.0 0.0 0.0 0.0 0.0 0.0 12.3189284647996 -12.243922233528934 1.253510701675971 0.27380948964743407 0.19449079953800197 0.11718272211255729 0.1746769280968488 0.4192468359229866 0.3027467533030364 -2.3613411376090006 -0.014660099016828493 0.0015352698068651608 0.0 0.0 0.0 0.0 0.0 0.0 768 30.4375 30.9375 30.375 34.625 36.8125 37.125 0.595728 7 253 253 253 253 253 253 1 -0.09576806426048279 0.1149216815829277 -9.921571731567383 0.0 1.0 0.0 47.79256820678711 47.81853485107422 0.5382378697395325 47.68526077270508 47.599266052246094 47.6279296875 47.6279296875 47.570594787597656 47.54193115234375 3840 1
17021.704999999998 -2.666677 -2.0663800000000005 2.3151730000000006 -2.248468 -0.8907210000000001 -0.9420859999999998 0.0 0.0 0.0 0.0 0.0 0.0 0.0 0.0 0.0 0.0 0.0 0.0 0.23350300679897407 -1.381403798530393 -1.511314050446268 -0.3502931836783017 -9.57663870413659e-06 0.0 2.682752104572637 -14.716297285521321 -17.179845589007 -2.5471202523377485 -7.39140783325389e-05 0.0 -2.6666935125934046 -2.066372057000631 2.3151758352862757 -2.2484499416747035 -0.890728775654928 -0.942077938710348 0.0 0.0 -0.0 0.0 0.0 -0.0 0.4965580403804779 -1.6619397401809692 -1.343451976776123 -0.4581243395805359 -0.021706420928239822 0.058822423219680786 0.23350300679897407 -1.381403798530393 -1.511314050446268 -0.3502931836783017 -9.57663870413659e-06 0.0 0.1746832376655477 0.4192419031946769 0.30273825407208066 -2.3613607744475646 -0.014616418425748276 0.001556007334326021 0.0 0.0 0.0 0.0 0.0 0.0 12.374274423198957 -12.30750591987022 1.203722089041774 0.27402224556139154 0.1929673028573894 0.11866916600023206 0.1746769280968488 0.4192468359229866 0.3027467533030364 -2.3613411376090006 -0.014660099016828493 0.0015352698068651608 0.0 0.0 0.0 0.0 0.0 0.0 768 30.4375 30.9375 30.375 34.625 36.8125 37.125 0.595932 7 253 253 253 253 253 253 1 -0.17238251864910126 0.15322890877723694 -9.921571731567383 0.0 1.0 0.0 47.72270965576172 47.745994567871094 0.5650944113731384 47.65659713745117 47.584930419921875 47.61359786987305 47.599266052246094 47.54193115234375 47.498931884765625 3840 1
17021.725 -2.666677 -2.0663800000000005 2.3151730000000006 -2.248468 -0.8907210000000001 -0.9420859999999998 0.0 0.0 0.0 0.0 0.0 0.0 0.0 0.0 0.0 0.0 0.0 0.0 0.23356640245888813 -1.3815215252013926 -1.5113527418442376 -0.35030174615029513 2.431571660144803e-06 0.0 2.68348046709947 -14.71755144501524 -17.18028541304129 -2.5471825134574075 1.876727145209019e-05 0.0 -2.666741196309225 -2.0663839779295863 2.3151634375201624 -2.2484623394408167 -0.8906930128680628 -0.9421141783343714 0.0 0.0 -0.0 0.0 0.0 -0.0 0.4547666311264038 -1.6459459066390991 -1.3245152235031128 -0.4449189603328705 -0.035989660769701004 0.05155152082443237 0.23356640245888813 -1.3815215252013926 -1.5113527418442376 -0.35030174615029513 2.431571660144803e-06 0.0 0.17470047637443037 0.4192400103021647 0.30275638901887 -2.3613152330769287 -0.01462883643844569 0.0015016955932258668 0.0 0.0 0.0 0.0 0.0 0.0 12.283636026594452 -12.209904924534612 1.3954175150088899 0.27219566759423725 0.1924153271475688 0.11396918138760018 0.1746769280968488 0.4192468359229866 0.3027467533030364 -2.3613411376090006 -0.014660099016828493 0.0015352698068651608 0.0 0.0 0.0 0.0 0.0 0.0 768 30.4375 30.9375 30.375 34.625 36.8125 37.125 0.596208 7 253 253 253 253 253 253 1 -0.13407529890537262 0.15322890877723694 -9.940725326538086 0.0 1.0 0.0 47.79166793823242 47.8122673034668 0.5561404824256897 47.71392822265625 47.670928955078125 47.6995964050293 47.65659713745117 47.570594787597656 47.5562629699707 3840 1
17021.745 -2.666677 -2.0663800000000005 2.3151730000000006 -2.248468 -0.8907210000000001 -0.9420859999999998 0.0 0.0 0.0 0.0 0.0 0.0 0.0 0.0 0.0 0.0 0.0 0.0 0.23366191859922236 -1.3813860787357952 -1.5113805026092089 -0.35030498666128085 -1.560319984645611e-05 0.0 2.6845778667861597 -14.716108513950388 -17.18060098322705 -2.547206076494155 -0.00012042807203231489 0.0 -2.6666696707354944 -2.066372057000631 2.3151405493365687 -2.2484260998167933 -0.8907049337970179 -0.942077938710348 0.0 0.0 -0.0 0.0 0.0 -0.0 0.47130677103996277 -1.6593910455703735 -1.3035579919815063 -0.44964510202407837 -0.01983681507408619 0.0578567236661911 0.23366191859922236 -1.3813860787357952 -1.5113805026092089 -0.35030498666128085 -1.560319984645611e-05 0.0 0.17467414319520586 0.41925172303126657 0.3027569461068269 -2.3613363040125015 -0.014656164515498683 0.0015721083348232729 0.0 0.0 0.0 0.0 0.0 0.0 12.303492720541236 -11.989124423644189 1.2554866784501577 0.27248347834766834 0.18945961105483652 0.11870277798698053 0.1746769280968488 0.4192468359229866 0.3027467533030364 -2.3613411376090006 -0.014660099016828493 0.0015352698068651608 0.0 0.0 0.0 0.0 0.0 0.0 768 30.4375 30.9375 30.375 34.625 36.8125 37.125 0.599784 7 253 253 253 253 253 253 1 -0.13407529890537262 0.13407528400421143 -9.979032516479492 0.0 1.0 0.0 47.72002029418945 47.75315856933594 0.5695713758468628 47.670928955078125 47.599266052246094 47.6279296875 47.599266052246094 47.5562629699707 47.51326370239258 3840 1
17021.765 -2.666677 -2.0663800000000005 2.3151730000000006 -2.248468 -0.8907210000000001 -0.9420859999999998 0.0 0.0 0.0 0.0 0.0 0.0 0.0 0.0 0.0 0.0 0.0 0.0 0.23356967245290525 -1.3814274208167854 -1.51135837958245 -0.35029752265345016 3.1904178965420004e-06 0.0 2.683518036565712 -14.716548937203099 -17.18034949996745 -2.547151802741782 2.462417196721427e-05 0.0 -2.6666935125934046 -2.066348215142721 2.3151281515704554 -2.2484737835326136 -0.890728775654928 -0.9421017805682581 0.0 0.0 -0.0 0.0 0.0 -0.0 0.47982895374298096 -1.6816116571426392 -1.3013811111450195 -0.4432929456233978 -0.024641286581754684 0.04668024927377701 0.23356967245290525 -1.3814274208167854 -1.51135837958245 -0.35029752265345016 3.1904178965420004e-06 0.0 0.17469897997379807 0.4192500563281483 0.3027602368830437 -2.3613388347566957 -0.014665222899794297 0.0014943324999184499 0.0 0.0 0.0 0.0 0.0 0.0 12.1620721824455 -12.084659128277641 1.1829943588619756 0.2739898612911171 0.18846796725924364 0.11572071361211585 0.1746769280968488 0.4192468359229866 0.3027467533030364 -2.3613411376090006 -0.014660099016828493 0.0015352698068651608 0.0 0.0 0.0 0.0 0.0 0.0 768 30.4375 30.9375 30.375 34.625 36.8125 37.125 0.594264 7 253 253 253 253 253 253 1 -0.15322890877723694 0.13407529890537262 -9.883264541625977 0.0 1.0 0.0 47.767486572265625 47.79435729980469 0.5360020399093628 47.68526077270508 47.6279296875 47.6279296875 47.64226531982422 47.584930419921875 47.5275993347168 3840 1
17021.785 -2.666677 -2.0663800000000005 2.3151730000000006 -2.248468 -0.8907210000000001 -0.9420859999999998 0.0 0.0 0.0 0.0 0.0 0.0 0.0 0.0 0.0 0.0 0.0 0.0 0.23355456537467031 -1.3815048385609172 -1.511298429812316 -0.3502932979974594 -2.07713112965033e-06 0.0 2.6833444690109114 -14.717373679786716 -17.179668021625016 -2.5471210835975486 -1.6031640930299813e-05 0.0 -2.6667054335223597 -2.066348215142721 2.3151519934283655 -2.2484737835326136 -0.8907406965838831 -0.9420903364764612 0.0 0.0 -0.0 0.0 0.0 -0.0 0.48723575472831726 -1.625296950340271 -1.291570782661438 -0.4395504593849182 -0.02860414609313011 0.06186452507972717 0.23355456537467031 -1.3815048385609172 -1.511298429812316 -0.3502932979974594 -2.07713112965033e-06 0.0 0.17470080496494392 0.41924372408690724 0.30274545156309973 -2.361359443318702 -0.014623991375979839 0.0015108642973726554 0.0 0.0 0.0 0.0 0.0 0.0 12.129886449100605 -12.07404292956305 1.1981108622611272 0.2737922807662574 0.190408149485892 0.11135537823926528 0.1746769280968488 0.4192468359229866 0.3027467533030364 -2.3613411376090006 -0.014660099016828493 0.0015352698068651608 0.0 0.0 0.0 0.0 0.0 0.0 768 30.4375 30.9375 30.375 34.625 36.8125 37.125 0.595692 7 253 253 253 253 253 253 1 -0.07661445438861847 0.13407529890537262 -9.979032516479492 0.0 1.0 0.0 47.78181838989258 47.80509948730469 0.5292839407920837 47.68526077270508 47.6279296875 47.6279296875 47.61359786987305 47.570594787597656 47.54193115234375 3840 1
17021.805 -2.666677 -2.0663800000000005 2.3151730000000006 -2.248468 -0.8907210000000001 -0.9420859999999998 0.0 0.0 0.0 0.0 0.0 0.0 0.0 0.0 0.0 0.0 0.0 0.0 0.23353271262998931 -1.3814202444734065 -1.5113405583128012 -0.3503013708609296 -1.2210567193919661e-05 0.0 2.6830933994525905 -14.716472486564479 -17.18014691688376 -2.5471797845800324 -9.424317319878238e-05 0.0 -2.6666815916644495 -2.066372057000631 2.3151281515704554 -2.2484737835326136 -0.8907530943499964 -0.942077938710348 0.0 0.0 -0.0 0.0 0.0 -0.0 0.5012096166610718 -1.6275478601455688 -1.3210070133209229 -0.436359703540802 -0.02351297065615654 0.05511782318353653 0.23353271262998931 -1.3814202444734065 -1.5113405583128012 -0.3503013708609296 -1.2210567193919661e-05 0.0 0.17469463845196417 0.419247153749738 0.30276506451858043 -2.3613477486506333 -0.014654568399558521 0.001469544470773606 0.0 0.0 0.0 0.0 0.0 0.0 12.413956374913681 -12.169383943251622 1.1819149985933608 0.2709115942202114 0.19215719991362215 0.11985645426494693 0.1746769280968488 0.4192468359229866 0.3027467533030364 -2.3613411376090006 -0.014660099016828493 0.0015352698068651608 0.0 0.0 0.0 0.0 0.0 0.0 768 30.4375 30.9375 30.375 34.625 36.8125 37.125 0.597 7 253 253 253 253 253 253 1 -0.07661445438861847 0.17238251864910126 -10.132261276245117 0.0 1.0 0.0 47.75405502319336 47.767486572265625 0.5762841701507568 47.65659713745117 47.6279296875 47.6279296875 47.599266052246094 47.54193115234375 47.51326370239258 3840 1
17021.825 -2.666677 -2.0663800000000005 2.3151730000000006 -2.248468 -0.8907210000000001 -0.9420859999999998 0.0 0.0 0.0 0.0 0.0 0.0 0.0 0.0 0.0 0.0 0.0 0.0 0.23353662731455135 -1.381388523149752 -1.5113770815171454 -0.35029596110617467 -1.4085334717423678e-05 0.0 2.6831383758680616 -14.716134554650809 -17.180562094001225 -2.5471404481140705 -0.00010871293841272121 0.0 -2.6667173544513147 -2.066348215142721 2.3151758352862757 -2.2484623394408167 -0.8906810919391077 -0.9420903364764612 0.0 0.0 -0.0 0.0 0.0 -0.0 0.508041501045227 -1.6091645956039429 -1.3078404664993286 -0.45195531845092773 -0.00975880865007639 0.048221006989479065 0.23353662731455135 -1.381388523149752 -1.5113770815171454 -0.35029596110617467 -1.4085334717423678e-05 0.0 0.17469058442391275 0.4192468329766868 0.302738856674583 -2.361327472336281 -0.014611440821504479 0.0015839292621341176 0.0 0.0 0.0 0.0 0.0 0.0 12.379579184278493 -12.001121752355685 1.2004519000561844 0.26862940577611627 0.19316331826783995 0.12096875401318305 0.1746769280968488 0.4192468359229866 0.3027467533030364 -2.3613411376090006 -0.014660099016828493 0.0015352698068651608 0.0 0.0 0.0 0.0 0.0 0.0 768 30.4375 30.9375 30.375 34.625 36.8125 37.125 0.598525 7 253 253 253 253 253 253 1 -0.1149216815829277 0.1149216815829277 -10.036493301391602 0.0 1.0 0.0 47.789878845214844 47.808685302734375 0.5539045929908752 47.71392822265625 47.65659713745117 47.670928955078125 47.6995964050293 47.599266052246094 47.570594787597656 3840 1
17021.844999999998 -2.666677 -2.0663800000000005 2.3151730000000006 -2.248468 -0.8907210000000001 -0.9420859999999998 0.0 0.0 0.0 0.0 0.0 0.0 0.0 0.0 0.0 0.0 0.0 0.0 0.23354871654403273 -1.3814429376371424 -1.5113342477061484 -0.3502976383968694 -1.3182630181075997e-06 0.0 2.6832772708924915 -14.716714240166318 -17.180075181133116 -2.5471526443579506 -1.0174571579191585e-05 0.0 -2.6667054335223597 -2.066372057000631 2.3151758352862757 -2.2484499416747035 -0.890728775654928 -0.9421017805682581 0.0 0.0 -0.0 0.0 0.0 -0.0 0.47188565135002136 -1.6275575160980225 -1.2939866781234741 -0.4408354163169861 -0.026657409965991974 0.051385298371315 0.23354871654403273 -1.3814429376371424 -1.5113342477061484 -0.3502976383968694 -1.3182630181075997e-06 0.0 0.1746882354060812 0.4192398207785393 0.30273825407208066 -2.361360675227641 -0.014630493157798484 0.0015386458402866425 0.0 0.0 0.0 0.0 0.0 0.0 12.404939663080368 -11.936332528525167 1.2826918205178073 0.26885374232967113 0.19169111580346876 0.11811229614697222 0.1746769280968488 0.4192468359229866 0.3027467533030364 -2.3613411376090006 -0.014660099016828493 0.0015352698068651608 0.0 0.0 0.0 0.0 0.0 0.0 768 30.4375 30.9375 30.375 34.625 36.8125 37.125 0.598285 7 253 253 253 253 253 253 1 -0.1149216815829277 0.17238251864910126 -10.017339706420898 0.0 1.0 0.0 47.73972702026367 47.764801025390625 0.5740430355072021 47.670928955078125 47.599266052246094 47.61359786987305 47.6279296875 47.51326370239258 47.51326370239258 3840 1
17021.864999999998 -2.666677 -2.0663800000000005 2.3151730000000006 -2.248468 -0.8907210000000001 -0.9420859999999998 0.0 0.0 0.0 0.0 0.0 0.0 0.0 0.0 0.0 0.0 0.0 0.0 0.23350812109813823 -1.3814814591165336 -1.511293001158028 -0.35029185210764746 3.1904022621725583e-06 0.0 2.682810863545526 -14.717124615136477 -17.179606311458027 -2.5471105699609886 2.4624051298570152e-05 0.0 -2.6666815916644495 -2.066360136071676 2.3151758352862757 -2.2484623394408167 -0.890716854725973 -0.9420660177813929 0.0 0.0 -0.0 0.0 0.0 -0.0 0.5286427140235901 -1.6187564134597778 -1.2784007787704468 -0.44465893507003784 -0.017179574817419052 0.04918903857469559 0.23350812109813823 -1.3814814591165336 -1.511293001158028 -0.35029185210764746 3.1904022621725583e-06 0.0 0.17467943956265894 0.4192472322390848 0.3027379227298883 -2.3613508740421065 -0.014620019231082419 0.0015754923547859347 0.0 0.0 0.0 0.0 0.0 0.0 11.951810716659768 -12.049592098038863 1.21826621932924 0.27317076061677165 0.1899483211034527 0.10563595221940777 0.1746769280968488 0.4192468359229866 0.3027467533030364 -2.3613411376090006 -0.014660099016828493 0.0015352698068651608 0.0 0.0 0.0 0.0 0.0 0.0 768 30.4375 30.9375 30.375 34.625 36.8125 37.125 0.603061 7 253 253 253 253 253 253 1 0.038307227194309235 0.1149216815829277 -9.940725326538086 0.0 1.0 0.0 47.73972702026367 47.7639045715332 0.5203352570533752 47.68526077270508 47.61359786987305 47.6279296875 47.6279296875 47.5275993347168 47.51326370239258 3840 1
17021.885 -2.666677 -2.0663800000000005 2.3151730000000006 -2.248468 -0.8907210000000001 -0.9420859999999998 0.0 0.0 0.0 0.0 0.0 0.0 0.0 0.0 0.0 0.0 0.0 0.0 0.2335488813654643 -1.3815125369141639 -1.5113718957638644 -0.35030547837477344 5.565349919002858e-07 0.0 2.6832791645513723 -14.71745569147302 -17.18050314500872 -2.547209651937395 4.295428934616506e-06 0.0 -2.6667054335223597 -2.066372057000631 2.3151405493365687 -2.248486181298727 -0.890728775654928 -0.942077938710348 0.0 0.0 -0.0 0.0 0.0 -0.0 0.49536240100860596 -1.6397169828414917 -1.2982617616653442 -0.43833914399147034 -0.024498451501131058 0.0520121306180954 0.2335488813654643 -1.3815125369141639 -1.5113718957638644 -0.35030547837477344 5.565349919002858e-07 0.0 0.1746999249477008 0.4192459055377782 0.30276381984216816 -2.3613282125457804 -0.014633293355740248 0.0014750627017073876 0.0 0.0 0.0 0.0 0.0 0.0 12.212317779152535 -12.04852155438591 1.325566700500338 0.2725362966435292 0.18861781977041986 0.11844350563190323 0.1746769280968488 0.4192468359229866 0.3027467533030364 -2.3613411376090006 -0.014660099016828493 0.0015352698068651608 0.0 0.0 0.0 0.0 0.0 0.0 768 30.4375 30.9375 30.375 34.625 36.8125 37.125 0.602869 7 253 253 253 253 253 253 1 -0.1149216815829277 0.15322890877723694 -9.998186111450195 0.0 1.0 0.0 47.77017593383789 47.796146392822266 0.49571460485458374 47.68526077270508 47.6279296875 47.64226531982422 47.6279296875 47.5275993347168 47.51326370239258 3840 1
17021.905 -2.666677 -2.0663800000000005 2.3151730000000006 -2.248468 -0.8907210000000001 -0.9420859999999998 0.0 0.0 0.0 0.0 0.0 0.0 0.0 0.0 0.0 0.0 0.0 0.0 0.23356823581615455 -1.3814567156998416 -1.511253331030593 -0.35028149297284 -2.0775379909237114e-06 0.0 2.683501530824226 -14.716861019889173 -17.179155361727474 -2.5470352445955684 -1.6034781152768286e-05 0.0 -2.6666696707354944 -2.066336294213766 2.3151634375201624 -2.248486181298727 -0.8907645384417933 -0.9420903364764612 0.0 0.0 -0.0 0.0 0.0 -0.0 0.49487242102622986 -1.6682356595993042 -1.3155455589294434 -0.4268026351928711 -0.02570885419845581 0.05041544884443283 0.23356823581615455 -1.3814567156998416 -1.511253331030593 -0.35028149297284 -2.0775379909237114e-06 0.0 0.1746899687013765 0.41924690757107663 0.30273376309543054 -2.361383348061712 -0.01465481096362178 0.0015231436832197943 0.0 0.0 0.0 0.0 0.0 0.0 12.282863195099955 -12.029714776258093 1.3713718790855038 0.26763803157365273 0.1900294818650849 0.1181760066357266 0.1746769280968488 0.4192468359229866 0.3027467533030364 -2.3613411376090006 -0.014660099016828493 0.0015352698068651608 0.0 0.0 0.0 0.0 0.0 0.0 768 30.4375 30.9375 30.375 34.625 36.8125 37.125 0.604152 7 253 253 253 253 253 253 1 -0.1149216741323471 0.15322890877723694 -9.959878921508789 0.0 1.0 0.0 47.743309020996094 47.7639045715332 0.6120893359184265 47.68526077270508 47.6279296875 47.6279296875 47.61359786987305 47.54193115234375 47.51326370239258 3840 1
17021.925 -2.666677 -2.0663800000000005 2.3151730000000006 -2.248468 -0.8907210000000001 -0.9420859999999998 0.0 0.0 0.0 0.0 0.0 0.0 0.0 0.0 0.0 0.0 0.0 0.0 0.23355705644529676 -1.3814035192960654 -1.5112973064453754 -0.3502800470521492 -1.0335994626765574e-05 0.0 2.68337308930603 -14.71629431079707 -17.179655251763865 -2.547024730734476 -7.977491269013373e-05 0.0 -2.6666815916644495 -2.066360136071676 2.3151634375201624 -2.2484623394408167 -0.8907049337970179 -0.9420903364764612 0.0 0.0 -0.0 0.0 0.0 -0.0 0.5177379846572876 -1.6831358671188354 -1.3332345485687256 -0.4393748641014099 -0.009681842289865017 0.0495285764336586 0.23355705644529676 -1.3814035192960654 -1.5112973064453754 -0.3502800470521492 -1.0335994626765574e-05 0.0 0.17468023607512562 0.4192502555845629 0.30274642252873873 -2.361335440589187 -0.01465743776739774 0.0015589769140471074 0.0 0.0 0.0 0.0 0.0 0.0 12.458612108264727 -12.338024821330439 1.2103785423346816 0.27266951133386974 0.1928561213145983 0.11983175762504858 0.1746769280968488 0.4192468359229866 0.3027467533030364 -2.3613411376090006 -0.014660099016828493 0.0015352698068651608 0.0 0.0 0.0 0.0 0.0 0.0 768 30.4375 30.9375 30.375 34.625 36.8125 37.125 0.602784 7 253 253 253 253 253 253 1 -0.09576806426048279 0.13407529890537262 -9.979032516479492 0.0 1.0 0.0 47.805999755859375 47.830177307128906 0.5874739289283752 47.7282600402832 47.670928955078125 47.670928955078125 47.65659713745117 47.599266052246094 47.570594787597656 3840 1
17021.945 -2.666677 -2.0663800000000005 2.3151730000000006 -2.248468 -0.8907210000000001 -0.9420859999999998 0.0 0.0 0.0 0.0 0.0 0.0 0.0 0.0 0.0 0.0 0.0 0.0 0.23357308711226588 -1.3815069782028861 -1.5113391089908348 -0.35029896872685595 1.1448949315241577e-05 0.0 2.683557268114426 -14.717396473706446 -17.180130441732494 -2.547162317713325 8.836488069101993e-05 0.0 -2.6666935125934046 -2.0663839779295863 2.3151281515704554 -2.248486181298727 -0.8907406965838831 -0.9420903364764612 0.0 0.0 -0.0 0.0 0.0 -0.0 0.49830207228660583 -1.6120117902755737 -1.301455020904541 -0.4405057430267334 -0.007526273839175701 0.06625465303659439 0.23357308711226588 -1.3815069782028861 -1.5113391089908348 -0.35029896872685595 1.1448949315241577e-05 0.0 0.17469779386533174 0.4192468578559343 0.30277307686413973 -2.3613266259019072 -0.014669132952459895 0.001440865231638289 0.0 0.0 0.0 0.0 0.0 0.0 12.171679934042073 -12.237855834293779 1.3420010704746614 0.2694247766745826 0.18883552995222513 0.1160757563529407 0.1746769280968488 0.4192468359229866 0.3027467533030364 -2.3613411376090006 -0.014660099016828493 0.0015352698068651608 0.0 0.0 0.0 0.0 0.0 0.0 768 30.4375 30.9375 30.375 34.625 36.8125 37.125 0.604068 7 253 253 253 253 253 253 1 -0.038307227194309235 0.17238251864910126 -9.921571731567383 0.0 1.0 0.0 47.764801025390625 47.77286148071289 0.6053765416145325 47.670928955078125 47.61359786987305 47.6279296875 47.61359786987305 47.5562629699707 47.5275993347168 3840 1
17021.965 -2.666677 -2.0663800000000005 2.3151730000000006 -2.248468 -0.8907210000000001 -0.9420859999999998 0.0 0.0 0.0 0.0 0.0 0.0 0.0 0.0 0.0 0.0 0.0 0.0 0.23357201113302647 -1.3814361652537828 -1.5113003233601383 -0.35029089701254257 5.065270925444819e-06 0.0 2.6835449060227834 -14.716642092973037 -17.179689546508737 -2.547103625086815 3.909459712593542e-05 0.0 -2.6667054335223597 -2.0663839779295863 2.315188233052389 -2.248498102227682 -0.890728775654928 -0.9420903364764612 0.0 0.0 -0.0 0.0 0.0 -0.0 0.4542924761772156 -1.6477876901626587 -1.3247548341751099 -0.4359886050224304 -0.01944873109459877 0.030597416684031487 0.23357201113302647 -1.3814361652537828 -1.5113003233601383 -0.35029089701254257 5.065270925444819e-06 0.0 0.17468997317597443 0.4192407898808627 0.30274380281128555 -2.3613388617717357 -0.014637657067480492 0.001494211202425191 0.0 0.0 0.0 0.0 0.0 0.0 12.674357446837456 -12.125089585375097 1.0996402298501664 0.2691640304924695 0.19781731169125466 0.11822705563518439 0.1746769280968488 0.4192468359229866 0.3027467533030364 -2.3613411376090006 -0.014660099016828493 0.0015352698068651608 0.0 0.0 0.0 0.0 0.0 0.0 768 30.4375 30.9375 30.375 34.625 36.8125 37.125 0.602076 7 253 253 253 253 253 253 1 -0.17238251864910126 0.19153612852096558 -9.940725326538086 0.0 1.0 0.0 47.7585334777832 47.780921936035156 0.5001915693283081 47.670928955078125 47.61359786987305 47.6279296875 47.61359786987305 47.5562629699707 47.5275993347168 3840 1
17021.985 -2.666677 -2.0663800000000005 2.3151730000000006 -2.248468 -0.8907210000000001 -0.9420859999999998 0.0 0.0 0.0 0.0 0.0 0.0 0.0 0.0 0.0 0.0 0.0 0.0 0.23359214273675194 -1.3814239154915693 -1.5113275171677278 -0.3502940217074614 9.573995357805096e-06 0.0 2.6837762011268733 -14.716511594459421 -17.17999867181279 -2.5471263459791444 7.389367654921573e-05 0.0 -2.6666935125934046 -2.066348215142721 2.3151758352862757 -2.2484499416747035 -0.8907406965838831 -0.9421141783343714 0.0 0.0 -0.0 0.0 0.0 -0.0 0.5099415183067322 -1.6304923295974731 -1.304418683052063 -0.4389110207557678 -0.01398076768964529 0.043440431356430054 0.23359214273675194 -1.3814239154915693 -1.5113275171677278 -0.3502940217074614 9.573995357805096e-06 0.0 0.1746879858873132 0.41924173590412156 0.3027282876401667 -2.3613809388107954 -0.014645583935017956 0.00155518440484655 0.0 0.0 0.0 0.0 0.0 0.0 12.402880483142201 -12.321474264754723 1.2960460691322604 0.2756940318678454 0.19901707895518836 0.12206575416574858 0.1746769280968488 0.4192468359229866 0.3027467533030364 -2.3613411376090006 -0.014660099016828493 0.0015352698068651608 0.0 0.0 0.0 0.0 0.0 0.0 768 30.4375 30.9375 30.375 34.625 36.8125 37.125 0.602352 7 253 253 253 253 253 253 1 -0.13407529890537262 0.1149216815829277 -9.998186111450195 0.0 1.0 0.0 47.788089752197266 47.80152130126953 0.5069043636322021 47.6995964050293 47.65659713745117 47.65659713745117 47.6279296875 47.5562629699707 47.5275993347168 3840 1
17022.005 -2.666677 -2.0663800000000005 2.3151730000000006 -2.248468 -0.8907210000000001 -0.9420859999999998 0.0 0.0 0.0 0.0 0.0 0.0 0.0 0.0 0.0 0.0 0.0 0.0 0.2335245893950657 -1.3815209965795323 -1.5113411500013771 -0.3502967991017286 -2.1986752306917594e-05 0.0 2.6830000703520964 -14.717545813529025 -17.180153642897036 -2.547146541511106 -0.00016969738365400262 0.0 -2.6666815916644495 -2.066348215142721 2.315115753804342 -2.2484623394408167 -0.8907406965838831 -0.942077938710348 0.0 0.0 -0.0 0.0 0.0 -0.0 0.4986668825149536 -1.6264058351516724 -1.315839409828186 -0.4400434195995331 -0.013045205734670162 0.0472247377038002 0.2335245893950657 -1.3815209965795323 -1.5113411500013771 -0.3502967991017286 -2.1986752306917594e-05 0.0 0.1746969568782338 0.41925104519057277 0.30276340238697924 -2.3613481901034628 -0.01464817820756028 0.0015022846920257323 0.0 0.0 0.0 0.0 0.0 0.0 12.424620986517134 -12.232015796519814 1.1461238220328998 0.27694826172269366 0.19232411289532508 0.11601789937384241 0.1746769280968488 0.4192468359229866 0.3027467533030364 -2.3613411376090006 -0.014660099016828493 0.0015352698068651608 0.0 0.0 0.0 0.0 0.0 0.0 768 30.4375 30.9375 30.375 34.625 36.8125 37.125 0.599088 7 253 253 253 253 253 253 1 -0.15322890877723694 0.19153612852096558 -9.959878921508789 0.0 1.0 0.0 47.751365661621094 47.780025482177734 0.5404736995697021 47.670928955078125 47.61359786987305 47.6279296875 47.6279296875 47.5562629699707 47.51326370239258 3840 1
17022.024999999998 -2.666677 -2.0663800000000005 2.3151730000000006 -2.248468 -0.8907210000000001 -0.9420859999999998 0.0 0.0 0.0 0.0 0.0 0.0 0.0 0.0 0.0 0.0 0.0 0.0 0.23359353464998908 -1.3813973570704423 -1.511368878642511 -0.35029462954173085 3.1904225342614077e-06 0.0 2.6837921930330055 -14.716228663703653 -17.180468847915435 -2.547130765782469 2.4624207761898204e-05 0.0 -2.6666696707354944 -2.066360136071676 2.315199677144186 -2.248486181298727 -0.890716854725973 -0.9420903364764612 0.0 0.0 -0.0 0.0 0.0 -0.0 0.4718296229839325 -1.6325738430023193 -1.3289164304733276 -0.4369286000728607 -0.0035324948839843273 0.049657031893730164 0.23359353464998908 -1.3813973570704423 -1.511368878642511 -0.35029462954173085 3.1904225342614077e-06 0.0 0.17467236068102174 0.41924827502405315 0.3027288974028882 -2.3613504696321805 -0.014662860080186371 0.001569590914067178 0.0 0.0 0.0 0.0 0.0 0.0 12.35666894481672 -12.049308752722053 1.2366469844801342 0.2696921056658215 0.19370856126046435 0.11854051772989048 0.1746769280968488 0.4192468359229866 0.3027467533030364 -2.3613411376090006 -0.014660099016828493 0.0015352698068651608 0.0 0.0 0.0 0.0 0.0 0.0 768 30.4375 30.9375 30.375 34.625 36.8125 37.125 0.603264 7 253 253 253 253 253 253 1 -0.07661445438861847 0.1149216815829277 -9.979032516479492 0.0 1.0 0.0 47.81674575805664 47.81316375732422 0.5024327039718628 47.742591857910156 47.68526077270508 47.68526077270508 47.68526077270508 47.584930419921875 47.570594787597656 3840 1
17022.045 -2.666677 -2.0663800000000005 2.3151730000000006 -2.248468 -0.8907210000000001 -0.9420859999999998 0.0 0.0 0.0 0.0 0.0 0.0 0.0 0.0 0.0 0.0 0.0 0.0 0.23361763016367162 -1.3814422567907625 -1.511355802618763 -0.350304986533786 -6.585839487246987e-06 0.0 2.684069030110732 -14.71670698700997 -17.18032020636152 -2.54720607556709 -5.083059628590105e-05 0.0 -2.666645352040426 -2.066348215142721 2.315188233052389 -2.2484499416747035 -0.8906930128680628 -0.9421017805682581 0.0 0.0 -0.0 0.0 0.0 -0.0 0.4879216253757477 -1.5982781648635864 -1.3573487997055054 -0.4364507496356964 -0.015143295750021935 0.02656659483909607 0.23361763016367162 -1.3814422567907625 -1.511355802618763 -0.350304986533786 -6.585839487246987e-06 0.0 0.1746581082143327 0.4192555984279762 0.3027282409584507 -2.3613478220003374 -0.01469587902858907 0.001631035674836937 0.0 0.0 0.0 0.0 0.0 0.0 12.319070197251609 -12.148885113324987 1.3271257965625027 0.27319455617347244 0.19177050763951003 0.12226693099396838 0.1746769280968488 0.4192468359229866 0.3027467533030364 -2.3613411376090006 -0.014660099016828493 0.0015352698068651608 0.0 0.0 0.0 0.0 0.0 0.0 768 30.4375 30.9375 30.375 34.625 36.8125 37.125 0.612504 7 253 253 253 253 253 253 1 -0.1149216815829277 0.17238251864910126 -9.998186111450195 0.0 1.0 0.0 47.74061965942383 47.78450393676758 0.5225711464881897 47.670928955078125 47.6279296875 47.6279296875 47.65659713745117 47.570594787597656 47.498931884765625 3840 1
17022.065 -2.666677 -2.0663800000000005 2.3151730000000006 -2.248468 -0.8907210000000001 -0.9420859999999998 0.0 0.0 0.0 0.0 0.0 0.0 0.0 0.0 0.0 0.0 0.0 0.0 0.2335236911057371 -1.3814671555925004 -1.51131827014772 -0.3502919677309216 -1.0335636955441508e-05 0.0 2.6829897497672786 -14.716972237596956 -17.17989355641613 -2.547111410703535 -7.977215212381384e-05 0.0 -2.6666935125934046 -2.066372057000631 2.3151634375201624 -2.2484499416747035 -0.890728775654928 -0.942077938710348 0.0 0.0 -0.0 0.0 0.0 -0.0 0.5004251599311829 -1.6301175355911255 -1.3056174516677856 -0.44765186309814453 -0.01963851787149906 0.04332932084798813 0.2335236911057371 -1.3814671555925004 -1.51131827014772 -0.3502919677309216 -1.0335636955441508e-05 0.0 0.17468581215045004 0.41924323178578676 0.30274506330683115 -2.3613551515958453 -0.014621768913572194 0.001542949099167552 0.0 0.0 0.0 0.0 0.0 0.0 12.366080185263991 -12.26721646384174 1.076443907216981 0.27135481308079545 0.19671844597328864 0.114367434763253 0.1746769280968488 0.4192468359229866 0.3027467533030364 -2.3613411376090006 -0.014660099016828493 0.0015352698068651608 0.0 0.0 0.0 0.0 0.0 0.0 768 30.4375 30.9375 30.375 34.625 36.8125 37.125 0.601896 7 253 253 253 253 253 253 1 -0.19153612852096558 0.17238251864910126 -9.921571731567383 0.0 1.0 0.0 47.77286148071289 47.777339935302734 0.5315250754356384 47.71392822265625 47.6279296875 47.64226531982422 47.6279296875 47.570594787597656 47.54193115234375 3840 1
