Edkamb/ConfLiftingaaS/DTProject/experiments/fourth_experiment/joint_position_data.csv
timestamp,actual_q_0,actual_q_1,actual_q_2,actual_q_3,actual_q_4,actual_q_5,actual_q_6,target_q_0,target_q_1,target_q_2,target_q_3,target_q_4,target_q_5,target_q_6,measured_tq_0,measured_tq_1,measured_tq_2,measured_tq_3,measured_tq_4,measured_tq_5,measured_tq_6,external_tq_0,external_tq_1,external_tq_2,external_tq_3,external_tq_4,external_tq_5,external_tq_6,force_X,force_Y,force_Z
1688474849.576,0.28560894670721027,0.2871877485320348,0.22026376202576034,-1.8518050689409695,-0.07307194187041385,1.0101978946683894,0.5360522827512486,0.2856171107029526,0.28722249945552214,0.22033722391572447,-1.8517725721102114,-0.07316174132935699,1.0103852760530436,0.5361383205020549,0.8966145668029785,40.20919778442383,-1.531852340698242,-23.473436183929444,0.49653144836425783,0.39783200073242186,0.15219076538085938,0.8911072606653102,8.094670619770021,-0.42839810505668086,-5.28252935887984,-0.03739625454909907,0.3819905475362939,0.1517311793589265,-2.1044263664730205,3.1866428260712194,16.58854102406195
1688474849.665,0.28560894670721027,0.28718762875881493,0.22026376202576034,-1.8518050689409695,-0.07307194187041385,1.0101978346726963,0.5360521629780287,0.2856171107029526,0.28722249945552214,0.22033722391572447,-1.8517725721102114,-0.07316174132935699,1.0103852760530436,0.5361383205020549,0.906024314880371,40.21054203414917,-1.5397757148742675,-23.463752059936525,0.4930099487304687,0.39783200073242186,0.15185701370239257,0.8941429910978982,8.091830668479536,-0.42609311296807106,-5.286702812932076,-0.0367990382718522,0.3826450977402249,0.15171392357300337,-2.0837438041674505,3.1863860133288875,16.590974492841724
1688474849.742,0.28560894670721027,0.2871877485320348,0.22026376202576034,-1.8518049490586668,-0.07307194187041385,1.0101978346726963,0.5360523427469416,0.2856171107029526,0.28722249945552214,0.22033722391572447,-1.8517725721102114,-0.07316174132935699,1.0103852760530436,0.5361383205020549,0.8898933181762695,40.218607532501224,-1.5362542152404786,-23.44526418685913,0.48860807418823243,0.3961632423400879,0.1508557586669922,0.8922593532425636,8.089474029561048,-0.4282242788630465,-5.287576510547165,-0.0380112094212333,0.38208654961695016,0.15151106023531302,-2.082147542808065,3.1765938136869356,16.58765344821716
1688474849.844,0.28560894670721027,0.28718768864542493,0.22026376202576034,-1.8518050689409695,-0.07307194187041385,1.0101978346726963,0.5360523427469416,0.2856171107029526,0.28722249945552214,0.22033722391572447,-1.8517725721102114,-0.07316174132935699,1.0103852760530436,0.5361383205020549,0.887204818725586,40.22532878112793,-1.5186467170715332,-23.447024936676026,0.4991725730895996,0.3941607322692871,0.15219076538085938,0.8887390140892413,8.100967184997106,-0.4295247379148526,-5.285082425264017,-0.03737070142860463,0.38257646601881345,0.15151275717773505,-2.11225435609432,3.1850307110413425,16.598441573756844
1688474849.943,0.2856088868206003,0.2871877485320348,0.22026376202576034,-1.8518050689409695,-0.07307194187041385,1.0101978346726963,0.5360523427469416,0.2856171107029526,0.28722249945552214,0.22033722391572447,-1.8517725721102114,-0.07316174132935699,1.0103852760530436,0.5361383205020549,0.8952703170776367,40.223984531402586,-1.5283308410644532,-23.455828685760498,0.4930099487304687,0.3954957389831543,0.15152326202392577,0.8873797335988849,8.091304023059113,-0.43217877496051876,-5.281211333071882,-0.038366757919278315,0.38228233564899433,0.15173690544356774,-2.1084592798259036,3.179608362830391,16.589942997547926
1688474850.042,0.2856090665895133,0.2871877485320348,0.22026376202576034,-1.8518050689409695,-0.07307203768898979,1.0101978346726963,0.5360523427469416,0.2856171107029526,0.28722249945552214,0.22033722391572447,-1.8517725721102114,-0.07316174132935699,1.0103852760530436,0.5361383205020549,0.8804835700988769,40.2051650352478,-1.5353738403320312,-23.463752059936525,0.48948844909667966,0.3958294906616211,0.15252451705932618,0.8945276256311403,8.099163027512681,-0.4247740609475863,-5.288064576230922,-0.03660860876214074,0.3829483052664203,0.15164560562578253,-2.095347151681319,3.1899417802568215,16.597618663264914
1688474850.142,0.28560894670721027,0.2871877485320348,0.22026376202576034,-1.8518050689409695,-0.07307194187041385,1.0101978346726963,0.5360522228646386,0.2856171107029526,0.28722249945552214,0.22033722391572447,-1.8517725721102114,-0.07316174132935699,1.0103852760530436,0.5361383205020549,0.893926067352295,40.21995178222656,-1.5239289665222169,-23.463752059936525,0.493890323638916,0.3948282356262207,0.15185701370239257,0.8866627600955683,8.093097921393973,-0.4326396038136593,-5.281492718094318,-0.037717082067135435,0.3823024405755542,0.15156817411778584,-2.1022423583174072,3.1744990413349465,16.57922125418356
1688474850.242,0.28560894670721027,0.2871877485320348,0.22026376202576034,-1.8518050689409695,-0.07307194187041385,1.0101978346726963,0.5360522228646386,0.2856171107029526,0.28722249945552214,0.22033722391572447,-1.8517725721102114,-0.07316174132935699,1.0103852760530436,0.5361383205020549,0.8912375679016113,40.23742702865601,-1.5380149650573731,-23.442623062133787,0.4947706985473633,0.3931594772338867,0.1505220069885254,0.8927720350479758,8.101715777070954,-0.42865993077425113,-5.284503115794152,-0.037441484302891626,0.3825944783608331,0.1521408141765374,-2.1096027014260015,3.1932228480728533,16.596246079223786
1688474850.375,0.28560894670721027,0.2871877485320348,0.22026376202576034,-1.8518049490586668,-0.07307184587730499,1.0101978346726963,0.5360523427469416,0.2856171107029526,0.28722249945552214,0.22033722391572447,-1.8517725721102114,-0.07316174132935699,1.0103852760530436,0.5361383205020549,0.8885490684509277,40.21726328277588,-1.534493465423584,-23.481359558105467,0.493890323638916,0.39950075912475586,0.1505220069885254,0.8877960438622203,8.093836566448282,-0.42996262724028456,-5.286176612225233,-0.03823166351722634,0.38255604658199505,0.151685410827253,-2.096086410757264,3.175053306374342,16.589992183561343
1688474850.442,0.28560894670721027,0.2871877485320348,0.22026376202576034,-1.8518049490586668,-0.07307194187041385,1.0101978346726963,0.5360522827512486,0.2856171107029526,0.28722249945552214,0.22033722391572447,-1.8517725721102114,-0.07316174132935699,1.0103852760530436,0.5361383205020549,0.9006473159790039,40.21054203414917,-1.5292112159729003,-23.48400068283081,0.49036882400512694,0.39883325576782225,0.151189510345459,0.8884913006148528,8.095492522486241,-0.4294293553601757,-5.284644888272649,-0.03991423282530393,0.382108275071929,0.1514278362393809,-2.098406333759034,3.178245460338303,16.5940188223921
1688474850.542,0.28560894670721027,0.2871877485320348,0.22026376202576034,-1.8518050689409695,-0.07307194187041385,1.0101978346726963,0.5360522827512486,0.2856171107029526,0.28722249945552214,0.22033722391572447,-1.8517725721102114,-0.07316174132935699,1.0103852760530436,0.5361383205020549,0.8831720695495605,40.2212960319519,-1.5362542152404786,-23.439981937408447,0.4947706985473633,0.3951619873046875,0.1508557586669922,0.8931175092596564,8.097414615309265,-0.4263203132094638,-5.2820415633537126,-0.03863738475349249,0.3820606864904328,0.15166368479838363,-2.1090770094184257,3.193949792038346,16.593531908307
1688474850.642,0.28560894670721027,0.2871877485320348,0.22026376202576034,-1.8518049490586668,-0.07307203768898979,1.0101978346726963,0.5360523427469416,0.2856171107029526,0.28722249945552214,0.22033722391572447,-1.8517725721102114,-0.07316174132935699,1.0103852760530436,0.5361383205020549,0.9046800651550293,40.22667303085327,-1.5256897163391112,-23.451426811218262,0.49653144836425783,0.3951619873046875,0.15219076538085938,0.8868545510039458,8.099304748759621,-0.43076427229903724,-5.284158926627629,-0.03872235110129274,0.3827271496568757,0.15160494109231717,-2.115229969414038,3.183925122186352,16.593744770257523
1688474850.742,0.28560894670721027,0.2871877485320348,0.22026376202576034,-1.8518050689409695,-0.07307194187041385,1.0101978946683894,0.5360522228646386,0.2856171107029526,0.28722249945552214,0.22033722391572447,-1.8517725721102114,-0.07316174132935699,1.0103852760530436,0.5361383205020549,0.8952703170776367,40.20247653579712,-1.5388953399658203,-23.463752059936525,0.4912491989135742,0.3961632423400879,0.151189510345459,0.8914466812210212,8.094732175413922,-0.42889388979759313,-5.281698148023914,-0.038832979596085365,0.3818848121137939,0.15183214056108435,-2.105076763064328,3.1877824760384184,16.587636810505945
1688474850.842,0.28560894670721027,0.28718762875881493,0.22026376202576034,-1.8518050689409695,-0.07307194187041385,1.0101978946683894,0.5360522228646386,0.2856171107029526,0.28722249945552214,0.22033722391572447,-1.8517725721102114,-0.07316174132935699,1.0103852760530436,0.5361383205020549,0.8845163192749024,40.207853534698486,-1.5424168395996094,-23.4707950592041,0.4947706985473633,0.3974982490539551,0.15352577209472656,0.8868603992900201,8.093917296896382,-0.42877144456198196,-5.281922990028432,-0.03894567248882519,0.3817539709487391,0.15155422445988237,-2.110866197668569,3.181381694204845,16.598130870263844
1688474850.941,0.28560894670721027,0.28718762875881493,0.22026376202576034,-1.8518049490586668,-0.07307184587730499,1.0101978346726963,0.5360521629780287,0.2856171107029526,0.28722249945552214,0.22033722391572447,-1.8517725721102114,-0.07316174132935699,1.0103852760530436,0.5361383205020549,0.9033358154296875,40.21995178222656,-1.5168859672546386,-23.43205856323242,0.4930099487304687,0.3924919738769531,0.15285826873779296,0.894178262698597,8.095944869297245,-0.4277959805247744,-5.281930982656224,-0.038588661238637106,0.3823432322773289,0.15162783100590163,-2.1140795652787916,3.1983687468623545,16.594927126142583
1688474851.041,0.28560894670721027,0.2871877485320348,0.22026376202576034,-1.8518050689409695,-0.07307194187041385,1.0101978346726963,0.5360523427469416,0.2856171107029526,0.28722249945552214,0.22033722391572447,-1.8517725721102114,-0.07316174132935699,1.0103852760530436,0.5361383205020549,0.8791393203735351,40.21591903305054,-1.5485794639587402,-23.42941743850708,0.49036882400512694,0.3944944839477539,0.1505220069885254,0.8860724856608427,8.094047562518943,-0.4316527133902951,-5.285380943004054,-0.03915898533100745,0.38228153488257166,0.15158310149810805,-2.098929981772862,3.171253396137368,16.584719538432214
1688474851.267,0.28560894670721027,0.2871877485320348,0.22026376202576034,-1.8518050689409695,-0.07307194187041385,1.0101978346726963,0.5360523427469416,0.2856171107029526,0.28722249945552214,0.22033722391572447,-1.8517725721102114,-0.07316174132935699,1.0103852760530436,0.5361383205020549,0.9046800651550293,40.21726328277588,-1.5160055923461915,-23.47695768356323,0.48948844909667966,0.3974982490539551,0.1498545036315918,0.8953021060371911,8.097709158435167,-0.426580445494329,-5.281036791434744,-0.03913081804531271,0.3813373026555884,0.1508112359675311,-2.107599315293346,3.197118572396228,16.593749940524685
1688474851.304,0.28560894670721027,0.28718768864542493,0.22026376202576034,-1.8518049490586668,-0.07307203768898979,1.0101978346726963,0.5360521629780287,0.2856171107029526,0.28722249945552214,0.22033722391572447,-1.8517725721102114,-0.07316174132935699,1.0103852760530436,0.5361383205020549,0.893926067352295,40.2145747833252,-1.5380149650573731,-23.457589435577393,0.493890323638916,0.3958294906616211,0.15152326202392577,0.8955976533937822,8.09552817317601,-0.4238823640824999,-5.282070047845501,-0.03929313559506674,0.3816754953667011,0.15142705996553274,-2.1042035702689756,3.1979371687786946,16.590897865999498
1688474851.340,0.28560894670721027,0.28718762875881493,0.22026376202576034,-1.8518050689409695,-0.07307194187041385,1.0101978946683894,0.5360522228646386,0.2856171107029526,0.28722249945552214,0.22033722391572447,-1.8517725721102114,-0.07316174132935699,1.0103852760530436,0.5361383205020549,0.8966145668029785,40.22264028167724,-1.5292112159729003,-23.44526418685913,0.48948844909667966,0.3951619873046875,0.151189510345459,0.8930700088178873,8.098454746643114,-0.4269331699617025,-5.286056357970761,-0.039002455813293396,0.38205208466594875,0.15130469687883646,-2.1013004398982678,3.1893695058177824,16.595454566668106
1688474851.439,0.28560894670721027,0.2871877485320348,0.22026376202576034,-1.8518050689409695,-0.07307194187041385,1.0101978946683894,0.5360521629780287,0.2856171107029526,0.28722249945552214,0.22033722391572447,-1.8517725721102114,-0.07316174132935699,1.0103852760530436,0.5361383205020549,0.8925818176269531,40.20382078552246,-1.5177663421630858,-23.447024936676026,0.49653144836425783,0.3954957389831543,0.1498545036315918,0.8925517852438378,8.093426858120157,-0.4285489025137158,-5.28279107385129,-0.03861644667902246,0.38133425795230885,0.1505250431320303,-2.1013392068106453,3.1845976762746737,16.587788293646554
1688474851.570,0.28560894670721027,0.2871875687631219,0.22026376202576034,-1.8518050689409695,-0.07307194187041385,1.0101978346726963,0.5360521629780287,0.2856171107029526,0.28722249945552214,0.22033722391572447,-1.8517725721102114,-0.07316174132935699,1.0103852760530436,0.5361383205020549,0.8885490684509277,40.201132286071775,-1.5362542152404786,-23.453187561035158,0.4947706985473633,0.3961632423400879,0.15185701370239257,0.8932085525111454,8.094201690879546,-0.4263581598589164,-5.281500282694831,-0.03905854184877497,0.38140352522634435,0.15049891179946662,-2.108531344481403,3.1904290835463387,16.596247373097416
1688474851.671,0.28560894670721027,0.2871875687631219,0.22026376202576034,-1.8518049490586668,-0.07307194187041385,1.0101978346726963,0.5360522827512486,0.2856171107029526,0.28722249945552214,0.22033722391572447,-1.8517725721102114,-0.07316174132935699,1.0103852760530436,0.5361383205020549,0.8952703170776367,40.22667303085327,-1.5160055923461915,-23.447024936676026,0.4930099487304687,0.3944944839477539,0.1508557586669922,0.8885752935582782,8.094753707912455,-0.42924965757656214,-5.282075302554814,-0.0380342560380709,0.3815497333607706,0.15050992079137548,-2.1057797658276907,3.1796516402675623,16.5848891435971
1688474851.739,0.28560894670721027,0.2871877485320348,0.22026376202576034,-1.8518050689409695,-0.07307203768898979,1.0101978346726963,0.5360522228646386,0.2856171107029526,0.28722249945552214,0.22033722391572447,-1.8517725721102114,-0.07316174132935699,1.0103852760530436,0.5361383205020549,0.8952703170776367,40.21726328277588,-1.5300915908813477,-23.450546436309814,0.49565107345581055,0.39382698059082033,0.1508557586669922,0.8889211110476876,8.092663330248635,-0.42863331072229116,-5.280881167476407,-0.0385647857441133,0.3816607938421224,0.15091553133918784,-2.1056048885381826,3.181272097545146,16.587395116339188
1688474851.841,0.28560894670721027,0.2871877485320348,0.22026376202576034,-1.8518049490586668,-0.07307203768898979,1.0101978346726963,0.5360522827512486,0.2856171107029526,0.28722249945552214,0.22033722391572447,-1.8517725721102114,-0.07316174132935699,1.0103852760530436,0.5361383205020549,0.8885490684509277,40.213230533599855,-1.5309719657897949,-23.444383811950683,0.4912491989135742,0.3968307456970215,0.1505220069885254,0.894272808176128,8.095058818051665,-0.42508094725997836,-5.279162416873693,-0.037423159077273366,0.3814285948817705,0.15098343105272777,-2.107952665104805,3.1947049643613834,16.58599067944416
1688474851.942,0.28560894670721027,0.2871875687631219,0.22026376202576034,-1.8518050689409695,-0.07307194187041385,1.0101978346726963,0.5360523427469416,0.2856171107029526,0.28722249945552214,0.22033722391572447,-1.8517725721102114,-0.07316174132935699,1.0103852760530436,0.5361383205020549,0.9019915657043457,40.23742702865601,-1.5204074668884278,-23.471675434112548,0.4930099487304687,0.3974982490539551,0.151189510345459,0.8921924675610718,8.105458707379395,-0.4275464099633207,-5.285933432545861,-0.03714536908768991,0.3815041197528261,0.15131976038299602,-2.111243945780403,3.193086613396095,16.604427505476192
1688474852.046,0.28560894670721027,0.2871877485320348,0.22026376202576034,-1.8518049490586668,-0.07307184587730499,1.0101978346726963,0.5360523427469416,0.2856171107029526,0.28722249945552214,0.22033722391572447,-1.8517725721102114,-0.07316174132935699,1.0103852760530436,0.5361383205020549,0.8845163192749024,40.21726328277588,-1.5309719657897949,-23.44614456176758,0.49741182327270506,0.39382698059082033,0.151189510345459,0.8919278979007731,8.099657311416943,-0.4279825844103205,-5.282925976424433,-0.03745919136550345,0.38116441360316133,0.1514983432530984,-2.112350703878947,3.1921197742163034,16.59808021016972
1688474852.146,0.28560894670721027,0.2871877485320348,0.22026376202576034,-1.8518049490586668,-0.07307194187041385,1.0101978946683894,0.5360522228646386,0.2856171107029526,0.28722249945552214,0.22033722391572447,-1.8517725721102114,-0.07316174132935699,1.0103852760530436,0.5361383205020549,0.8952703170776367,40.236082778930665,-1.5292112159729003,-23.46199131011963,0.49565107345581055,0.3961632423400879,0.1505220069885254,0.8912151572393279,8.092735640637933,-0.4276351515766974,-5.281289100085295,-0.036055172358327794,0.3815844535771765,0.1515933609551815,-2.107157439765676,3.1880218558121665,16.59131095712137
1688474852.247,0.28560894670721027,0.2871877485320348,0.22026376202576034,-1.8518049490586668,-0.07307194187041385,1.0101978946683894,0.5360522827512486,0.2856171107029526,0.28722249945552214,0.22033722391572447,-1.8517725721102114,-0.07316174132935699,1.0103852760530436,0.5361383205020549,0.8885490684509277,40.22264028167724,-1.5327327156066894,-23.46815393447876,0.4921295738220215,0.3968307456970215,0.151189510345459,0.8945385765153812,8.105100982807205,-0.4258541861366747,-5.285228502854704,-0.036418641202715235,0.3816845192249597,0.15142483245841454,-2.115138082189658,3.199771405333916,16.60671844116891
1688474852.345,0.28560894670721027,0.2871877485320348,0.22026376202576034,-1.8518050689409695,-0.07307194187041385,1.0101978346726963,0.5360521629780287,0.2856171107029526,0.28722249945552214,0.22033722391572447,-1.8517725721102114,-0.07316174132935699,1.0103852760530436,0.5361383205020549,0.9006473159790039,40.201132286071775,-1.5336130905151366,-23.44526418685913,0.4947706985473633,0.3944944839477539,0.15185701370239257,0.888411719639032,8.096286037288063,-0.4296369460164883,-5.284224218740068,-0.03686218297742122,0.3818528136087116,0.15105232525740803,-2.1063608872310113,3.1802614352480734,16.58869568504942
1688474852.445,0.28560894670721027,0.28718762875881493,0.22026376202576034,-1.8518049490586668,-0.07307194187041385,1.0101978346726963,0.5360522228646386,0.2856171107029526,0.28722249945552214,0.22033722391572447,-1.8517725721102114,-0.07316174132935699,1.0103852760530436,0.5361383205020549,0.8912375679016113,40.2307057800293,-1.5239289665222169,-23.4391015625,0.49653144836425783,0.3918244705200195,0.149520751953125,0.8931895509006553,8.101505482829836,-0.425933701672246,-5.283597071912146,-0.03742324753639423,0.38150947341667657,0.15130164599693097,-2.113958454223844,3.1961637826726688,16.60013795738309
1688474852.546,0.28560894670721027,0.28718762875881493,0.22026376202576034,-1.8518050689409695,-0.07307194187041385,1.0101978346726963,0.5360522827512486,0.2856171107029526,0.28722249945552214,0.22033722391572447,-1.8517725721102114,-0.07316174132935699,1.0103852760530436,0.5361383205020549,0.8845163192749024,40.218607532501224,-1.5362542152404786,-23.459350185394285,0.48772769927978515,0.39783200073242186,0.15018825531005858,0.8871582414791404,8.098320953593834,-0.431024725221353,-5.284542034080169,-0.03802128878369909,0.38196233477762953,0.15137550748440004,-2.1096642217044503,3.17931375820004,16.595791929721027
1688474852.645,0.2856090665895133,0.2871877485320348,0.22026376202576034,-1.8518050689409695,-0.07307194187041385,1.0101978346726963,0.5360523427469416,0.2856171107029526,0.28722249945552214,0.22033722391572447,-1.8517725721102114,-0.07316174132935699,1.0103852760530436,0.5361383205020549,0.906024314880371,40.21188628387451,-1.5283308410644532,-23.467273559570312,0.4912491989135742,0.3968307456970215,0.15185701370239257,0.8951565308487421,8.102384987213581,-0.4251093640682402,-5.286497729579229,-0.037244293435280976,0.3817373478760215,0.1512987794745282,-2.10973427730083,3.194664121037865,16.604544400253218
1688474852.749,0.28560894670721027,0.2871877485320348,0.22026376202576034,-1.8518049490586668,-0.07307194187041385,1.0101978346726963,0.5360522228646386,0.2856171107029526,0.28722249945552214,0.22033722391572447,-1.8517725721102114,-0.07316174132935699,1.0103852760530436,0.5361383205020549,0.8845163192749024,40.21726328277588,-1.5265700912475586,-23.439981937408447,0.4930099487304687,0.39382698059082033,0.151189510345459,0.8850106467017649,8.09299796294284,-0.43005841063362227,-5.284907251447691,-0.0385595034028693,0.381709542938813,0.1517540563812187,-2.0975232465393066,3.1707874142170813,16.590673365304884
1688474852.883,0.28560894670721027,0.2871877485320348,0.22026382191237032,-1.8518050689409695,-0.07307194187041385,1.0101978346726963,0.5360521629780287,0.2856171107029526,0.28722249945552214,0.22033722391572447,-1.8517725721102114,-0.07316174132935699,1.0103852760530436,0.5361383205020549,0.8912375679016113,40.2307057800293,-1.531852340698242,-23.453187561035158,0.4991725730895996,0.3931594772338867,0.1505220069885254,0.8924440873084536,8.094274238505683,-0.4250070216466515,-5.283937577174341,-0.037717253404253054,0.38192550916512313,0.15178988571018426,-2.096824101994507,3.1788218742164274,16.596312464435602
1688474852.950,0.28560894670721027,0.2871875687631219,0.22026376202576034,-1.8518050689409695,-0.07307194187041385,1.0101978346726963,0.5360521629780287,0.2856171107029526,0.28722249945552214,0.22033722391572447,-1.8517725721102114,-0.07316174132935699,1.0103852760530436,0.5361383205020549,0.8912375679016113,40.223984531402586,-1.5300915908813477,-23.46463243484497,0.4930099487304687,0.3964969940185547,0.15352577209472656,0.8879326781595581,8.100386121159744,-0.4287404840847379,-5.287112623112782,-0.038411078158138906,0.3821964975557719,0.15119335776682227,-2.107274813124505,3.181301444813114,16.60270780338695
1688474853.050,0.28560894670721027,0.2871877485320348,0.22026376202576034,-1.8518049490586668,-0.07307194187041385,1.0101978946683894,0.5360523427469416,0.2856171107029526,0.28722249945552214,0.22033722391572447,-1.8517725721102114,-0.07316174132935699,1.0103852760530436,0.5361383205020549,0.887204818725586,40.2145747833252,-1.5292112159729003,-23.453187561035158,0.4930099487304687,0.3968307456970215,0.15018825531005858,0.8918941420119051,8.09995159101804,-0.4259265083190106,-5.288043423394133,-0.037176698016680866,0.3819906146196208,0.151225553216871,-2.0994411886297644,3.185811898712452,16.600749068395885
1688474853.149,0.28560894670721027,0.28718762875881493,0.22026376202576034,-1.8518050689409695,-0.07307194187041385,1.0101978346726963,0.5360522827512486,0.2856171107029526,0.28722249945552214,0.22033722391572447,-1.8517725721102114,-0.07316174132935699,1.0103852760530436,0.5361383205020549,0.8858605690002441,40.21054203414917,-1.5274504661560058,-23.454067935943602,0.4947706985473633,0.39382698059082033,0.1508557586669922,0.8903441535217747,8.092276398715338,-0.4277628650732884,-5.284248758372637,-0.0388047673697368,0.38179315365573974,0.1516762155064626,-2.1007007897513046,3.183406352921665,16.593790339452298
1688474853.249,0.28560894670721027,0.28718762875881493,0.22026376202576034,-1.8518050689409695,-0.07307184587730499,1.0101978346726963,0.5360522228646386,0.2856171107029526,0.28722249945552214,0.22033722391572447,-1.8517725721102114,-0.07316174132935699,1.0103852760530436,0.5361383205020549,0.893926067352295,40.22532878112793,-1.5283308410644532,-23.469914684295652,0.4947706985473633,0.3964969940185547,0.15185701370239257,0.8913193578243641,8.09655180382849,-0.4276830353310275,-5.28285575935325,-0.03771592674770442,0.3817252569602523,0.15164872835505727,-2.106911413459473,3.1887599507265336,16.592259839131984
1688474853.349,0.28560894670721027,0.2871877485320348,0.22026382191237032,-1.8518050689409695,-0.07307194187041385,1.0101978346726963,0.5360522228646386,0.2856171107029526,0.28722249945552214,0.22033722391572447,-1.8517725721102114,-0.07316174132935699,1.0103852760530436,0.5361383205020549,0.887204818725586,40.20919778442383,-1.5327327156066894,-23.46463243484497,0.4912491989135742,0.3981657524108887,0.15219076538085938,0.8902562201204816,8.100743805747593,-0.42812011408075945,-5.28603932730814,-0.03829343149145696,0.38189873564956456,0.15129571166061126,-2.108060513702209,3.186025862577481,16.597781879884952
1688474853.448,0.28560894670721027,0.2871877485320348,0.22026376202576034,-1.8518049490586668,-0.07307184587730499,1.0101978946683894,0.5360522827512486,0.2856171107029526,0.28722249945552214,0.22033722391572447,-1.8517725721102114,-0.07316174132935699,1.0103852760530436,0.5361383205020549,0.8898933181762695,40.21188628387451,-1.5274504661560058,-23.45846981048584,0.4947706985473633,0.3948282356262207,0.15152326202392577,0.8918946830399062,8.090964747570798,-0.42784059146381653,-5.283996732506095,-0.036806386557735986,0.38216086151937445,0.1511222742155106,-2.091399035850355,3.1798532684252256,16.586872682899703
1688474853.549,0.28560894670721027,0.28718762875881493,0.22026376202576034,-1.8518049490586668,-0.07307194187041385,1.0101978346726963,0.5360522827512486,0.2856171107029526,0.28722249945552214,0.22033722391572447,-1.8517725721102114,-0.07316174132935699,1.0103852760530436,0.5361383205020549,0.8858605690002441,40.229361530303954,-1.5309719657897949,-23.451426811218262,0.5000529479980469,0.3944944839477539,0.15018825531005858,0.8909920891031422,8.09822475148367,-0.42636089848137537,-5.284359473446116,-0.03705254093045633,0.38168581228726756,0.15094129071087853,-2.1090595714740106,3.1879590756371465,16.59437890773257
1688474853.649,0.28560894670721027,0.2871877485320348,0.22026376202576034,-1.8518050689409695,-0.07307194187041385,1.0101978346726963,0.5360522827512486,0.2856171107029526,0.28722249945552214,0.22033722391572447,-1.8517725721102114,-0.07316174132935699,1.0103852760530436,0.5361383205020549,0.8952703170776367,40.19844378662109,-1.5265700912475586,-23.465512809753417,0.4921295738220215,0.39716449737548826,0.15152326202392577,0.8882081411649334,8.098180493705911,-0.4288445956923901,-5.281389160090489,-0.03753396564424148,0.3813596691543938,0.15114943484397605,-2.1113319557800696,3.1833927624207847,16.593982042822034
1688474853.752,0.28560894670721027,0.2871877485320348,0.22026376202576034,-1.8518050689409695,-0.07307194187041385,1.0101978346726963,0.5360522827512486,0.2856171107029526,0.28722249945552214,0.22033722391572447,-1.8517725721102114,-0.07316174132935699,1.0103852760530436,0.5361383205020549,0.8885490684509277,40.218607532501224,-1.5309719657897949,-23.45846981048584,0.49036882400512694,0.3948282356262207,0.15185701370239257,0.8898373164595691,8.095999283798614,-0.4281400819553124,-5.285343632159826,-0.038567755493715244,0.3813757587797904,0.15102475098929133,-2.100754772604655,3.1809745633860826,16.59506766224347
1688474853.852,0.28560894670721027,0.28718762875881493,0.22026376202576034,-1.8518049490586668,-0.07307184587730499,1.0101978946683894,0.5360521629780287,0.2856171107029526,0.28722249945552214,0.22033722391572447,-1.8517725721102114,-0.07316174132935699,1.0103852760530436,0.5361383205020549,0.8912375679016113,40.2307057800293,-1.5274504661560058,-23.4391015625,0.49653144836425783,0.39149071884155273,0.151189510345459,0.8889892395606587,8.09761502678763,-0.42751218758076615,-5.286304471482538,-0.03778269168868717,0.38183508461351034,0.15097111442742062,-2.1058961597626253,3.1854480274106565,16.5976327197713
1688474853.952,0.28560894670721027,0.2871877485320348,0.22026376202576034,-1.8518050689409695,-0.07307194187041385,1.0101978946683894,0.5360522827512486,0.2856171107029526,0.28722249945552214,0.22033722391572447,-1.8517725721102114,-0.07316174132935699,1.0103852760530436,0.5361383205020549,0.8898933181762695,40.2145747833252,-1.5336130905151366,-23.45846981048584,0.4921295738220215,0.3964969940185547,0.15185701370239257,0.8919082840266472,8.095943347539627,-0.42728376653304434,-5.28162497983695,-0.03712623665845305,0.38144465436050523,0.15120094364981196,-2.108683925823801,3.1895741208856547,16.5912601077655
1688474854.051,0.28560894670721027,0.28718762875881493,0.22026376202576034,-1.8518049490586668,-0.07307194187041385,1.0101978346726963,0.5360523427469416,0.2856171107029526,0.28722249945552214,0.22033722391572447,-1.8517725721102114,-0.07316174132935699,1.0103852760530436,0.5361383205020549,0.9019915657043457,40.21188628387451,-1.531852340698242,-23.45230718612671,0.49565107345581055,0.39716449737548826,0.15219076538085938,0.8907603660445877,8.09712741339081,-0.4271451110622318,-5.284776949639549,-0.037291042484649276,0.3821343582741786,0.15149367741843495,-2.104352805848978,3.182817990273177,16.589080883074775
1688474854.151,0.28560894670721027,0.2871877485320348,0.22026376202576034,-1.8518050689409695,-0.07307194187041385,1.0101978946683894,0.5360521629780287,0.2856171107029526,0.28722249945552214,0.22033722391572447,-1.8517725721102114,-0.07316174132935699,1.0103852760530436,0.5361383205020549,0.8831720695495605,40.2145747833252,-1.5309719657897949,-23.457589435577393,0.48948844909667966,0.3954957389831543,0.15152326202392577,0.890626502829613,8.097693221646601,-0.42618562780289404,-5.28581808179875,-0.039014628522188385,0.38241425580100663,0.15081598687246398,-2.096895273048931,3.1813101445821017,16.592226540405665
1688474854.251,0.28560894670721027,0.2871877485320348,0.22026376202576034,-1.8518049490586668,-0.07307194187041385,1.0101978346726963,0.5360522827512486,0.2856171107029526,0.28722249945552214,0.22033722391572447,-1.8517725721102114,-0.07316174132935699,1.0103852760530436,0.5361383205020549,0.8898933181762695,40.22801728057861,-1.5204074668884278,-23.439981937408447,0.49741182327270506,0.3951619873046875,0.151189510345459,0.8873160426201667,8.100365829811018,-0.4271080490233474,-5.285369303087327,-0.03724612119785634,0.3822594162192491,0.15100324510818552,-2.114434580260732,3.183971436204679,16.597632649465513
1688474854.350,0.28560894670721027,0.2871877485320348,0.22026376202576034,-1.8518049490586668,-0.07307203768898979,1.0101978346726963,0.5360522827512486,0.2856171107029526,0.28722249945552214,0.22033722391572447,-1.8517725721102114,-0.07316174132935699,1.0103852760530436,0.5361383205020549,0.8804835700988769,40.21591903305054,-1.5388953399658203,-23.460230560302733,0.49653144836425783,0.3961632423400879,0.15018825531005858,0.887146976086588,8.094603664961147,-0.4282801677536268,-5.283486972190446,-0.0371564788496138,0.38157092880758164,0.1509113750898819,-2.109379931341162,3.179054318252628,16.593187674486373
1688474854.451,0.28560894670721027,0.28718768864542493,0.22026376202576034,-1.8518049490586668,-0.07307194187041385,1.0101978346726963,0.5360522827512486,0.2856171107029526,0.28722249945552214,0.22033722391572447,-1.8517725721102114,-0.07316174132935699,1.0103852760530436,0.5361383205020549,0.8912375679016113,40.21188628387451,-1.524809341430664,-23.466393184661865,0.49036882400512694,0.3958294906616211,0.15219076538085938,0.8877364022945671,8.09645332595671,-0.42686148610454827,-5.2845182409191525,-0.03716595638876896,0.3818866647430317,0.1506258895152083,-2.1044567523667594,3.1784397541939313,16.592275155952244
1688474854.584,0.28560894670721027,0.2871877485320348,0.22026376202576034,-1.8518050689409695,-0.07307194187041385,1.0101978346726963,0.5360522827512486,0.2856171107029526,0.28722249945552214,0.22033722391572447,-1.8517725721102114,-0.07316174132935699,1.0103852760530436,0.5361383205020549,0.8925818176269531,40.23742702865601,-1.5300915908813477,-23.459350185394285,0.493890323638916,0.3981657524108887,0.151189510345459,0.8896824457545295,8.099240742887183,-0.4278164491569001,-5.2858512290345825,-0.03675811915451219,0.3818785490655975,0.15053460764394627,-2.1159832839022683,3.1805536397129988,16.594024430219296
1688474854.651,0.28560894670721027,0.2871877485320348,0.22026376202576034,-1.8518050689409695,-0.07307194187041385,1.0101978946683894,0.5360522827512486,0.2856171107029526,0.28722249945552214,0.22033722391572447,-1.8517725721102114,-0.07316174132935699,1.0103852760530436,0.5361383205020549,0.8845163192749024,40.229361530303954,-1.5292112159729003,-23.44526418685913,0.4991725730895996,0.3954957389831543,0.15185701370239257,0.8861355146295653,8.10314501715972,-0.4278976379971744,-5.284119834915599,-0.037154374434999984,0.38201788724651253,0.1510109446528184,-2.124386785602244,3.1857696508333473,16.600351273839284
1688474854.752,0.28560894670721027,0.28718762875881493,0.22026376202576034,-1.8518049490586668,-0.07307194187041385,1.0101978946683894,0.5360522827512486,0.2856171107029526,0.28722249945552214,0.22033722391572447,-1.8517725721102114,-0.07316174132935699,1.0103852760530436,0.5361383205020549,0.8831720695495605,40.2051650352478,-1.5265700912475586,-23.471675434112548,0.4912491989135742,0.3964969940185547,0.1508557586669922,0.8868496766977009,8.098617594122214,-0.42762885400680045,-5.284298639835346,-0.03769294109992919,0.38179389212461723,0.1512503355908097,-2.109920733578628,3.180723187093689,16.59822636646153
1688474854.850,0.28560894670721027,0.28718762875881493,0.22026376202576034,-1.8518049490586668,-0.07307194187041385,1.0101978946683894,0.5360522827512486,0.2856171107029526,0.28722249945552214,0.22033722391572447,-1.8517725721102114,-0.07316174132935699,1.0103852760530436,0.5361383205020549,0.8952703170776367,40.218607532501224,-1.5230485916137695,-23.476077308654784,0.49741182327270506,0.3981657524108887,0.15252451705932618,0.88710572262455,8.094660482297073,-0.42829842344468505,-5.2822519654281805,-0.03787762254296156,0.38171078923698776,0.15093983047947385,-2.1088940006778225,3.179835764411753,16.5973804234499
1688474854.950,0.28560894670721027,0.28718768864542493,0.22026376202576034,-1.8518050689409695,-0.07307194187041385,1.0101978946683894,0.5360522228646386,0.2856171107029526,0.28722249945552214,0.22033722391572447,-1.8517725721102114,-0.07316174132935699,1.0103852760530436,0.5361383205020549,0.8858605690002441,40.22264028167724,-1.5256897163391112,-23.44614456176758,0.49565107345581055,0.3941607322692871,0.15152326202392577,0.8895913560350799,8.10306716413852,-0.4267080325925763,-5.2873380337975595,-0.03772868803142368,0.3822363105507846,0.15095795254569858,-2.109666242223949,3.186136251942778,16.603014666813984
1688474855.050,0.28560894670721027,0.2871877485320348,0.22026376202576034,-1.8518049490586668,-0.07307194187041385,1.0101978946683894,0.5360522827512486,0.2856171107029526,0.28722249945552214,0.22033722391572447,-1.8517725721102114,-0.07316174132935699,1.0103852760530436,0.5361383205020549,0.8898933181762695,40.22667303085327,-1.5336130905151366,-23.447024936676026,0.4930099487304687,0.3944944839477539,0.1505220069885254,0.8884635732185961,8.103585152831783,-0.4283910481459389,-5.28396614369052,-0.03740060114374798,0.3818854535730035,0.15090447370349253,-2.120217044837365,3.187940744164635,16.5969614464619
1688474855.150,0.28560894670721027,0.2871877485320348,0.22026376202576034,-1.8518050689409695,-0.07307194187041385,1.0101978946683894,0.5360522827512486,0.2856171107029526,0.28722249945552214,0.22033722391572447,-1.8517725721102114,-0.07316174132935699,1.0103852760530436,0.5361383205020549,0.8966145668029785,40.207853534698486,-1.534493465423584,-23.451426811218262,0.48948844909667966,0.3961632423400879,0.15185701370239257,0.8899247834180175,8.094986812614149,-0.42712854156174207,-5.282743427801185,-0.03732011615754274,0.38169409708122815,0.1513860649820668,-2.10460171770089,3.1844813891135573,16.589446025951172
1688474855.249,0.28560894670721027,0.28718762875881493,0.22026376202576034,-1.8518050689409695,-0.07307194187041385,1.0101978946683894,0.5360522228646386,0.2856171107029526,0.28722249945552214,0.22033722391572447,-1.8517725721102114,-0.07316174132935699,1.0103852760530436,0.5361383205020549,0.8979588165283203,40.21726328277588,-1.5300915908813477,-23.460230560302733,0.4947706985473633,0.3954957389831543,0.15018825531005858,0.8900841936351407,8.099195139398352,-0.42821236992571843,-5.2860361898958725,-0.03656733666641919,0.3814585200283398,0.15118867249307125,-2.1100879525045895,3.1862773227602363,16.602190980518518
1688474855.349,0.28560894670721027,0.28718768864542493,0.22026376202576034,-1.8518049490586668,-0.07307194187041385,1.0101978346726963,0.5360522827512486,0.2856171107029526,0.28722249945552214,0.22033722391572447,-1.8517725721102114,-0.07316174132935699,1.0103852760530436,0.5361383205020549,0.8858605690002441,40.2212960319519,-1.5327327156066894,-23.43205856323242,0.493890323638916,0.39382698059082033,0.15185701370239257,0.8892089655119383,8.096849472274373,-0.4284070957738783,-5.284951045931674,-0.03713021344057815,0.3816455620399714,0.15153164545981648,-2.1090716937101828,3.184376278972437,16.59944486353611
1688474855.449,0.28560894670721027,0.28718762875881493,0.22026376202576034,-1.8518050689409695,-0.07307194187041385,1.0101978346726963,0.5360521629780287,0.2856171107029526,0.28722249945552214,0.22033722391572447,-1.8517725721102114,-0.07316174132935699,1.0103852760530436,0.5361383205020549,0.8845163192749024,40.223984531402586,-1.531852340698242,-23.451426811218262,0.493890323638916,0.3941607322692871,0.1491870002746582,0.8906227757580367,8.103271883184167,-0.4285174597520968,-5.283952934466212,-0.03627836527490516,0.3813936831485023,0.15108783366128364,-2.1176895671382,3.190746834562654,16.60294893175953
1688474855.549,0.28560894670721027,0.28718762875881493,0.22026376202576034,-1.8518050689409695,-0.07307194187041385,1.0101978346726963,0.5360522827512486,0.2856171107029526,0.28722249945552214,0.22033722391572447,-1.8517725721102114,-0.07316174132935699,1.0103852760530436,0.5361383205020549,0.8845163192749024,40.21054203414917,-1.5265700912475586,-23.462871685028077,0.49741182327270506,0.3974982490539551,0.15152326202392577,0.8909915874093403,8.09682628418617,-0.4275539707596265,-5.281570082213061,-0.037411843980281356,0.38166809148074654,0.15110339107254875,-2.109803037879742,3.1880159499110805,16.590823206048135
1688474855.649,0.28560894670721027,0.2871877485320348,0.22026376202576034,-1.8518049490586668,-0.07307194187041385,1.0101978346726963,0.5360522827512486,0.2856171107029526,0.28722249945552214,0.22033722391572447,-1.8517725721102114,-0.07316174132935699,1.0103852760530436,0.5361383205020549,0.8912375679016113,40.223984531402586,-1.5327327156066894,-23.46111093521118,0.4947706985473633,0.3964969940185547,0.15319202041625976,0.8905986732810673,8.101289256365922,-0.4257231433327202,-5.287813996436659,-0.036897150996377595,0.38222805245648145,0.15113475972054558,-2.102772075467791,3.1855057866992924,16.602348342594077
1688474855.750,0.28560894670721027,0.28718762875881493,0.22026376202576034,-1.8518050689409695,-0.07307194187041385,1.0101978346726963,0.5360523427469416,0.2856171107029526,0.28722249945552214,0.22033722391572447,-1.8517725721102114,-0.07316174132935699,1.0103852760530436,0.5361383205020549,0.8845163192749024,40.21995178222656,-1.5221682167053223,-23.44526418685913,0.49741182327270506,0.39282572555541995,0.15185701370239257,0.8900465334063419,8.095572164068038,-0.4251623432522752,-5.284098725862474,-0.03692608843455858,0.3816856232973648,0.15112304981980584,-2.1072444262753103,3.186330943829913,16.596762781535805
1688474855.850,0.28560894670721027,0.2871877485320348,0.22026376202576034,-1.8518050689409695,-0.07307194187041385,1.0101978346726963,0.5360521629780287,0.2856171107029526,0.28722249945552214,0.22033722391572447,-1.8517725721102114,-0.07316174132935699,1.0103852760530436,0.5361383205020549,0.8912375679016113,40.23339427947998,-1.5265700912475586,-23.462871685028077,0.4921295738220215,0.3948282356262207,0.1505220069885254,0.8893386409890844,8.096535680069282,-0.4267480286167143,-5.284254858697937,-0.037870703371614314,0.3815101487152838,0.1513753600847587,-2.1033519443872555,3.183376462463765,16.589930455326254
1688474855.950,0.28560894670721027,0.2871877485320348,0.22026376202576034,-1.8518049490586668,-0.07307194187041385,1.0101978346726963,0.5360521629780287,0.2856171107029526,0.28722249945552214,0.22033722391572447,-1.8517725721102114,-0.07316174132935699,1.0103852760530436,0.5361383205020549,0.8764508209228515,40.2145747833252,-1.5371345901489257,-23.47519693374634,0.4947706985473633,0.39883325576782225,0.15152326202392577,0.8886978640202691,8.097642041192422,-0.42693685404363985,-5.283093240059957,-0.037619048153848575,0.38129276458075095,0.15149418467452835,-2.1070502416992314,3.183251365690975,16.594937488714315
1688474856.050,0.28560894670721027,0.2871877485320348,0.22026376202576034,-1.8518050689409695,-0.07307194187041385,1.0101978346726963,0.5360522827512486,0.2856171107029526,0.28722249945552214,0.22033722391572447,-1.8517725721102114,-0.07316174132935699,1.0103852760530436,0.5361383205020549,0.8966145668029785,40.21995178222656,-1.5195270919799804,-23.457589435577393,0.4947706985473633,0.3951619873046875,0.15252451705932618,0.8911717470689815,8.099156251448411,-0.4271511396175798,-5.28581069460124,-0.037888321959677285,0.38167610508626704,0.15130244698799483,-2.1098331086394895,3.1902318906470932,16.601963310414547
1688474856.149,0.28560894670721027,0.28718762875881493,0.22026376202576034,-1.8518049490586668,-0.07307194187041385,1.0101978346726963,0.5360522827512486,0.2856171107029526,0.28722249945552214,0.22033722391572447,-1.8517725721102114,-0.07316174132935699,1.0103852760530436,0.5361383205020549,0.8818278198242188,40.223984531402586,-1.531852340698242,-23.44790531158447,0.4947706985473633,0.3931594772338867,0.15018825531005858,0.8883777924611398,8.096064427061613,-0.42693235421529285,-5.28434194699785,-0.03808971179033724,0.38166033509524955,0.15096805133187435,-2.1047989936720315,3.1803038858849337,16.592391838903882
1688474856.283,0.28560894670721027,0.2871877485320348,0.22026376202576034,-1.8518049490586668,-0.07307184587730499,1.0101978346726963,0.5360522228646386,0.2856171107029526,0.28722249945552214,0.22033722391572447,-1.8517725721102114,-0.07316174132935699,1.0103852760530436,0.5361383205020549,0.8858605690002441,40.22532878112793,-1.5300915908813477,-23.456709060668945,0.4930099487304687,0.3964969940185547,0.1508557586669922,0.8893363658357374,8.099515624693119,-0.42696641606771174,-5.284855306231717,-0.03791751610842416,0.38151917722673073,0.1512361913758802,-2.1062737050884506,3.1841206438926544,16.600018377524886
1688474856.349,0.28560894670721027,0.2871877485320348,0.22026376202576034,-1.8518050689409695,-0.07307194187041385,1.0101978946683894,0.5360522228646386,0.2856171107029526,0.28722249945552214,0.22033722391572447,-1.8517725721102114,-0.07316174132935699,1.0103852760530436,0.5361383205020549,0.8912375679016113,40.20919778442383,-1.5371345901489257,-23.463752059936525,0.493890323638916,0.39849950408935547,0.15152326202392577,0.891112494518755,8.09838727337894,-0.42694598660770633,-5.284207326323825,-0.038376499374864426,0.381372391169875,0.15138512251707834,-2.107552977248639,3.1885131100029214,16.594146383266246
1688474856.515,0.28560960589625217,0.28723999976284875,0.22026753706384936,-1.8518084244455397,-0.07307405110081489,1.0101984339751282,0.536054739520337,0.28560894670721027,0.2871877485320348,0.22026376202576034,-1.8518050689409695,-0.07307194187041385,1.0101978946683894,0.5360522827512486,0.8858605690002441,39.6231049041748,-1.4922354698181153,-23.240136833190917,0.510617446899414,0.3838144302368164,0.14284571838378907,0.8885458293670578,7.888942347813316,-0.424188870956611,-5.2240777713868365,-0.027626840754955646,0.380240248461953,0.1447593976671539,-1.8521500072431,3.0256698354120894,16.23100586145242
1688474856.571,0.2856097257785551,0.28750646899722776,0.22026753706384936,-1.851810222134669,-0.07307366747744529,1.0101980744373023,0.536054739520337,0.28560895180873735,0.28718775758056214,0.220263763457299,-1.8518050595801014,-0.07307194485666461,1.0101978954582995,0.5360522896590406,0.8656968231201172,40.66758694076538,-1.5556224632263183,-23.572038173675537,0.5088566970825196,0.3968307456970215,0.14351322174072265,0.8992002142340496,8.171340191113686,-0.41968835245559166,-5.320777166885007,-0.02493558656240502,0.38201799952073856,0.14301435471009943,-2.151170092589568,3.1991714719540276,16.728538044302326
1688474856.654,0.2860298327472457,0.28785407149813186,0.220309661676177,-1.8513632704749197,-0.07316167971923439,1.010199812130739,0.5365839029510059,0.28616459654190324,0.2881732990408794,0.22041968283042626,-1.8507854987386987,-0.07339719932917854,1.0102839303677387,0.5368046679487949,-0.07124523544311523,38.514098880767826,-2.2088606452941892,-24.438327083587644,0.7395149230957031,0.570047866821289,0.05974155044555664,0.7149548455015733,8.30387352085263,-0.5506428826561642,-5.647830692263521,0.07415933912486539,0.4411907720747875,0.09816789607318335,-1.7349338299456893,2.4052654527611743,17.04913174176109
1688474856.796,0.2929327462927311,0.3000575478002625,0.22228178566524326,-1.8382468358939328,-0.0774179970618463,1.0114828432610372,0.5462539141797299,0.2936905992333298,0.3015220941254626,0.222531553152881,-1.8369759237018766,-0.07780265103136802,1.011449241440348,0.5469953540035312,-1.4007082138061524,35.76779669189453,-3.0945178031921388,-24.084416370391846,0.7315915489196777,0.5566977996826172,-0.1695458526611328,0.07127161497185364,7.51108215705966,-1.0160249304621005,-5.979966399849702,0.2132662771064593,0.4623077919970112,-0.15612843521636188,0.2562382518767805,-0.8855299644834957,16.02117103736582
1688474856.864,0.31251652776033106,0.33484122130006977,0.227739521538766,-1.8024971739221936,-0.088772235114432,1.0142582099870228,0.5724558639613403,0.3133549909358718,0.33640062740040344,0.2280495747306613,-1.8008934369019358,-0.08931347974754321,1.0144940361775598,0.5736221903885688,0.07796648406982422,42.46753732299805,-2.5601302337646485,-24.158367862701414,0.8363561630249023,0.2646650810241699,-0.14251196670532226,0.2309406087043977,8.42200130001046,-0.972844668323829,-5.954888783979981,0.30714466126460016,0.30618525027184373,-0.1687482094142051,-1.0118972652805356,0.3952585192651136,17.301888176113582
1688474856.965,0.33698747613410895,0.3783254420607128,0.23463296754572394,-1.7578292114125704,-0.10311706482064686,1.0180875293429084,0.6053982212089458,0.33781401657998905,0.37978335455034595,0.23491301771518408,-1.7560132044852275,-0.10363091498850088,1.0182812223608433,0.6067412659142642,0.7769763412475585,45.41009997177124,-2.2599223899841308,-22.378249797821045,0.9111880302429199,-0.20926230239868163,-0.14618323516845702,0.8195376660975751,8.755361248306768,-0.6497473951582317,-5.477324447498134,0.3691732219970598,0.050261311038148376,-0.16587366675307438,-1.739579807748549,2.169499141002524,17.33243438696883
1688474857.067,0.36144853743584054,0.4217795823989469,0.24157860489688582,-1.7126438897885077,-0.11747359102537688,1.0218123462371662,0.6385588711494216,0.36216956331946354,0.4229825422105633,0.24174742350205022,-1.7113228470601962,-0.11788777739480902,1.0220523860793063,0.6397202244251592,-0.2742269439697266,45.881931625366214,-3.0144036865234374,-23.73490753173828,0.89181978225708,0.0106800537109375,-0.16487332916259764,0.5067635520734921,8.601474784510385,-0.8977162193698303,-5.362939798722435,0.3661563173665474,-0.056598561839856856,-0.16419263222691477,-1.1882657175647642,1.1013556944143201,16.90906196765092
1688474857.167,0.3859184671918337,0.4652464260070586,0.24845539282696427,-1.6677650047841963,-0.1317481450492602,1.0256547883964482,0.6719079730158812,0.38676625408606136,0.4666094446000897,0.24864949667294475,-1.6661900108487782,-0.13228579685464498,1.0258608880524074,0.6730257072777461,-0.0887204818725586,48.43869460296631,-3.4149742698669434,-25.011451148986815,1.0265171432495117,0.2583237991333008,-0.1598670539855957,0.09278850577458454,8.289176414639872,-1.1868933929578014,-5.816989189209433,0.36842071589565617,0.05231095082413381,-0.1750423996462965,0.49903539444300204,-0.8692278327881413,16.4668023578485
1688474857.268,0.4105035652255968,0.5088174725346652,0.2553559094899713,-1.622687661117718,-0.14629028300568253,1.0295368982898867,0.7052175868080146,0.41136294485265923,0.5102363469896161,0.2555515698438393,-1.6210571746373603,-0.1466838163144809,1.0296693900255085,0.7063311901303332,0.8562870750427246,52.326264808654784,-3.1015608024597165,-23.067583351135255,0.9402404022216797,-0.13950820159912108,-0.2129335708618164,0.38063721272710593,8.905625139176443,-1.0481884301373645,-5.615815645730016,0.4079645847119052,0.037726568317318146,-0.18545811075026647,-0.5777729341168631,0.7215270224860332,16.80643705700264
1688474857.370,0.43489709559341166,0.5520255767534888,0.26220249722442096,-1.57782813072398,-0.16041728724366808,1.0334353067223787,0.7381531130550941,0.4359596356192572,0.5538632493791427,0.26245364301473384,-1.5759243384259425,-0.1610818357743169,1.0334778919986098,0.7396366729829202,0.694977108001709,54.59939109420776,-3.782090606689453,-23.565875549316406,0.9261544036865235,-0.12248686599731445,-0.2453074836730957,0.7056777912973642,9.822308612411861,-0.9865352642175389,-5.342804296535851,0.391146090368111,-0.1025074824527839,-0.1879770267573804,-1.921913521775223,2.423146924826619,17.75058510751086
1688474857.470,0.45869740665626463,0.5941951880325941,0.26892193226870886,-1.534163307655664,-0.1744671131966634,1.0371833131519093,0.7703136794076169,0.45923162428106235,0.5951405410031642,0.26898399175555443,-1.533222217943395,-0.17470442219463223,1.0370812797704654,0.7711484249773759,1.5781491775512695,58.24634059906006,-3.1746319198608397,-24.475302829742432,1.1682575035095215,0.040050201416015625,-0.1508557586669922,0.4844523097359418,10.254204385198143,-1.0258801689100836,-5.596236562583634,0.4870081022869362,-0.14534336000979275,-0.21425165917643643,-1.4790206590761636,1.5912943961949086,18.05560543336216
1688474857.571,0.4741012103046378,0.6216612937540579,0.27318777701464153,-1.5061989576657289,-0.18335557312037762,1.0393760068340208,0.7910315880404677,0.47414461083378334,0.6215915548751358,0.2731687223504207,-1.5058581556029011,-0.18343394896828802,1.0393903765205046,0.791341556753745,3.2786250801086427,62.25758177947998,-2.6270387268066404,-23.749873905181886,1.2606968688964844,-0.35444428253173826,-0.14217821502685546,0.9102040867647279,10.496271258904352,-0.7745754908535699,-5.758700407245352,0.6709123309108154,-0.14048745934987822,-0.15203289789775754,-0.8908694271045278,2.344895206400441,18.370060004003744
1688474857.711,0.47802322769683847,0.6286418650701123,0.2743471309507344,-1.498556198068575,-0.185801984901336,1.04014143930344,0.7966856254582853,0.4782277708104643,0.6288338145528233,0.2743144971700884,-1.4983659042183035,-0.18582408418443308,1.0400226047732903,0.7968704149191853,-0.0833434829711914,57.20857981109619,-4.447654037475586,-24.535168323516846,1.0546891403198242,0.2606600608825684,-0.10746804046630859,0.09055882901573961,9.945651003888408,-1.2932633296901743,-6.1119803293043375,0.5688537331835076,0.1340222091298522,-0.11472260023491308,0.18525743156216942,-0.3531850794699508,17.28445304644129
1688474857.748,0.47808308889044016,0.6286091482187851,0.27435587941361,-1.4982652810256158,-0.1859131025098947,1.0401423381480048,0.7969951780361667,0.47824232810730827,0.6288596346834456,0.2743185820906552,-1.498339192816336,-0.18583260550322472,1.0400248587957635,0.7968901264244858,-0.08199923324584961,58.05008013916016,-4.4731849098205565,-24.657540435791017,1.0221152687072754,0.27567888641357424,-0.10012550354003906,0.0027939528082725025,10.198314856437783,-1.4099356052819667,-6.150458815817302,0.4892178744161268,0.17949730551246257,-0.10864811056206583,-0.2979830596415316,-0.12660737558851762,17.62717071189012
1688474857.853,0.47825554192858666,0.628757572763704,0.27437313668383834,-1.4982694754881405,-0.18591348613326433,1.0401429373413535,0.7969859501531621,0.47824232836806907,0.6288596351459543,0.2743185821638272,-1.4983391923378622,-0.18583260565586474,1.0400248588361392,0.7968901267775723,0.0887204818725586,57.648149471282956,-4.400994167327881,-24.422480335235594,1.0018666458129883,0.23028865814208985,-0.062077812194824215,-0.052179249643868705,10.071934160588462,-1.417286802963178,-6.122050433146642,0.46154736660626994,0.21586986062126617,-0.06329024492302268,-0.18723874902376458,-0.21599649096552842,17.37217519336739
1688474857.955,0.47824942989462926,0.6289520168413425,0.2743839224913664,-1.4982689960680118,-0.1859135819518402,1.0401430572236567,0.7969859501531621,0.47824232836806907,0.6288596351459543,0.2743185821638272,-1.4983391923378622,-0.18583260565586474,1.0400248588361392,0.7968901267775723,0.1330807228088379,57.79870544052124,-4.444132537841797,-24.20590810775757,1.0018666458129883,0.20525728225708006,-0.06040905380249023,0.10855231824506939,10.166605555276174,-1.402618629257523,-6.129187740319839,0.45837826776225277,0.21565510010842645,-0.06271941897004882,-0.24513007132591447,0.1607064165041453,17.523838019785508
1688474858.055,0.4782451155498014,0.6288641724565942,0.2743921316475032,-1.4982695952613607,-0.1859139654006769,1.0401435365347025,0.7969857104976393,0.47824232836806907,0.6288596351459543,0.2743185821638272,-1.4983391923378622,-0.18583260565586474,1.0400248588361392,0.7968901267775723,0.21373570632934571,57.58362548446655,-4.318238925933838,-24.320356845855713,1.0027470207214355,0.2266173896789551,-0.06141030883789062,0.09186266883847646,10.081737308017498,-1.3774949895517885,-6.0732192355505985,0.45526126840686465,0.2126448689154185,-0.061777371937799044,-0.24225018621326322,0.1328053909345418,17.371156191420194
1688474858.156,0.47824481600766855,0.6288519486068456,0.27439428887445866,-1.4982701945637922,-0.18591406121925286,1.0401436564170057,0.7969858302708591,0.47824232836806907,0.6288596351459543,0.2743185821638272,-1.4983391923378622,-0.18583260565586474,1.0400248588361392,0.7968901267775723,0.15324446868896485,57.78795144271851,-4.38514741897583,-24.388145713806153,1.0071488952636718,0.22594988632202148,-0.06141030883789062,0.10975476164808266,10.12018861239973,-1.3838157870304109,-6.089528077090549,0.45624141416063524,0.21312224529906715,-0.06092584367702916,-0.2557955616169068,0.17886629372944784,17.43795372919501
1688474858.258,0.4782443965832326,0.6288479937998436,0.27439608645450514,-1.4982701345680993,-0.18591425303093767,1.0401437761902255,0.7969858302708591,0.47824232836806907,0.6288596351459543,0.2743185821638272,-1.4983391923378622,-0.18583260565586474,1.0400248588361392,0.7968901267775723,0.09409748077392578,57.79198419189453,-4.469663410186768,-24.374059715270995,1.0001058959960938,0.2249486312866211,-0.06040905380249023,0.11861996391577753,10.17398095243977,-1.3938188617948768,-6.094611141067515,0.45675671568090326,0.2129128194648665,-0.060349701690196385,-0.325389276177523,0.24963491533585586,17.514038181002725
1688474858.358,0.4782445763521456,0.6288451176063193,0.2743980639125476,-1.4982698350259664,-0.1859145406611984,1.0401440758414413,0.7969859501531621,0.47824232836806907,0.6288596351459543,0.2743185821638272,-1.4983391923378622,-0.18583260565586474,1.0400248588361392,0.7968901267775723,0.11963822555541992,57.72073895645141,-4.429166164398193,-24.33796434402466,0.9957040214538574,0.22561613464355468,-0.060075302124023434,0.12715682632254843,10.164015232040786,-1.383378901673626,-6.084815021610286,0.4572292872812476,0.2114495068678376,-0.05985240471320272,-0.3266530683523857,0.26881335737552375,17.497153146475373
1688474858.494,0.4782446961253655,0.6288431401482769,0.2743989627571124,-1.4982697750302734,-0.18591463647977433,1.0401443754926574,0.7969858302708591,0.47824232836806907,0.6288596351459543,0.2743185821638272,-1.4983391923378622,-0.18583260565586474,1.0400248588361392,0.7968901267775723,0.15324446868896485,57.78391869354248,-4.427405414581298,-24.329160594940184,0.9957040214538574,0.22194486618041992,-0.05940779876708984,0.13775216765942452,10.161454374777964,-1.367811296306659,-6.07165690863067,0.45662332833699043,0.20940796821546082,-0.05988939442051405,-0.3504489493537481,0.3145705556945162,17.486850204635054
1688474858.563,0.4782445163564526,0.6288416421103634,0.2743998614925941,-1.4982698350259664,-0.1859148282914591,1.0401443754926574,0.7969858302708591,0.47824232836806907,0.6288596351459543,0.2743185821638272,-1.4983391923378622,-0.18583260565586474,1.0400248588361392,0.7968901267775723,0.10619572830200195,57.734181453704835,-4.469663410186768,-24.334442844390868,0.9965843963623047,0.2236136245727539,-0.06074280548095703,0.13154783791276634,10.157101282761241,-1.377768248331392,-6.066012275948965,0.45711109111940107,0.20888911126590898,-0.05942207829008203,-0.3591970145971999,0.30434541410519733,17.47508816745294
1688474858.663,0.4782445163564526,0.6288406234925787,0.2744007603371589,-1.4982697151436635,-0.18591511592171986,1.0401445552615702,0.7969858302708591,0.47824232836806907,0.6288596351459543,0.2743185821638272,-1.4983391923378622,-0.18583260565586474,1.0400248588361392,0.7968901267775723,0.12501522445678712,57.75300094985962,-4.45293628692627,-24.33356246948242,0.9983451461791992,0.22394737625122071,-0.05773904037475586,0.13371846298891188,10.169950373751169,-1.3679654772766754,-6.066789329629074,0.4580434478904654,0.20873258166686337,-0.059334863163409114,-0.37552686468600416,0.3280140045740863,17.491693723193727
1688474858.766,0.4782443965832326,0.628839425105881,0.27440147941281073,-1.4982697151436635,-0.18591521174029574,1.0401447949170932,0.7969857104976393,0.47824232836806907,0.6288596351459543,0.2743185821638272,-1.4983391923378622,-0.18583260565586474,1.0400248588361392,0.7968901267775723,0.12367097473144531,57.73149295425415,-4.43356803894043,-24.330040969848632,1.0027470207214355,0.22094361114501954,-0.05874029541015625,0.14840369649137167,10.17184184329687,-1.3530019275315524,-6.068666414464481,0.45943546578088756,0.20790193438335206,-0.059004191417576395,-0.3600782306526566,0.34596560867299714,17.492337448287543
1688474858.868,0.4782445763521456,0.6288385262613162,0.27440219848846253,-1.4982696552570534,-0.18591530773340462,1.0401447949170932,0.7969858302708591,0.47824232836806907,0.6288596351459543,0.2743185821638272,-1.4983391923378622,-0.18583260565586474,1.0400248588361392,0.7968901267775723,0.13980197143554687,57.72611595535278,-4.423003540039063,-24.335323219299315,1.003627395629883,0.22261236953735353,-0.06141030883789062,0.14405560668517425,10.162017149388417,-1.3545183035802104,-6.061984244038457,0.45785241872594784,0.2073932326098245,-0.05905885834310508,-0.35869177896241444,0.34249476154505476,17.472175860945963
1688474858.969,0.4782446961253655,0.6288377472990544,0.27440273768611834,-1.4982697151436635,-0.18591540355198058,1.0401451544549192,0.7969858302708591,0.47824232836806907,0.6288596351459543,0.2743185821638272,-1.4983391923378622,-0.18583260565586474,1.0400248588361392,0.7968901267775723,0.15055596923828124,57.7650991973877,-4.421242790222168,-24.330040969848632,0.9948236465454101,0.22194486618041992,-0.05974155044555664,0.144977090758686,10.173464560675079,-1.3567477250539088,-6.060267066558341,0.45672545623706107,0.2068289169394399,-0.059006315327882544,-0.3859344448101806,0.3673548854348258,17.49496185980324
1688474859.070,0.4782445763521456,0.6288370282234027,0.27440333698855024,-1.4982694154924474,-0.1859156911822413,1.0401451544549192,0.7969858302708591,0.47824232836806907,0.6288596351459543,0.2743185821638272,-1.4983391923378622,-0.18583260565586474,1.0400248588361392,0.7968901267775723,0.13845772171020507,57.750312450408934,-4.422123165130615,-24.30803159713745,0.9930628967285157,0.21660483932495117,-0.05840654373168945,0.1466085318571712,10.17015024880598,-1.3532755000099381,-6.0561891986208956,0.45617837993632837,0.20636777085207547,-0.058389776802916404,-0.3907973816666556,0.37237087290452253,17.487956869871862
1688474859.170,0.4782445763521456,0.6288363091477509,0.274403876186206,-1.4982695952613607,-0.18591588281939314,1.040145274228139,0.7969858302708591,0.47824232836806907,0.6288596351459543,0.2743185821638272,-1.4983391923378622,-0.18583260565586474,1.0400248588361392,0.7968901267775723,0.15593296813964844,57.7650991973877,-4.4080371665954585,-24.32211759567261,1.000986270904541,0.21693859100341797,-0.05773904037475586,0.15140444719545074,10.166579422177199,-1.3467210977017032,-6.054004250333303,0.457076948870203,0.20601316507316092,-0.05857728390985055,-0.38862928092316035,0.38224604449760713,17.48577793824903
1688474859.302,0.4782445763521456,0.6288357698410119,0.27440429571972497,-1.4982695952613607,-0.18591588281939314,1.0401455738793548,0.7969858302708591,0.47824232836806907,0.6288596351459543,0.2743185821638272,-1.4983391923378622,-0.18583260565586474,1.0400248588361392,0.7968901267775723,0.15324446868896485,57.74627970123291,-4.405396041870117,-24.3238783454895,0.9965843963623047,0.21793984603881836,-0.05874029541015625,0.1481047036933289,10.1665512017689,-1.3513674349622167,-6.0555634870686585,0.45485689808316676,0.20529147403813403,-0.05854738039904333,-0.3811104104023766,0.3752766631368118,17.487200708546712
1688474859.373,0.4782445763521456,0.628835170647663,0.2744047151441608,-1.4982694154924474,-0.18591588281939314,1.0401455738793548,0.7969859501531621,0.47824232836806907,0.6288596351459543,0.2743185821638272,-1.4983391923378622,-0.18583260565586474,1.0400248588361392,0.7968901267775723,0.14786746978759766,57.77047619628906,-4.403635292053223,-24.309792346954346,0.997464771270752,0.21526983261108398,-0.06074280548095703,0.14908113256643732,10.169755253694774,-1.354536828774154,-6.052987559474346,0.45477760130990097,0.2047886467179504,-0.058239670721492096,-0.39913578021328977,0.38357578571929263,17.491326708952
1688474859.443,0.4782445763521456,0.6288346913366173,0.27440495479968374,-1.4982694154924474,-0.18591607463107795,1.0401455738793548,0.7969858302708591,0.47824232836806907,0.6288596351459543,0.2743185821638272,-1.4983391923378622,-0.18583260565586474,1.0400248588361392,0.7968901267775723,0.15055596923828124,57.75434519958496,-4.401874542236328,-24.308911972045898,0.9983451461791992,0.21526983261108398,-0.05874029541015625,0.1447188287488226,10.164819767695736,-1.3596548867295373,-6.056121816322873,0.453752955869138,0.20533468000163896,-0.057816573380709085,-0.3869141189295837,0.36348108955883474,17.484752972439427
1688474859.542,0.4782445763521456,0.6288342718030984,0.27440543421981267,-1.4982694154924474,-0.18591626644276274,1.0401458734214877,0.7969858302708591,0.47824232836806907,0.6288596351459543,0.2743185821638272,-1.4983391923378622,-0.18583260565586474,1.0400248588361392,0.7968901267775723,0.14652322006225585,57.744935451507565,-4.415960540771485,-24.308911972045898,0.9983451461791992,0.21827359771728516,-0.05740528869628906,0.14127056675304261,10.168120119359628,-1.3600781747109698,-6.053057789621191,0.45503818178147837,0.20520350841755325,-0.05821183466572326,-0.3995261616475796,0.37078723416733317,17.490519732063824
1688474859.644,0.4782445763521456,0.6288337924920525,0.27440579375763857,-1.4982694154924474,-0.18591626644276274,1.0401458734214877,0.7969859501531621,0.47824232836806907,0.6288596351459543,0.2743185821638272,-1.4983391923378622,-0.18583260565586474,1.0400248588361392,0.7968901267775723,0.13576922225952148,57.73552570343018,-4.428285789489746,-24.320356845855713,0.9895413970947265,0.21960860443115235,-0.05840654373168945,0.14352525786490372,10.165245659588482,-1.3581288839797607,-6.050119212718149,0.45371815367778334,0.20458640717083787,-0.0574255245042819,-0.4012977606079302,0.3789680042281759,17.48857263295358
1688474859.747,0.4782445763521456,0.6288334329542267,0.27440609329977145,-1.4982693556058373,-0.1859164580799146,1.0401458734214877,0.7969861299220752,0.47824232836806907,0.6288596351459543,0.2743185821638272,-1.4983391923378622,-0.18583260565586474,1.0400248588361392,0.7968901267775723,0.1371134719848633,57.75434519958496,-4.4168409156799315,-24.302749347686767,0.9992255210876465,0.2139348258972168,-0.06040905380249023,0.1474511116238878,10.165301043859934,-1.3545314407452103,-6.049875220644344,0.4547876716808896,0.20467103585968802,-0.057301959079834916,-0.39631753284094334,0.3806411880759857,17.47957563387437
1688474859.846,0.4782445763521456,0.6288330734164007,0.2744063929509874,-1.4982693556058373,-0.18591655407302346,1.0401459933037907,0.7969859501531621,0.47824232836806907,0.6288596351459543,0.2743185821638272,-1.4983391923378622,-0.18583260565586474,1.0400248588361392,0.7968901267775723,0.13980197143554687,57.750312450408934,-4.41419979095459,-24.306270847320555,0.9992255210876465,0.21627108764648437,-0.05506902694702148,0.1449554673420791,10.163071310859833,-1.3530028451613283,-6.045305252840261,0.4553265776430353,0.20384561689661854,-0.05736179610339415,-0.40746379984655706,0.38403485115829317,17.477835920881482
1688474859.946,0.4782445763521456,0.6288325341096618,0.2744067524888133,-1.4982693556058373,-0.18591664989159942,1.0401461730727037,0.7969858302708591,0.47824232836806907,0.6288596351459543,0.2743185821638272,-1.4983391923378622,-0.18583260565586474,1.0400248588361392,0.7968901267775723,0.14786746978759766,57.74896820068359,-4.415960540771485,-24.313313846588134,0.9921825218200684,0.21860734939575197,-0.05740528869628906,0.14752516980678146,10.171870886465783,-1.3530779381512628,-6.048928180426124,0.4555382905986065,0.203908291979502,-0.057103352265531586,-0.4061635628224883,0.39187601866337457,17.483682411469154
1688474860.048,0.4782445763521456,0.628832054798616,0.2744069921443362,-1.4982693556058373,-0.18591664989159942,1.0401461730727037,0.7969858302708591,0.47824232836806907,0.6288596351459543,0.2743185821638272,-1.4983391923378622,-0.18583260565586474,1.0400248588361392,0.7968901267775723,0.14652322006225585,57.74359120178222,-4.4177212905883785,-24.30098859786987,0.9930628967285157,0.2156035842895508,-0.056737785339355466,0.1513751025796083,10.169012578333449,-1.3498788745665116,-6.0513630060060315,0.4541063765561263,0.20388077688540643,-0.057344763565230876,-0.39501214305000787,0.38897175907711135,17.488831100353856
1688474860.183,0.4782445763521456,0.62883181503401,0.2744074115687721,-1.4982693556058373,-0.18591693752186014,1.0401463528416168,0.7969858302708591,0.47824232836806907,0.6288596351459543,0.2743185821638272,-1.4983391923378622,-0.18583260565586474,1.0400248588361392,0.7968901267775723,0.14383472061157226,57.75434519958496,-4.415080165863037,-24.306270847320555,0.9930628967285157,0.2156035842895508,-0.05740528869628906,0.1488384855226142,10.168059437779966,-1.353086119792902,-6.047543136601224,0.4531021150385103,0.20495727180258488,-0.056859483737722316,-0.4054231803848958,0.3928923008725031,17.483404832267027
1688474860.253,0.4782445163564526,0.628831455496184,0.274407651224295,-1.4982693556058373,-0.1859170333404361,1.0401461131860938,0.7969857104976393,0.47824232836806907,0.6288596351459543,0.2743185821638272,-1.4983391923378622,-0.18583260565586474,1.0400248588361392,0.7968901267775723,0.14786746978759766,57.75837794876099,-4.412439041137695,-24.308911972045898,0.9965843963623047,0.2156035842895508,-0.056737785339355466,0.14893295823870786,10.16768852634323,-1.3510207202373201,-6.04887628447397,0.45406674920866696,0.204364952702828,-0.05657728396093116,-0.4038959643406695,0.3912396734859141,17.482364800994713
1688474860.354,0.4782445763521456,0.6288310360717482,0.2744078309932079,-1.4982692957192278,-0.1859170333404361,1.0401464727239196,0.7969858302708591,0.47824232836806907,0.6288596351459543,0.2743185821638272,-1.4983391923378622,-0.18583260565586474,1.0400248588361392,0.7968901267775723,0.14383472061157226,57.728804454803466,-4.409797916412353,-24.2921848487854,0.9957040214538574,0.21526983261108398,-0.05740528869628906,0.14834218087722623,10.165853629687852,-1.3536101922399566,-6.047689884773634,0.45217158533653484,0.20427323057563124,-0.05660544700928081,-0.4038592517732875,0.390066768498904,17.48151380029312
1688474860.454,0.4782445763521456,0.6288307365296153,0.2744082505267269,-1.4982693556058373,-0.18591722515212086,1.0401464727239196,0.7969859501531621,0.47824232836806907,0.6288596351459543,0.2743185821638272,-1.4983391923378622,-0.18583260565586474,1.0400248588361392,0.7968901267775723,0.15324446868896485,57.739558452606204,-4.401874542236328,-24.300108222961427,1.0018666458129883,0.2159373359680176,-0.05940779876708984,0.15047450541383695,10.160700389658784,-1.348348148857029,-6.044556378532193,0.4547452973202545,0.2034980084498178,-0.056912109294436394,-0.40467543290847974,0.39558963044963547,17.480884530544905
1688474860.555,0.4782445763521456,0.6288304967650094,0.2744084302956398,-1.4982694154924474,-0.18591732097069683,1.0401464727239196,0.7969858302708591,0.47824232836806907,0.6288596351459543,0.2743185821638272,-1.4983391923378622,-0.18583260565586474,1.0400248588361392,0.7968901267775723,0.15458871841430663,57.75434519958496,-4.405396041870117,-24.32211759567261,0.9983451461791992,0.21960860443115235,-0.05640403366088867,0.14988670738919244,10.164290478811935,-1.349529749698605,-6.045162532118699,0.4532701879700278,0.2041799752538082,-0.05732464364906109,-0.40463477502742384,0.390291231842045,17.474587859754095
1688474860.657,0.4782446362387557,0.6288303769917895,0.27440866995116275,-1.4982693556058373,-0.1859175127823816,1.0401465924971396,0.7969859501531621,0.47824232836806907,0.6288596351459543,0.2743185821638272,-1.4983391923378622,-0.18583260565586474,1.0400248588361392,0.7968901267775723,0.14652322006225585,57.75972219848633,-4.406276416778565,-24.312433471679686,0.9921825218200684,0.21693859100341797,-0.05707153701782226,0.15201808812349552,10.16483784080445,-1.3502267634649598,-6.044135597110342,0.4522704639380646,0.20411885974890429,-0.05655515890627473,-0.40771458846856096,0.4022598618210759,17.478594474955504
1688474860.765,0.4782445763521456,0.6288299575673536,0.27440896949329563,-1.4982693556058373,-0.18591732097069683,1.0401465924971396,0.7969858302708591,0.47824232836806907,0.6288596351459543,0.2743185821638272,-1.4983391923378622,-0.18583260565586474,1.0400248588361392,0.7968901267775723,0.14652322006225585,57.711329208374025,-4.40451566696167,-24.304510097503663,0.9904217720031738,0.21493608093261718,-0.05773904037475586,0.14973298484899084,10.153483808343509,-1.3491192719702314,-6.043991601216878,0.4530663823181833,0.20322111255229558,-0.05678968356488934,-0.3931702172105494,0.3815349826879684,17.470722721239692
1688474860.866,0.4782445163564526,0.6288297178027474,0.2744092691445116,-1.4982693556058373,-0.1859175127823816,1.0401466524928327,0.7969857104976393,0.47824232836806907,0.6288596351459543,0.2743185821638272,-1.4983391923378622,-0.18583260565586474,1.0400248588361392,0.7968901267775723,0.15458871841430663,57.763754947662356,-4.407156791687012,-24.3238783454895,0.9948236465454101,0.21727234268188478,-0.056737785339355466,0.1518024924964129,10.162634469241048,-1.3481654237331289,-6.051509382606051,0.453094542157757,0.2033997216251751,-0.056804770659301916,-0.3800743263382535,0.37770202168007505,17.47668454331994
1688474861.029,0.47824289854531904,0.6288259427646586,0.2744095088000345,-1.498271093299274,-0.1859175127823816,1.0401468921483557,0.7969731869966747,0.47820076519121196,0.6287859193320866,0.27430693448463417,-1.4984154534538716,-0.18580829440982224,1.040018463436637,0.7968338637733229,1.4047409629821777,59.171184410095215,-3.681727867126465,-24.520201950073243,0.7668065452575683,0.18823594665527343,0.014351322174072265,0.2955118941573584,9.939046362587248,-1.2587948945630452,-5.89272302760482,0.33445859677638,0.18080826993522725,-0.009170670249634165,-0.2541741714757747,0.773696908333811,17.190217409918414
1688474861.060,0.4776303248479495,0.6278312521350112,0.27420973175978347,-1.4995368072727342,-0.18548147874615217,1.0401351476096528,0.7960453682209852,0.47745274651558794,0.627459244866091,0.2740973094698278,-1.4997879361010722,-0.18537076129896315,1.0399033644806008,0.7958212901178014,1.77306538772583,60.4764508934021,-3.5540735054016115,-24.290424098968504,0.7764906692504883,0.12115185928344727,0.05006275177001953,0.6073582251088092,10.556166148476528,-1.1118096595776368,-5.868625152858159,0.24149193154386597,0.13971774050100566,0.016480686233130867,-1.078308157489757,2.153140592595668,18.027269013922442
1688474861.165,0.4699581439083459,0.6139258361205895,0.27198965407987413,-1.5141551647611555,-0.18086860669438692,1.0386417334004883,0.7852414097050066,0.4690651294598404,0.6125830957256623,0.27174676073782655,-1.5151777374997804,-0.18046465360046954,1.0386127470158153,0.7844671884890324,4.058289920806884,60.89047980880737,-2.137550277709961,-23.311447200775145,0.6594008064270019,-0.026366382598876952,0.20759354400634766,1.6290201449465105,10.630306623920315,-0.41706644136753046,-5.069059386800101,0.14961477996363762,0.03006908422406604,0.17830657951908824,-2.5411583866964826,5.908247375179414,17.987513968680194
1688474861.243,0.45574149761829913,0.5887509942778205,0.2680509187241841,-1.5399452767259052,-0.17262537754184248,1.0367416944547723,0.7661576101993146,0.4547709206374018,0.5872311058966423,0.26774094666700887,-1.5414050954569782,-0.17210364623907773,1.0364132718336607,0.7651174853976636,2.3134537773132324,57.13061332702637,-2.705392093658447,-24.43128408432007,0.6954961776733398,0.5233226318359375,0.16854459762573243,1.5257883439625575,9.846273397131853,-0.3714236384850247,-5.060852266730486,0.052790389271510994,0.10872457539102232,0.18351979613838593,-1.6225498415321702,4.860496665384697,16.927448899874726
1688474861.344,0.4309581804688086,0.5450832950159801,0.261158072019658,-1.5850691791227594,-0.15837383306615285,1.032752445561705,0.7330782731851939,0.43037239853550446,0.5439582607987419,0.2609034963151212,-1.586172090310766,-0.1578323965718125,1.0326590281038412,0.7320898331222314,-0.6183548736572265,52.77927696609497,-4.20467056274414,-23.99021625518799,0.45691457748413083,0.6361306991577148,0.2139348258972168,0.5488419599868817,9.49714574075003,-1.0544188698884802,-5.572182351371417,-0.1182224709127784,0.45338809024842297,0.19244753315886862,-1.2812085402854847,2.412676767160498,16.58738135236831
1688474861.445,0.40665351321260984,0.5017877659459272,0.2543506727083188,-1.6294805594700497,-0.14410982519427473,1.029083834705263,0.7001833135168355,0.40601540669622815,0.5007590731385245,0.2540776844185297,-1.6308628844403752,-0.14358543889830566,1.0289111747089525,0.6991183992958935,0.6761576118469238,51.69581168746948,-2.8224819564819335,-21.734695739746094,0.5150193214416504,0.10346302032470703,0.22127736282348634,0.6135082536461766,9.130832316789506,-0.8981310006550116,-4.971824209358182,-0.11282703450021364,0.4523846533074716,0.2159013262078424,-2.8015556261295327,3.7076778528225245,15.989384925399753
1688474861.581,0.3822185774172021,0.45835801342058036,0.2475182263950504,-1.6745256057096372,-0.12970919696280775,1.025170625662548,0.6669916844184692,0.38141725652190955,0.4571321707489979,0.24718429022593227,-1.675996161680179,-0.12919742223793243,1.0251262138547084,0.6658205156296908,1.3348399772644044,49.858222312927246,-2.525795612335205,-23.597569046020507,0.38648458480834963,0.402504524230957,0.22761864471435547,1.1629455267024928,9.227379329206585,-0.41790062060138106,-4.90358721016678,-0.10553325685959886,0.3634842524156984,0.21698627343245283,-2.928163401836785,4.944822899784582,16.488224530868987
1688474861.650,0.35720174764926577,0.4140616216912297,0.24030845680537793,-1.7204555671503248,-0.11506744625919002,1.0214126124968341,0.6330986186202004,0.3563367896775062,0.41264983890085327,0.24015573144132316,-1.722014405140371,-0.11452728760382637,1.0212670380817535,0.6318697322837588,0.14249047088623046,47.473523300170896,-2.9254858207702634,-24.72973117828369,0.32837984085083005,0.7519425315856934,0.23229116821289061,0.9933623369435203,9.370131563263069,-0.5180681851552145,-5.714954612776459,-0.11548886078421253,0.5119844891966805,0.2275123403202917,-1.7278181231872578,3.6990601134460968,17.354975752941893
1688474861.752,0.332589325504315,0.3704273584654512,0.23348847410646414,-1.7658281422045905,-0.10062693463632108,1.01772213037412,0.5997766011003223,0.33173863950318766,0.3690229365113271,0.23326233724872575,-1.7671476823801746,-0.10013927094345318,1.0174820772275093,0.5985718486175561,0.3857996711730957,44.32932319259643,-2.174526023864746,-22.710151138305665,0.33542284011840817,0.3604518127441406,0.2252823829650879,0.8808702944243196,8.515103155387017,-0.5718297793510239,-5.176548365543688,-0.1706803116522309,0.5185962773500463,0.23977481748064372,-2.318876342148803,3.7097248289234783,16.091762539003728
1688474861.854,0.3081661941342201,0.32719726320713555,0.22667022910098686,-1.8103377332106385,-0.08625593144904456,1.013927625100824,0.566633567967901,0.30752000202762453,0.32606913203147503,0.2264752978273237,-1.8115846205974269,-0.08597323987930652,1.0137555126631608,0.5657877015373753,0.15996571731567383,39.57740041351318,-2.155157775878906,-24.16981273651123,0.5150193214416504,0.849398021697998,0.26833634948730467,0.9772756296322253,8.084177948356222,-0.4467660814722977,-5.01017834033777,-0.20481063482244294,0.5062386809821587,0.23719518959211805,-2.3262311522780643,3.8601484216455293,15.756801749272121
1688474861.954,0.2911575829279185,0.2970098395705468,0.22185496746924654,-1.841396649702798,-0.07635686584909933,1.011169815296283,0.5439298733449317,0.2910614661289375,0.2968785248501191,0.22186295198104472,-1.8417831379010672,-0.07634626845919973,1.0112230086474832,0.5435082045106976,-0.8562870750427246,36.58106777572632,-2.8885100746154784,-24.084416370391846,0.10212348937988282,0.8460605049133301,0.254652530670166,0.6204991985622439,7.870578118247426,-0.7047117778650096,-5.496791225572775,-0.302240158393491,0.7252375252757257,0.24242392699151039,-1.46332066587652,2.4489240631308875,15.710118709407752
1688474862.055,0.28593461805523235,0.28770558695752,0.22039558848949273,-1.851206396900175,-0.07325256808909784,1.0105876815591481,0.5366165001381962,0.2859084940614154,0.28773929251709385,0.2204188812898283,-1.8512379349197166,-0.0733321780730311,1.0104301117255452,0.536532758665234,0.6452398681640625,39.105568759918214,-1.6251720809936523,-22.851891498565674,0.3230975914001465,0.5039650344848633,0.2463087387084961,0.7988237163768714,8.226156094833954,-0.5485761906347391,-5.355764151675741,-0.25935897132745317,0.6495466811043977,0.24562094060327738,-2.487687318645644,3.4746811023537667,16.350223386239925
1688474862.156,0.2857344814771554,0.2873968133419004,0.22025615206297244,-1.8517477842896757,-0.07306436783959189,1.0102593736731247,0.536050904595638,0.2856171107029526,0.28722249945552214,0.22033722391572447,-1.8517725721102114,-0.07316174132935699,1.0103852760530436,0.5361383205020549,0.9920562973022461,40.48342472839356,-1.46494384765625,-23.650391540527345,0.45955570220947267,0.5653753433227539,0.17455212783813476,1.0368915854623415,8.129234620573532,-0.29905061109158526,-5.242376067681759,-0.11086997929692304,0.5239470384531397,0.1899939450344117,-2.2481289540677296,3.745320674552891,16.304711877458296
1688474862.262,0.28562488581752105,0.28735588722535343,0.22025393494940698,-1.8517459267139365,-0.07306388839764638,1.0101938799747776,0.536050904595638,0.2856171107029526,0.28722249945552214,0.22033722391572447,-1.8517725721102114,-0.07316174132935699,1.0103852760530436,0.5361383205020549,1.052547534942627,40.422933490753174,-1.44557559967041,-23.46199131011963,0.4419482040405273,0.4245321350097656,0.17588713455200194,1.0659319154698887,8.14986407556238,-0.34738000142813086,-5.289683487429251,-0.08483602842673342,0.4190596980149729,0.17569476614881407,-2.11602297523347,3.6588143082702524,16.64032042290104
1688474862.362,0.28560475224468546,0.2871682142616311,0.22025393494940698,-1.8517447283272386,-0.07306388839764638,1.0101946589370392,0.536050904595638,0.2856171107029526,0.28722249945552214,0.22033722391572447,-1.8517725721102114,-0.07316174132935699,1.0103852760530436,0.5361383205020549,0.9718925514221192,40.48745747756958,-1.46494384765625,-23.454067935943602,0.450751953125,0.4265346450805664,0.17521963119506836,0.9960276085457462,8.25346864660317,-0.3744234784167694,-5.245158718668854,-0.08267393874010998,0.4136286938731353,0.17533820908123582,-2.4664812910083915,3.689422954068521,16.737459383200022
1688474862.466,0.28560954600964217,0.28717552468228624,0.22025591240744952,-1.8517428108648895,-0.07306379257907043,1.0101948387059523,0.536050904595638,0.2856171107029526,0.28722249945552214,0.22033722391572447,-1.8517725721102114,-0.07316174132935699,1.0103852760530436,0.5361383205020549,1.0646457824707032,40.185001289367676,-1.3909923553466796,-23.443503437042235,0.4577949523925781,0.44288847732543946,0.17421837615966798,0.9809489718263911,8.226955188444355,-0.38042399711796576,-5.328399655920917,-0.08293254292707626,0.42183607157429814,0.17408292239421574,-2.2090246143726846,3.521743768993893,16.76217445985242
1688474862.566,0.2856096657828621,0.28717552468228624,0.22025609217636247,-1.8517389159444975,-0.07306388839764638,1.0101949584791723,0.536050784713335,0.2856171107029526,0.28722249945552214,0.22033722391572447,-1.8517725721102114,-0.07316174132935699,1.0103852760530436,0.5361383205020549,1.0740555305480957,40.06267456436157,-1.4033176040649413,-23.327293949127196,0.44723045349121093,0.43053966522216797,0.1722158660888672,0.9643925445656296,8.052823177827854,-0.38199958258271743,-5.218260515060111,-0.08232149244558142,0.41962553545933523,0.17313651431004243,-2.153868205660231,3.461977011941122,16.38691040173054
1688474862.668,0.2856091264761232,0.2871768429512868,0.22025537310071064,-1.851740294209191,-0.0730636967604945,1.0101951382480852,0.536050784713335,0.2856171107029526,0.28722249945552214,0.22033722391572447,-1.8517725721102114,-0.07316174132935699,1.0103852760530436,0.5361383205020549,0.9503845558166504,40.63666919708252,-1.4939962196350098,-23.54210542678833,0.4604360771179199,0.4342109336853027,0.17321712112426757,0.9585890173701972,8.169393711693166,-0.391549140667921,-5.2866035749056675,-0.07983387231842096,0.41825654749863517,0.17197259296338194,-2.2171035114880495,3.466917308025829,16.63918115736578
1688474862.769,0.2856087670473804,0.287176123875635,0.22025537310071064,-1.851739694906759,-0.07306379257907043,1.010195258130388,0.536050784713335,0.2856171107029526,0.28722249945552214,0.22033722391572447,-1.8517725721102114,-0.07316174132935699,1.0103852760530436,0.5361383205020549,0.9208110618591309,40.21591903305054,-1.5300915908813477,-23.433819313049316,0.4454697036743164,0.4318746719360352,0.1712146110534668,0.958196823745277,8.234497165125195,-0.3912497604064374,-5.283671633987406,-0.07863167981869584,0.4164659794682892,0.17170863912671258,-2.3517011618674504,3.5368784027123565,16.731253912978747
1688474862.868,0.2856092463584262,0.2871760039933321,0.22025591240744952,-1.851739694906759,-0.0730636967604945,1.010195258130388,0.536050604944422,0.2856171107029526,0.28722249945552214,0.22033722391572447,-1.8517725721102114,-0.07316174132935699,1.0103852760530436,0.5361383205020549,0.9772695503234863,40.183657039642334,-1.4772690963745116,-23.42589593887329,0.4516323280334473,0.4292046585083008,0.169212100982666,0.9820033116458767,8.130267837470193,-0.36717264925305354,-5.264195062853734,-0.07632944311993803,0.4162727318054688,0.17063926413424724,-2.1769154994077886,3.502084749794546,16.563066449161326
1688474862.969,0.28560936624072925,0.2871762436488549,0.2202559722940595,-1.851739575133539,-0.0730636967604945,1.0101951382480852,0.536050784713335,0.2856171107029526,0.28722249945552214,0.22033722391572447,-1.8517725721102114,-0.07316174132935699,1.0103852760530436,0.5361383205020549,0.9826465492248535,40.31404926300049,-1.4711064720153808,-23.440862312316895,0.44899120330810544,0.4275359001159668,0.17321712112426757,0.9917365356678283,8.139153642972921,-0.36413507018007973,-5.26704029772237,-0.07591627791002914,0.4158211571504806,0.17078622723743486,-2.180870324096674,3.5252813842545305,16.58099426140551
1688474863.070,0.2856092463584262,0.287176123875635,0.22025561275623357,-1.851739694906759,-0.07306379257907043,1.010195258130388,0.536050784713335,0.2856171107029526,0.28722249945552214,0.22033722391572447,-1.8517725721102114,-0.07316174132935699,1.0103852760530436,0.5361383205020549,0.9557615547180176,40.28985276794434,-1.4939962196350098,-23.43646043777466,0.45691457748413083,0.4295384101867676,0.1705471076965332,0.9759079145235812,8.16867853387993,-0.37858532550314683,-5.2630958159197245,-0.07616941363523463,0.41468336919175597,0.16993866118509537,-2.263891858604034,3.522340635307512,16.61910826286752
1688474863.170,0.28560936624072925,0.287176063879942,0.22025585241175646,-1.8517396350201492,-0.07306360076738565,1.010195378012691,0.536050784713335,0.2856171107029526,0.28722249945552214,0.22033722391572447,-1.8517725721102114,-0.07316174132935699,1.0103852760530436,0.5361383205020549,0.9584500541687012,40.252213775634765,-1.4922354698181153,-23.44614456176758,0.45427345275878905,0.42987216186523436,0.1695458526611328,0.9812777485412401,8.16091508909876,-0.3705589872768686,-5.253279542066217,-0.07655448195257702,0.41395997019429237,0.16970462828444477,-2.2666389291242286,3.5429283562802505,16.599873886944128
1688474863.305,0.2856092463584262,0.287176123875635,0.22025591240744952,-1.8517396350201492,-0.0730636967604945,1.0101951382480852,0.536050784713335,0.2856171107029526,0.28722249945552214,0.22033722391572447,-1.8517725721102114,-0.07316174132935699,1.0103852760530436,0.5361383205020549,0.9732368011474609,40.28313151931763,-1.4843120956420899,-23.424135189056397,0.45515382766723633,0.4275359001159668,0.1702133560180664,0.9900586807990879,8.149268399069689,-0.36653233268501245,-5.254885319149925,-0.07600836474635128,0.4139382415384387,0.16948589166699865,-2.2517153033646453,3.513793340937944,16.58428639849055
1688474863.343,0.2856092463584262,0.287176123875635,0.22025567264284351,-1.8517395152469294,-0.07306360076738565,1.010195258130388,0.536050784713335,0.2856171107029526,0.28722249945552214,0.22033722391572447,-1.8517725721102114,-0.07316174132935699,1.0103852760530436,0.5361383205020549,0.9907120475769043,40.26027927398682,-1.4667045974731445,-23.411809940338134,0.45955570220947267,0.4268683967590332,0.16821084594726562,0.9817248296738859,8.14978148684343,-0.37451006411206494,-5.257709840759295,-0.07625885419149694,0.414321187403668,0.16960279257520383,-2.2304969096835596,3.526103485228176,16.584947297527037
1688474863.445,0.2856092463584262,0.287176123875635,0.22025579252514652,-1.851739575133539,-0.07306360076738565,1.010195378012691,0.536050784713335,0.2856171107029526,0.28722249945552214,0.22033722391572447,-1.8517725721102114,-0.07316174132935699,1.0103852760530436,0.5361383205020549,0.9732368011474609,40.2790987701416,-1.47462797164917,-23.421494064331053,0.4577949523925781,0.4275359001159668,0.16720959091186524,0.9860463367744414,8.143803340685167,-0.3691336165281499,-5.248734016542442,-0.07421361130647541,0.4128122425912506,0.16880499545259378,-2.2412223865330745,3.5362170018014734,16.572929146595964
1688474863.546,0.28560936624072925,0.287176063879942,0.22025585241175646,-1.8517396350201492,-0.07306360076738565,1.010195318016998,0.536050784713335,0.2856171107029526,0.28722249945552214,0.22033722391572447,-1.8517725721102114,-0.07316174132935699,1.0103852760530436,0.5361383205020549,1.0041545448303222,40.26565627288819,-1.4640634727478028,-23.437340812683104,0.46483795166015623,0.4285371551513672,0.16854459762573243,0.9867137084239606,8.144497028170635,-0.372896868355295,-5.248750231060543,-0.07458769733914142,0.41353745406310805,0.1687597253253298,-2.240493962507677,3.5355164834415693,16.576504826125237
1688474863.647,0.28560936624072925,0.287176063879942,0.22025591240744952,-1.8517394552512365,-0.07306340913023378,1.0101954378993012,0.536050784713335,0.2856171107029526,0.28722249945552214,0.22033722391572447,-1.8517725721102114,-0.07316174132935699,1.0103852760530436,0.5361383205020549,0.9853350486755371,40.25086952590942,-1.468465347290039,-23.425015563964845,0.4604360771179199,0.4228633766174316,0.1695458526611328,0.9794481674242783,8.13245645801684,-0.37596616435493546,-5.250412050683749,-0.07486490609865493,0.41359492764731837,0.1684331984533344,-2.221157844430261,3.5072670014456273,16.55678912956463
1688474863.748,0.2856092463584262,0.2871760039933321,0.22025579252514652,-1.8517393953646264,-0.07306340913023378,1.010195378012691,0.536050904595638,0.2856171107029526,0.28722249945552214,0.22033722391572447,-1.8517725721102114,-0.07316174132935699,1.0103852760530436,0.5361383205020549,0.9745810508728028,40.268344772338864,-1.4772690963745116,-23.426776313781737,0.45251270294189455,0.4272021484375,0.16687583923339844,0.9785354929858625,8.135144931441527,-0.37518869595457693,-5.250679788140298,-0.07483175600805092,0.4131198216176832,0.16832682814963096,-2.225315725643349,3.5049190198258375,16.567915769552986
1688474863.848,0.2856092463584262,0.287176063879942,0.22025573263853657,-1.8517395152469294,-0.07306360076738565,1.0101954378993012,0.536050784713335,0.2856171107029526,0.28722249945552214,0.22033722391572447,-1.8517725721102114,-0.07316174132935699,1.0103852760530436,0.5361383205020549,0.9705483016967773,40.25759077453613,-1.4843120956420899,-23.431178188323976,0.45691457748413083,0.4268683967590332,0.16754334259033202,0.977047497617662,8.135853017883543,-0.3747624422284725,-5.251656026533046,-0.07443672063961058,0.41330162553149413,0.16809996586559828,-2.225179598276718,3.5048003169050235,16.56282347362513
1688474863.950,0.2856092463584262,0.2871760039933321,0.22025579252514652,-1.8517394552512365,-0.07306360076738565,1.0101955576725208,0.536050604944422,0.2856171107029526,0.28722249945552214,0.22033722391572447,-1.8517725721102114,-0.07316174132935699,1.0103852760530436,0.5361383205020549,0.9786138000488281,40.25086952590942,-1.4737475967407225,-23.4223744392395,0.4533930778503418,0.4251996383666992,0.16520708084106445,0.9870671736248897,8.132017488383896,-0.3707375463714365,-5.25191188039711,-0.0738497690670796,0.4128309561251886,0.16777139265570953,-2.205654764671061,3.5176505863825933,16.559379292459205
1688474864.050,0.2856092463584262,0.2871760039933321,0.22025591240744952,-1.8517393953646264,-0.07306379257907043,1.010195258130388,0.536050904595638,0.2856171107029526,0.28722249945552214,0.22033722391572447,-1.8517725721102114,-0.07316174132935699,1.0103852760530436,0.5361383205020549,0.9866792984008789,40.25624652481079,-1.4702260971069336,-23.41973331451416,0.45955570220947267,0.4275359001159668,0.1688783493041992,0.9804143540750325,8.129906699281708,-0.3721269996681848,-5.250008460648861,-0.07386183100782345,0.4122821356462504,0.16798801987747858,-2.214304179656602,3.50775055446225,16.55684904309558
1688474864.152,0.2856092463584262,0.2871760039933321,0.22025573263853657,-1.8517394552512365,-0.07306340913023378,1.010195258130388,0.536050904595638,0.2856171107029526,0.28722249945552214,0.22033722391572447,-1.8517725721102114,-0.07316174132935699,1.0103852760530436,0.5361383205020549,0.9786138000488281,40.24952527618408,-1.4799102210998536,-23.432938938140868,0.4586753273010254,0.4275359001159668,0.16754334259033202,0.9821520970687572,8.13337334880937,-0.37127563940465075,-5.251592436983402,-0.07257761238415467,0.41246759572200975,0.16732542698534947,-2.219014742274458,3.5074947866776887,16.562886927298848
1688474864.254,0.2856092463584262,0.287176063879942,0.22025567264284351,-1.8517395152469294,-0.07306340913023378,1.0101954378993012,0.536050904595638,0.2856171107029526,0.28722249945552214,0.22033722391572447,-1.8517725721102114,-0.07316174132935699,1.0103852760530436,0.5361383205020549,0.9718925514221192,40.24818102645874,-1.4860728454589844,-23.415331439971922,0.4604360771179199,0.4268683967590332,0.16654208755493163,0.9820072416887231,8.13026455036234,-0.3689313467327097,-5.2503292956683225,-0.07126198194063434,0.41244938292167455,0.16710406472148798,-2.212311715431829,3.5080635400893057,16.554020918937276
1688474864.354,0.2856092463584262,0.287176063879942,0.22025579252514652,-1.8517393953646264,-0.07306360076738565,1.0101954378993012,0.536050784713335,0.2856171107029526,0.28722249945552214,0.22033722391572447,-1.8517725721102114,-0.07316174132935699,1.0103852760530436,0.5361383205020549,0.9880235481262207,40.26700052261353,-1.4737475967407225,-23.409168815612794,0.45955570220947267,0.4251996383666992,0.16687583923339844,0.9850604433058281,8.134801339033807,-0.36869152578484665,-5.253426826318768,-0.0729492955076173,0.41210000994880275,0.16718823386701226,-2.214045998230557,3.5159194137816985,16.564073172435062
1688474864.456,0.2856092463584262,0.28717588422011214,0.22025591240744952,-1.8517394552512365,-0.07306360076738565,1.010195258130388,0.536050784713335,0.2856171107029526,0.28722249945552214,0.22033722391572447,-1.8517725721102114,-0.07316174132935699,1.0103852760530436,0.5361383205020549,0.9786138000488281,40.25490227508545,-1.475508346557617,-23.431178188323976,0.45515382766723633,0.4295384101867676,0.16754334259033202,0.9834669464794991,8.137074610351762,-0.37090836017757356,-5.255611769423367,-0.07231013229311695,0.41195449546969143,0.16686691817978197,-2.2098151631605165,3.5101764045962556,16.571649612492532
1688474864.555,0.28560936624072925,0.2871760039933321,0.22025579252514652,-1.8517394552512365,-0.07306340913023378,1.0101954378993012,0.536050784713335,0.2856171107029526,0.28722249945552214,0.22033722391572447,-1.8517725721102114,-0.07316174132935699,1.0103852760530436,0.5361383205020549,0.9826465492248535,40.24952527618408,-1.4790298461914062,-23.428537063598633,0.45427345275878905,0.4272021484375,0.16720959091186524,0.985004923044118,8.130273099797707,-0.36985427795538983,-5.254908156379332,-0.07347591790448973,0.412414737391392,0.16696354222340906,-2.200230251542939,3.5070159284157794,16.560721171323838
1688474864.656,0.2856092463584262,0.2871760039933321,0.22025591240744952,-1.8517394552512365,-0.0730636967604945,1.0101954378993012,0.536050604944422,0.2856171107029526,0.28722249945552214,0.22033722391572447,-1.8517725721102114,-0.07316174132935699,1.0103852760530436,0.5361383205020549,0.9786138000488281,40.258935024261476,-1.4772690963745116,-23.421494064331053,0.46219682693481445,0.42319712829589845,0.16720959091186524,0.9858107600579793,8.124611276234106,-0.3715583493083569,-5.253638962149617,-0.07236554844684642,0.4122703314630345,0.16657457785117066,-2.193682186907091,3.503519123517658,16.552300138269683
1688474864.763,0.28560936624072925,0.2871760039933321,0.22025591240744952,-1.8517394552512365,-0.07306331313712491,1.010195617668214,0.536050904595638,0.2856171107029526,0.28722249945552214,0.22033722391572447,-1.8517725721102114,-0.07316174132935699,1.0103852760530436,0.5361383205020549,0.9799580497741699,40.245492527008054,-1.4763887214660645,-23.430297813415528,0.4560342025756836,0.4258671417236328,0.16554083251953125,0.9856820713967936,8.13357952201274,-0.3714972380766759,-5.251214691689544,-0.07186485660915862,0.4117939329336998,0.16556511484534925,-2.2155836904048183,3.5078830816878406,16.562317731757016
1688474864.865,0.2856092463584262,0.287176063879942,0.22025591240744952,-1.8517393953646264,-0.07306360076738565,1.010195378012691,0.536050604944422,0.2856171107029526,0.28722249945552214,0.22033722391572447,-1.8517725721102114,-0.07316174132935699,1.0103852760530436,0.5361383205020549,0.9813022994995118,40.26027927398682,-1.4711064720153808,-23.418852939605713,0.46219682693481445,0.4251996383666992,0.16487332916259764,0.9876569153399593,8.129105393726322,-0.36919322345463224,-5.250804871872471,-0.07058663088936315,0.4121165796595656,0.1655819489402123,-2.207104655196255,3.5115003993287717,16.553936812324388
1688474864.999,0.2856092463584262,0.2871760039933321,0.22025603218066941,-1.8517394552512365,-0.07306340913023378,1.010195677554824,0.536050784713335,0.2856171107029526,0.28722249945552214,0.22033722391572447,-1.8517725721102114,-0.07316174132935699,1.0103852760530436,0.5361383205020549,0.9853350486755371,40.252213775634765,-1.47462797164917,-23.420613689422606,0.4613164520263672,0.4262008934020996,0.16554083251953125,0.9862256566947383,8.127644531861419,-0.3705424384425926,-5.252029818807415,-0.07026611009042597,0.4118137300723017,0.16524263115987503,-2.207426562062724,3.5034199460472126,16.558876350429358
1688474865.070,0.2856092463584262,0.287176123875635,0.22025579252514652,-1.8517395152469294,-0.07306340913023378,1.010195617668214,0.536050784713335,0.2856171107029526,0.28722249945552214,0.22033722391572447,-1.8517725721102114,-0.07316174132935699,1.0103852760530436,0.5361383205020549,0.9853350486755371,40.24952527618408,-1.4693457221984862,-23.425015563964845,0.4586753273010254,0.4258671417236328,0.16587458419799805,0.9887336168627956,8.129207619868897,-0.36908115803475045,-5.2511451286012445,-0.07014449237305388,0.41198385756873723,0.16532483067567555,-2.206740677675561,3.5094441675104506,16.557679350052304
1688474865.171,0.28560936624072925,0.287176063879942,0.22025591240744952,-1.8517392754823232,-0.07306340913023378,1.010195617668214,0.536050604944422,0.2856171107029526,0.28722249945552214,0.22033722391572447,-1.8517725721102114,-0.07316174132935699,1.0103852760530436,0.5361383205020549,0.9893677978515625,40.252213775634765,-1.4693457221984862,-23.415331439971922,0.4604360771179199,0.423864631652832,0.16487332916259764,0.9830183322142051,8.128711891439178,-0.37045122080002046,-5.248933025177798,-0.07117499090598223,0.4111610209936255,0.16522345047892095,-2.213871135899333,3.5056375138092073,16.555196879514085
1688474865.272,0.2856092463584262,0.2871760039933321,0.22025591240744952,-1.8517393953646264,-0.07306340913023378,1.010195677554824,0.536050904595638,0.2856171107029526,0.28722249945552214,0.22033722391572447,-1.8517725721102114,-0.07316174132935699,1.0103852760530436,0.5361383205020549,0.9866792984008789,40.25490227508545,-1.4719868469238282,-23.420613689422606,0.4586753273010254,0.4265346450805664,0.16587458419799805,0.9858719560315614,8.124697028596081,-0.3697807832550076,-5.24604058647191,-0.0700732081263265,0.41126210185818646,0.16503938015919373,-2.2138500425626066,3.5048913014940735,16.545050256309334
1688474865.343,0.2856092463584262,0.287176123875635,0.22025591240744952,-1.8517392754823232,-0.07306340913023378,1.010195677554824,0.536050784713335,0.2856171107029526,0.28722249945552214,0.22033722391572447,-1.8517725721102114,-0.07316174132935699,1.0103852760530436,0.5361383205020549,0.9813022994995118,40.24952527618408,-1.4772690963745116,-23.431178188323976,0.46395757675170896,0.425533390045166,0.16654208755493163,0.9815388492845731,8.126801057937417,-0.37189644930877874,-5.2488974644609705,-0.06952680374936171,0.41098516341056107,0.16555729410625108,-2.2101634737016616,3.4950789330072674,16.55138746783663
1688474865.443,0.2856092463584262,0.287176063879942,0.22025579252514652,-1.8517393953646264,-0.07306331313712491,1.0101954378993012,0.536050784713335,0.2856171107029526,0.28722249945552214,0.22033722391572447,-1.8517725721102114,-0.07316174132935699,1.0103852760530436,0.5361383205020549,0.9866792984008789,40.25086952590942,-1.4719868469238282,-23.42941743850708,0.4586753273010254,0.423864631652832,0.16587458419799805,0.9828571789341634,8.124850585143161,-0.3702324766806927,-5.253011298024613,-0.07015951881570584,0.4109424920232734,0.16481217683933805,-2.1961393583824527,3.493744166028793,16.552450933671654
1688474865.543,0.2856092463584262,0.2871760039933321,0.22025591240744952,-1.8517393953646264,-0.07306340913023378,1.010195677554824,0.536050784713335,0.2856171107029526,0.28722249945552214,0.22033722391572447,-1.8517725721102114,-0.07316174132935699,1.0103852760530436,0.5361383205020549,0.9826465492248535,40.25490227508545,-1.4702260971069336,-23.418852939605713,0.45955570220947267,0.42419838333129883,0.16420582580566406,0.9828418145294048,8.12803044715286,-0.3714947181697862,-5.252488742799186,-0.07029142327801309,0.4110806372566065,0.16473985800414687,-2.1993417525655357,3.4938607821152994,16.55223358808621
