Edkamb/ConfLiftingaaS/DTProject/python-app/joint_position_data.csv
timestamp,actual_q_0,actual_q_1,actual_q_2,actual_q_3,actual_q_4,actual_q_5,actual_q_6,target_q_0,target_q_1,target_q_2,target_q_3,target_q_4,target_q_5,target_q_6,measured_tq_0,measured_tq_1,measured_tq_2,measured_tq_3,measured_tq_4,measured_tq_5,measured_tq_6,external_tq_0,external_tq_1,external_tq_2,external_tq_3,external_tq_4,external_tq_5,external_tq_6,force_X,force_Y,force_Z
1687876996.442,0.9342031681675341,0.6942489050989805,0.8609083077399675,-1.1779831553227973,-0.509042799973435,1.4797805727669875,1.7147845720044115,0.934196784734878,0.694193679499872,0.8609457349076964,-1.1780725486872567,-0.508950680971916,1.4796001506645597,1.7147066299633407,0.22314545440673828,57.5755599861145,-12.005672626495361,-24.33708396911621,0.914709529876709,-0.32574163818359375,-0.16320457077026368,0.21678435298205923,9.516914990010324,-2.6790220925548507,-5.641902954188911,0.2876984468825424,-0.3329357363902591,-0.1624579579393484,-0.11782317026718653,1.3488964184893641,17.081736361025367
1687876996.567,0.9342033479364471,0.6942489050989805,0.8609082478533576,-1.1779831553227973,-0.5090428957920109,1.4797805727669875,1.7147845720044115,0.934196784734878,0.694193679499872,0.8609457349076964,-1.1780725486872567,-0.508950680971916,1.4796001506645597,1.7147066299633407,0.20970295715332032,57.568838737487795,-12.006553001403809,-24.34676809310913,0.9164702796936035,-0.3230716247558594,-0.16220331573486327,0.22348814585899468,9.518124809157758,-2.6792116816772253,-5.642880028374388,0.2881063697402947,-0.332360590039981,-0.16239085099276312,-0.11452366577677525,1.3525570589821947,17.076375606598553
1687876996.638,0.9342031681675341,0.6942489050989805,0.8609083077399675,-1.1779831553227973,-0.509042799973435,1.4797805727669875,1.7147844521221085,0.934196784734878,0.694193679499872,0.8609457349076964,-1.1780725486872567,-0.508950680971916,1.4796001506645597,1.7147066299633407,0.2164242057800293,57.57287148666382,-12.011835250854492,-24.34676809310913,0.9155899047851562,-0.32340537643432615,-0.1618695640563965,0.22024077906078432,9.518869205016319,-2.679840179001041,-5.641979689193695,0.28810342766184827,-0.3318332304996022,-0.16221514190284317,-0.11398822655280755,1.363069537097367,17.079900124270985
1687876996.738,0.934203287940754,0.6942489050989805,0.8609083077399675,-1.1779830953271042,-0.509042799973435,1.4797805727669875,1.7147844521221085,0.934196784734878,0.694193679499872,0.8609457349076964,-1.1780725486872567,-0.508950680971916,1.4796001506645597,1.7147066299633407,0.2218012046813965,57.568838737487795,-12.004792251586913,-24.338844718933107,0.9182310295104981,-0.32240412139892577,-0.16120206069946288,0.21700370076736367,9.520495473348669,-2.68082303512763,-5.6417998166960155,0.2885404475846908,-0.33194661299421413,-0.16254758408113232,-0.11946213892750218,1.3602506800881409,17.08160125022153
1687876996.838,0.9342033479364471,0.6942489050989805,0.8609083077399675,-1.1779831553227973,-0.509042799973435,1.4797806327626808,1.7147846318910216,0.934196784734878,0.694193679499872,0.8609457349076964,-1.1780725486872567,-0.508950680971916,1.4796001506645597,1.7147066299633407,0.22448970413208008,57.57018298721314,-12.007433376312255,-24.345887718200682,0.9164702796936035,-0.3230716247558594,-0.16120206069946288,0.2153362058639655,9.514972159103161,-2.679736847595634,-5.640778745418653,0.2889194751200391,-0.332581097367012,-0.16222576315712556,-0.11435242802332962,1.3488591307370221,17.07718005566974
1687876996.972,0.934203287940754,0.6942489050989805,0.8609083077399675,-1.1779831553227973,-0.509042799973435,1.4797806327626808,1.7147844521221085,0.934196784734878,0.694193679499872,0.8609457349076964,-1.1780725486872567,-0.508950680971916,1.4796001506645597,1.7147066299633407,0.2204569549560547,57.56749448776245,-12.007433376312255,-24.332682094573975,0.9164702796936035,-0.3227378730773926,-0.16320457077026368,0.21892878306168215,9.522048871080472,-2.6826009427480693,-5.641616731884716,0.28780339953347733,-0.3323079032819411,-0.1622308511601793,-0.1145883926360286,1.372637464472713,17.082960064161185
1687876997.038,0.9342031681675341,0.6942489050989805,0.8609083077399675,-1.1779830953271042,-0.509042799973435,1.4797806327626808,1.7147844521221085,0.934196784734878,0.694193679499872,0.8609457349076964,-1.1780725486872567,-0.508950680971916,1.4796001506645597,1.7147066299633407,0.21911270523071288,57.579592735290525,-12.014476375579834,-24.341485843658447,0.9138291549682617,-0.3227378730773926,-0.16120206069946288,0.22162018810521195,9.521438887257215,-2.6809235556473316,-5.642380453021739,0.2880467546926637,-0.33219937683767575,-0.16200242602731385,-0.11263893559966681,1.3710490352322913,17.082947139946036
1687876997.138,0.9342033479364471,0.6942489050989805,0.8609083077399675,-1.1779831553227973,-0.509042799973435,1.4797805727669875,1.7147844521221085,0.934196784734878,0.694193679499872,0.8609457349076964,-1.1780725486872567,-0.508950680971916,1.4796001506645597,1.7147066299633407,0.2204569549560547,57.54464224243164,-12.005672626495361,-24.328280220031736,0.9138291549682617,-0.325407886505127,-0.16253706741333007,0.2201257234137471,9.51922541927225,-2.6817151173591274,-5.640857782467258,0.28751848131813423,-0.3329329566534205,-0.16169949325316046,-0.11426467784652,1.3685940158344803,17.081391231168354
1687876997.238,0.9342033479364471,0.6942489050989805,0.8609083077399675,-1.1779830953271042,-0.509042799973435,1.4797805727669875,1.7147844521221085,0.934196784734878,0.694193679499872,0.8609457349076964,-1.1780725486872567,-0.508950680971916,1.4796001506645597,1.7147066299633407,0.2177684555053711,57.57287148666382,-12.014476375579834,-24.335323219299315,0.9164702796936035,-0.32574163818359375,-0.1618695640563965,0.22067168306102558,9.51319534341599,-2.6812638668642377,-5.640731243972352,0.28632218325629666,-0.3327116344856713,-0.16159771698312014,-0.1114726143132797,1.3574740077512095,17.077398886937512
1687876997.338,0.9342031681675341,0.6942489050989805,0.8609083077399675,-1.1779831553227973,-0.509042799973435,1.4797805727669875,1.7147845720044115,0.934196784734878,0.694193679499872,0.8609457349076964,-1.1780725486872567,-0.508950680971916,1.4796001506645597,1.7147066299633407,0.22314545440673828,57.58093698501587,-12.007433376312255,-24.33708396911621,0.9208721542358398,-0.32440663146972654,-0.16320457077026368,0.2200356984125935,9.521067278907525,-2.681174860887531,-5.641909148643651,0.2874675232847692,-0.3322295067185857,-0.16176569470924995,-0.11454414764969176,1.3691643055892213,17.082746524657765
1687876997.437,0.934203228054144,0.6942489050989805,0.8609083077399675,-1.1779831553227973,-0.5090428957920109,1.4797805727669875,1.7147844521221085,0.934196784734878,0.694193679499872,0.8609457349076964,-1.1780725486872567,-0.508950680971916,1.4796001506645597,1.7147066299633407,0.2204569549560547,57.56077323913574,-12.00919412612915,-24.341485843658447,0.9164702796936035,-0.32407287979125976,-0.1618695640563965,0.22555100291774371,9.520345506452903,-2.6801658434510394,-5.643480301918836,0.28763346873642065,-0.33290209362011,-0.1617828501334138,-0.10592246252209858,1.3719356414576223,17.084802866342653
1687876997.537,0.934203228054144,0.6942489050989805,0.8609083077399675,-1.1779831553227973,-0.509042799973435,1.4797805727669875,1.7147844521221085,0.934196784734878,0.694193679499872,0.8609457349076964,-1.1780725486872567,-0.508950680971916,1.4796001506645597,1.7147066299633407,0.2258339538574219,57.55001924133301,-12.005672626495361,-24.336203594207763,0.9155899047851562,-0.32240412139892577,-0.1615358123779297,0.22394074555332227,9.51139966994722,-2.6788947692359457,-5.6420500941712675,0.2885050259217147,-0.3324046906991593,-0.1621367103866636,-0.10608103096658397,1.3517212758860133,17.075544375368366
1687876997.637,0.934203228054144,0.6942489050989805,0.8609083077399675,-1.1779830953271042,-0.509042799973435,1.4797805727669875,1.7147844521221085,0.934196784734878,0.694193679499872,0.8609457349076964,-1.1780725486872567,-0.508950680971916,1.4796001506645597,1.7147066299633407,0.21373570632934571,57.586313983917236,-12.00919412612915,-24.345007343292234,0.9111880302429199,-0.32407287979125976,-0.16220331573486327,0.21831267124827275,9.516890929035911,-2.6797435921826196,-5.641644451285253,0.28631389191625956,-0.3327259334785667,-0.16146160884464894,-0.1147019919615723,1.3557512736534785,17.081526510906762
1687876997.771,0.934203228054144,0.6942489050989805,0.8609083077399675,-1.1779831553227973,-0.509042799973435,1.4797805727669875,1.7147844521221085,0.934196784734878,0.694193679499872,0.8609457349076964,-1.1780725486872567,-0.508950680971916,1.4796001506645597,1.7147066299633407,0.22852245330810547,57.56077323913574,-12.00303150177002,-24.328280220031736,0.9138291549682617,-0.32507413482666014,-0.16120206069946288,0.21983210570894993,9.518879772775982,-2.681224269032036,-5.642071506456742,0.2862774395802742,-0.3328154813703519,-0.16186517332631348,-0.11515778602604032,1.3639347902923165,17.08230432664041
1687876997.838,0.934203228054144,0.6942489050989805,0.8609083077399675,-1.1779831553227973,-0.5090428957920109,1.4797805727669875,1.7147844521221085,0.934196784734878,0.694193679499872,0.8609457349076964,-1.1780725486872567,-0.508950680971916,1.4796001506645597,1.7147066299633407,0.22986670303344728,57.57152723693848,-12.00919412612915,-24.3555718421936,0.9155899047851562,-0.32340537643432615,-0.16253706741333007,0.2206654427502988,9.516786054356187,-2.6809295811423617,-5.641211675059859,0.28637429536445136,-0.33274339960777594,-0.1619091821549019,-0.1129057384571436,1.363647203968051,17.08018187239184
1687876997.937,0.934203287940754,0.6942489050989805,0.8609081279710545,-1.1779831553227973,-0.5090428957920109,1.4797805727669875,1.7147844521221085,0.934196784734878,0.694193679499872,0.8609457349076964,-1.1780725486872567,-0.508950680971916,1.4796001506645597,1.7147066299633407,0.22314545440673828,57.56077323913574,-12.007433376312255,-24.33708396911621,0.9129487800598144,-0.3230716247558594,-0.16253706741333007,0.22682864782510448,9.513622013450762,-2.679739283402835,-5.6425729784774745,0.28615041682446096,-0.33283806362619817,-0.16226280674880597,-0.10345669090755866,1.3642425462834165,17.078970815927946
1687876998.036,0.934203228054144,0.6942489050989805,0.8609083077399675,-1.1779831553227973,-0.509042799973435,1.4797807525359008,1.7147844521221085,0.934196784734878,0.694193679499872,0.8609457349076964,-1.1780725486872567,-0.508950680971916,1.4796001506645597,1.7147066299633407,0.2177684555053711,57.5755599861145,-12.013596000671386,-24.34412696838379,0.914709529876709,-0.323739128112793,-0.16220331573486327,0.22205490540687456,9.518882488170458,-2.681396412334757,-5.644087239920294,0.28599484377257567,-0.33241916509741865,-0.1621696743693895,-0.11068964968529499,1.3614811599727588,17.085753156147874
1687876998.136,0.934203228054144,0.6942489050989805,0.8609083077399675,-1.1779830953271042,-0.509042799973435,1.4797805727669875,1.7147844521221085,0.934196784734878,0.694193679499872,0.8609457349076964,-1.1780725486872567,-0.508950680971916,1.4796001506645597,1.7147066299633407,0.23121095275878906,57.55270774078369,-12.00303150177002,-24.330040969848632,0.9120684051513672,-0.32474038314819337,-0.1618695640563965,0.22172111357454763,9.517680906249414,-2.6807619759176635,-5.640668377052517,0.28649470647780784,-0.3331340248532405,-0.16222689947683455,-0.11263614431928942,1.369608446646781,17.08002286366356
1687876998.236,0.9342033479364471,0.6942489050989805,0.8609083077399675,-1.1779831553227973,-0.509042799973435,1.4797807525359008,1.7147844521221085,0.934196784734878,0.694193679499872,0.8609457349076964,-1.1780725486872567,-0.508950680971916,1.4796001506645597,1.7147066299633407,0.21911270523071288,57.55270774078369,-12.004792251586913,-24.332682094573975,0.9164702796936035,-0.32507413482666014,-0.16253706741333007,0.22113792151066808,9.516276070232998,-2.680247724748704,-5.641457526301698,0.28800273502474855,-0.3332496215928794,-0.16269731295912832,-0.11284496599963145,1.3595288713743132,17.080163040229646
1687876998.335,0.934203228054144,0.6942489050989805,0.8609083077399675,-1.1779831553227973,-0.509042799973435,1.4797805727669875,1.7147844521221085,0.934196784734878,0.694193679499872,0.8609457349076964,-1.1780725486872567,-0.508950680971916,1.4796001506645597,1.7147066299633407,0.2177684555053711,57.57287148666382,-12.007433376312255,-24.33796434402466,0.9111880302429199,-0.32407287979125976,-0.16220331573486327,0.22314994075197936,9.521468215160365,-2.679234432779465,-5.643526800347333,0.2865312660699974,-0.3333370328643829,-0.16233002671941732,-0.11017760891444706,1.3687237237478054,17.087023322898375
1687876998.435,0.934203228054144,0.6942489050989805,0.8609083077399675,-1.1779831553227973,-0.509042799973435,1.4797805727669875,1.7147846318910216,0.934196784734878,0.694193679499872,0.8609457349076964,-1.1780725486872567,-0.508950680971916,1.4796001506645597,1.7147066299633407,0.22717820358276367,57.56615023803711,-12.008313751220703,-24.342366218566895,0.9173506546020508,-0.32240412139892577,-0.16320457077026368,0.2223722155436004,9.522614508260734,-2.680850486123992,-5.64352440759844,0.28758014323332215,-0.3331455525169242,-0.16224450901602874,-0.1121095581809346,1.3634005825121447,17.084515966398214
1687876998.536,0.934203228054144,0.6942489050989805,0.8609083077399675,-1.1779830953271042,-0.509042799973435,1.4797805727669875,1.7147844521221085,0.934196784734878,0.694193679499872,0.8609457349076964,-1.1780725486872567,-0.508950680971916,1.4796001506645597,1.7147066299633407,0.22986670303344728,57.55808473968506,-12.001270751953125,-24.336203594207763,0.9164702796936035,-0.32407287979125976,-0.16253706741333007,0.22346600849556061,9.517057318606355,-2.680000313222253,-5.642114910189167,0.2859960339607462,-0.33314927642653097,-0.16247158289154745,-0.10961153862016212,1.3663050668384042,17.08173643730926
1687876998.670,0.9342031681675341,0.6942489050989805,0.8609083077399675,-1.1779831553227973,-0.509042799973435,1.4797805727669875,1.7147844521221085,0.934196784734878,0.694193679499872,0.8609457349076964,-1.1780725486872567,-0.508950680971916,1.4796001506645597,1.7147066299633407,0.22717820358276367,57.57287148666382,-12.007433376312255,-24.343246593475342,0.9155899047851562,-0.32507413482666014,-0.16387207412719726,0.2252972020139024,9.52384678930279,-2.6807035719792744,-5.643352674018931,0.2877725161667052,-0.3330675158022221,-0.16270920499627278,-0.1091942934264459,1.3802661287050104,17.086712460260646
1687876998.737,0.9342033479364471,0.6942489050989805,0.8609083077399675,-1.1779831553227973,-0.509042799973435,1.4797805727669875,1.7147845720044115,0.934196784734878,0.694193679499872,0.8609457349076964,-1.1780725486872567,-0.508950680971916,1.4796001506645597,1.7147066299633407,0.2150799560546875,57.584969734191894,-12.010074501037597,-24.336203594207763,0.9191114044189453,-0.3270766448974609,-0.1605345573425293,0.22405880580452353,9.523694161525023,-2.6805156816252893,-5.642297474771393,0.2867001405559034,-0.33336402167380674,-0.16207254232645035,-0.11035725786946526,1.3818219212036327,17.08627677023258
1687876998.837,0.934203228054144,0.6942489050989805,0.8609083077399675,-1.1779831553227973,-0.509042799973435,1.4797805727669875,1.7147844521221085,0.934196784734878,0.694193679499872,0.8609457349076964,-1.1780725486872567,-0.508950680971916,1.4796001506645597,1.7147066299633407,0.2258339538574219,57.56077323913574,-12.007433376312255,-24.33972509384155,0.914709529876709,-0.32407287979125976,-0.1615358123779297,0.22171285705876653,9.519096115380172,-2.680587708374147,-5.64267388732311,0.2871981360725716,-0.33320336403252787,-0.16283313643783565,-0.10835982012455742,1.3610904466389462,17.079493798586167
1687876998.936,0.934203228054144,0.6942489050989805,0.8609083077399675,-1.1779831553227973,-0.509042799973435,1.4797807525359008,1.7147845720044115,0.934196784734878,0.694193679499872,0.8609457349076964,-1.1780725486872567,-0.508950680971916,1.4796001506645597,1.7147066299633407,0.22448970413208008,57.57152723693848,-12.010954875946044,-24.343246593475342,0.9129487800598144,-0.3230716247558594,-0.16287081909179688,0.22451576599919731,9.51473753121769,-2.6792225221896855,-5.641266025320266,0.28682483967030803,-0.33370647047367374,-0.1626586976589595,-0.10793139527414991,1.3643654789447615,17.079142042182987
1687876999.036,0.934203228054144,0.6942489050989805,0.8609083077399675,-1.1779830953271042,-0.509042799973435,1.4797806327626808,1.7147844521221085,0.934196784734878,0.694193679499872,0.8609457349076964,-1.1780725486872567,-0.508950680971916,1.4796001506645597,1.7147066299633407,0.22448970413208008,57.57152723693848,-12.015356750488282,-24.341485843658447,0.9103076553344727,-0.32340537643432615,-0.16287081909179688,0.21968270754450425,9.52303138475424,-2.684043939025538,-5.642385241900653,0.28737684869570473,-0.3335819389891751,-0.1622963623521863,-0.11650453331739843,1.3714328757584897,17.088341935727478
1687876999.136,0.9342033479364471,0.6942489050989805,0.8609083077399675,-1.1779831553227973,-0.509042799973435,1.4797805727669875,1.7147844521221085,0.934196784734878,0.694193679499872,0.8609457349076964,-1.1780725486872567,-0.508950680971916,1.4796001506645597,1.7147066299633407,0.2204569549560547,57.55270774078369,-12.004792251586913,-24.33796434402466,0.9138291549682617,-0.32574163818359375,-0.16220331573486327,0.22473079975031857,9.518132273152549,-2.681945910856923,-5.642474937704192,0.2870034709625474,-0.333144744494421,-0.16235590618907292,-0.11145703765208365,1.3680965004786598,17.082673260792056
1687876999.238,0.9342031681675341,0.6942489050989805,0.8609083077399675,-1.1779831553227973,-0.509042799973435,1.4797805727669875,1.7147844521221085,0.934196784734878,0.694193679499872,0.8609457349076964,-1.1780725486872567,-0.508950680971916,1.4796001506645597,1.7147066299633407,0.22314545440673828,57.56480598831177,-12.008313751220703,-24.338844718933107,0.9164702796936035,-0.3270766448974609,-0.16287081909179688,0.22381033291808766,9.516040121612875,-2.682109690408349,-5.642685229505402,0.2880574636709172,-0.33378381397507007,-0.16257173739780834,-0.10855238827110814,1.3607935083328355,17.083246844215463
1687876999.338,0.9342031681675341,0.6942489050989805,0.8609083077399675,-1.1779831553227973,-0.509042799973435,1.4797805727669875,1.7147844521221085,0.934196784734878,0.694193679499872,0.8609457349076964,-1.1780725486872567,-0.508950680971916,1.4796001506645597,1.7147066299633407,0.21911270523071288,57.58900248336792,-12.017997875213624,-24.345007343292234,0.9191114044189453,-0.32340537643432615,-0.16353832244873046,0.22029679351958292,9.52009710524337,-2.682011609014131,-5.642108542026666,0.2869158015590588,-0.33309346333947654,-0.16265254919989647,-0.11528377837223353,1.366775365621647,17.084370842860743
1687876999.472,0.9342031681675341,0.6942489050989805,0.8609083077399675,-1.1779831553227973,-0.5090428957920109,1.4797805727669875,1.7147845720044115,0.934196784734878,0.694193679499872,0.8609457349076964,-1.1780725486872567,-0.508950680971916,1.4796001506645597,1.7147066299633407,0.2258339538574219,57.57287148666382,-12.01271562576294,-24.338844718933107,0.914709529876709,-0.323739128112793,-0.16320457077026368,0.21908349108610586,9.524126540032116,-2.682152773241091,-5.6434262244507805,0.2868433782228706,-0.3336016466627294,-0.16221097292758824,-0.11657858952962713,1.3674584028804355,17.090797178624893
1687876999.542,0.934203228054144,0.6942489050989805,0.8609081879667475,-1.1779830953271042,-0.509042799973435,1.4797805727669875,1.7147844521221085,0.934196784734878,0.694193679499872,0.8609457349076964,-1.1780725486872567,-0.508950680971916,1.4796001506645597,1.7147066299633407,0.2258339538574219,57.57287148666382,-12.011835250854492,-24.335323219299315,0.9155899047851562,-0.32407287979125976,-0.1618695640563965,0.22102459665008517,9.522671715365195,-2.6825114682818714,-5.642622460541021,0.2870266761447803,-0.33320481727352735,-0.16188144998966464,-0.11367041631398161,1.3724455340496498,17.087282138864744
1687876999.641,0.934203228054144,0.6942489050989805,0.8609083077399675,-1.1779830953271042,-0.509042799973435,1.4797806327626808,1.7147844521221085,0.934196784734878,0.694193679499872,0.8609457349076964,-1.1780725486872567,-0.508950680971916,1.4796001506645597,1.7147066299633407,0.22314545440673828,57.55270774078369,-12.007433376312255,-24.33972509384155,0.9138291549682617,-0.32340537643432615,-0.16120206069946288,0.2198344560373971,9.51767506721961,-2.6815738918140877,-5.642720449569689,0.2881416339341289,-0.33266257071791167,-0.1623548878316985,-0.11395679145030563,1.356389433982846,17.082856065619254
1687876999.739,0.9342031681675341,0.6942489050989805,0.8609083077399675,-1.1779830953271042,-0.509042799973435,1.4797805727669875,1.7147845720044115,0.934196784734878,0.694193679499872,0.8609457349076964,-1.1780725486872567,-0.508950680971916,1.4796001506645597,1.7147066299633407,0.2218012046813965,57.58093698501587,-12.010954875946044,-24.33972509384155,0.9138291549682617,-0.32674289321899413,-0.16220331573486327,0.22413534491050935,9.516231236775887,-2.6798298315669706,-5.644812385553603,0.2894295753281261,-0.3329954423213815,-0.16198357736673363,-0.10541511948426022,1.3511330133848,17.084609789760606
1687876999.839,0.934203287940754,0.6942489050989805,0.8609083077399675,-1.1779831553227973,-0.509042799973435,1.4797805727669875,1.7147844521221085,0.934196784734878,0.694193679499872,0.8609457349076964,-1.1780725486872567,-0.508950680971916,1.4796001506645597,1.7147066299633407,0.22986670303344728,57.5755599861145,-12.00303150177002,-24.33796434402466,0.9164702796936035,-0.32240412139892577,-0.1618695640563965,0.22489748080809374,9.520290793795432,-2.680636594521065,-5.645214954086595,0.287478501704616,-0.33327191680836027,-0.16219348033754233,-0.10634416366382321,1.3632877502672158,17.088927461823427
1687876999.939,0.9342031681675341,0.6942489050989805,0.8609083077399675,-1.1779830953271042,-0.509042799973435,1.4797805727669875,1.7147844521221085,0.934196784734878,0.694193679499872,0.8609457349076964,-1.1780725486872567,-0.508950680971916,1.4796001506645597,1.7147066299633407,0.21911270523071288,57.56749448776245,-12.011835250854492,-24.34060546875,0.914709529876709,-0.32240412139892577,-0.16520708084106445,0.22081964800674483,9.517898733162287,-2.67991535255493,-5.644846302617806,0.28804816359610774,-0.33304031517214866,-0.1623964420325908,-0.11111879706130567,1.348813358718241,17.086979983882735
1687877000.039,0.934203287940754,0.6942489050989805,0.8609083077399675,-1.1779831553227973,-0.509042799973435,1.4797806327626808,1.7147844521221085,0.934196784734878,0.694193679499872,0.8609457349076964,-1.1780725486872567,-0.508950680971916,1.4796001506645597,1.7147066299633407,0.2218012046813965,57.56615023803711,-12.00303150177002,-24.33972509384155,0.914709529876709,-0.3230716247558594,-0.1618695640563965,0.22255948084341548,9.515550832304747,-2.679150565040002,-5.643605574229302,0.28793186380129604,-0.3329720052998395,-0.16233506866053682,-0.10865532029737446,1.3519922222695684,17.08258295981447
1687877000.139,0.934203287940754,0.6942489050989805,0.8609083077399675,-1.1779831553227973,-0.509042799973435,1.4797805727669875,1.7147846318910216,0.934196784734878,0.694193679499872,0.8609457349076964,-1.1780725486872567,-0.508950680971916,1.4796001506645597,1.7147066299633407,0.2218012046813965,57.57824848556518,-12.011835250854492,-24.345887718200682,0.914709529876709,-0.32440663146972654,-0.16120206069946288,0.2232116665242399,9.517868810943845,-2.6793573216788777,-5.643900209909154,0.28633940953077375,-0.3329378020957923,-0.16272914365827099,-0.10940334211929961,1.3598415144772749,17.084681112708186
1687877000.239,0.934203228054144,0.6942489050989805,0.8609083077399675,-1.1779831553227973,-0.509042799973435,1.4797806327626808,1.7147845720044115,0.934196784734878,0.694193679499872,0.8609457349076964,-1.1780725486872567,-0.508950680971916,1.4796001506645597,1.7147066299633407,0.21911270523071288,57.568838737487795,-12.005672626495361,-24.34412696838379,0.914709529876709,-0.3227378730773926,-0.16220331573486327,0.225330718812272,9.520036501262155,-2.6784341545786647,-5.642524748058493,0.28724017597246326,-0.3333333276925995,-0.16276746911488058,-0.1080419389290192,1.373140429994783,17.083083909059916
1687877000.373,0.9342033479364471,0.6942489050989805,0.8609083077399675,-1.1779831553227973,-0.509042799973435,1.4797806327626808,1.7147844521221085,0.934196784734878,0.694193679499872,0.8609457349076964,-1.1780725486872567,-0.508950680971916,1.4796001506645597,1.7147066299633407,0.22314545440673828,57.58093698501587,-12.00919412612915,-24.345887718200682,0.9103076553344727,-0.32240412139892577,-0.16253706741333007,0.22553978203847158,9.517044449308663,-2.6779800128381406,-5.641569859880767,0.286710665355039,-0.33284538732533653,-0.16177686651261258,-0.10708035440246061,1.3711584180610699,17.078400774810866
1687877000.442,0.934203287940754,0.6942487853257606,0.8609083077399675,-1.1779831553227973,-0.509042799973435,1.4797805727669875,1.7147844521221085,0.934196784734878,0.694193679499872,0.8609457349076964,-1.1780725486872567,-0.508950680971916,1.4796001506645597,1.7147066299633407,0.2164242057800293,57.5755599861145,-12.00919412612915,-24.33796434402466,0.9111880302429199,-0.3230716247558594,-0.16220331573486327,0.22090984894792592,9.515705379904551,-2.679895375914958,-5.640682639242765,0.28624662334688894,-0.33279232711915696,-0.1623623970503451,-0.11081260056585912,1.3661149732675832,17.07878965314543
1687877000.541,0.934203228054144,0.6942489050989805,0.8609083077399675,-1.1779831553227973,-0.509042799973435,1.4797805727669875,1.7147844521221085,0.934196784734878,0.694193679499872,0.8609457349076964,-1.1780725486872567,-0.508950680971916,1.4796001506645597,1.7147066299633407,0.22448970413208008,57.58093698501587,-12.005672626495361,-24.33356246948242,0.9129487800598144,-0.32173661804199216,-0.1605345573425293,0.22376863070487907,9.518211243173791,-2.678805600033818,-5.6422130142563045,0.2870248920030216,-0.3324529525639003,-0.16187396746680754,-0.1159567080523975,1.3653602489437342,17.080344847391412
1687877000.640,0.9342031681675341,0.6942489050989805,0.8609083077399675,-1.1779831553227973,-0.509042799973435,1.4797806327626808,1.7147844521221085,0.934196784734878,0.694193679499872,0.8609457349076964,-1.1780725486872567,-0.508950680971916,1.4796001506645597,1.7147066299633407,0.2177684555053711,57.56077323913574,-12.010074501037597,-24.331801719665528,0.9138291549682617,-0.32507413482666014,-0.1618695640563965,0.2223644232846624,9.521693493407234,-2.6797866258935206,-5.641242078391395,0.28710987987573466,-0.3324536249965847,-0.1624599619202408,-0.11316799679813089,1.3778412385516892,17.08117375561252
1687877000.740,0.934203228054144,0.6942489050989805,0.8609083077399675,-1.1779830953271042,-0.509042799973435,1.4797805727669875,1.7147846318910216,0.934196784734878,0.694193679499872,0.8609457349076964,-1.1780725486872567,-0.508950680971916,1.4796001506645597,1.7147066299633407,0.2204569549560547,57.562117488861084,-12.011835250854492,-24.336203594207763,0.9155899047851562,-0.32440663146972654,-0.16220331573486327,0.22240527570201682,9.52407320649295,-2.6818358352086387,-5.642375474066317,0.28731184134363186,-0.3328654546210693,-0.16216360104705327,-0.11294258517283673,1.3793910920075505,17.085524678310843
1687877000.839,0.934203228054144,0.6942489050989805,0.8609083077399675,-1.1779831553227973,-0.509042799973435,1.4797805727669875,1.7147844521221085,0.934196784734878,0.694193679499872,0.8609457349076964,-1.1780725486872567,-0.508950680971916,1.4796001506645597,1.7147066299633407,0.22852245330810547,57.556740489959715,-12.006553001403809,-24.33708396911621,0.9164702796936035,-0.3230716247558594,-0.16120206069946288,0.22138257864178396,9.516822507502718,-2.680832045167354,-5.639293427191672,0.2860559915438305,-0.33270446133335607,-0.16238359723740864,-0.114086705345534,1.3735988026350772,17.076288148673264
1687877000.939,0.9342033479364471,0.6942489050989805,0.8609083077399675,-1.1779831553227973,-0.509042799973435,1.4797805727669875,1.7147844521221085,0.934196784734878,0.694193679499872,0.8609457349076964,-1.1780725486872567,-0.508950680971916,1.4796001506645597,1.7147066299633407,0.22448970413208008,57.57824848556518,-12.008313751220703,-24.34412696838379,0.9155899047851562,-0.3230716247558594,-0.16120206069946288,0.22233042339380976,9.52094080118642,-2.681511620984363,-5.643762870787013,0.2869391907214266,-0.3327038236798924,-0.16200615328553813,-0.11082109621112779,1.3668634104553157,17.08664469983574
1687877001.038,0.9342033479364471,0.6942489050989805,0.8609083077399675,-1.1779831553227973,-0.509042799973435,1.4797805727669875,1.7147844521221085,0.934196784734878,0.694193679499872,0.8609457349076964,-1.1780725486872567,-0.508950680971916,1.4796001506645597,1.7147066299633407,0.22314545440673828,57.58228123474121,-12.004792251586913,-24.345887718200682,0.9191114044189453,-0.32474038314819337,-0.16387207412719726,0.22226702567861656,9.527913201924385,-2.681935572175409,-5.643367628092766,0.28708686902667013,-0.33254849731051433,-0.1622581100017217,-0.11415530267158686,1.3851966756149638,17.089598497851764
1687877001.138,0.934203228054144,0.6942489050989805,0.8609083077399675,-1.1779830953271042,-0.509042799973435,1.4797806327626808,1.7147845720044115,0.934196784734878,0.694193679499872,0.8609457349076964,-1.1780725486872567,-0.508950680971916,1.4796001506645597,1.7147066299633407,0.2204569549560547,57.56480598831177,-12.00919412612915,-24.33796434402466,0.9138291549682617,-0.323739128112793,-0.16253706741333007,0.21801809342373285,9.521724132610602,-2.681279601902242,-5.642045624520185,0.28729054668451914,-0.33247453138154587,-0.1616065872303453,-0.11697691393850135,1.3653447076667664,17.084612073002038
1687877001.239,0.9342031681675341,0.6942489050989805,0.8609083077399675,-1.1779831553227973,-0.509042799973435,1.4797805727669875,1.7147844521221085,0.934196784734878,0.694193679499872,0.8609457349076964,-1.1780725486872567,-0.508950680971916,1.4796001506645597,1.7147066299633407,0.2218012046813965,57.56480598831177,-12.00919412612915,-24.345007343292234,0.9173506546020508,-0.3227378730773926,-0.16287081909179688,0.22372657928440173,9.515124629345488,-2.6782601389823437,-5.64195798664766,0.28702110370161693,-0.3330079307132675,-0.16191385421210003,-0.10731824020220165,1.3605998824603767,17.079344000667646
1687877001.340,0.934203228054144,0.6942489050989805,0.8609083077399675,-1.1779831553227973,-0.509042799973435,1.4797805727669875,1.7147844521221085,0.934196784734878,0.694193679499872,0.8609457349076964,-1.1780725486872567,-0.508950680971916,1.4796001506645597,1.7147066299633407,0.2218012046813965,57.59437948226929,-12.01271562576294,-24.341485843658447,0.9173506546020508,-0.32407287979125976,-0.16253706741333007,0.22022238582434434,9.522858463056682,-2.6790715792824917,-5.642922192227427,0.2870048845568372,-0.3326222557259123,-0.16210109951967355,-0.10941668899597656,1.3725469404636093,17.08620665673555
1687877001.438,0.934203228054144,0.6942489050989805,0.8609083077399675,-1.1779831553227973,-0.509042799973435,1.4797805727669875,1.7147844521221085,0.934196784734878,0.694193679499872,0.8609457349076964,-1.1780725486872567,-0.508950680971916,1.4796001506645597,1.7147066299633407,0.2218012046813965,57.574215736389164,-12.005672626495361,-24.343246593475342,0.914709529876709,-0.32340537643432615,-0.1615358123779297,0.21895796659986966,9.525451335839115,-2.680344966499587,-5.642684100075103,0.2869318607033507,-0.3332264516505185,-0.16204921163038327,-0.11716286973892687,1.3723201153481759,17.088972612223078
1687877001.538,0.9342033479364471,0.6942489050989805,0.8609083077399675,-1.1779831553227973,-0.509042799973435,1.4797805727669875,1.7147844521221085,0.934196784734878,0.694193679499872,0.8609457349076964,-1.1780725486872567,-0.508950680971916,1.4796001506645597,1.7147066299633407,0.22448970413208008,57.556740489959715,-12.005672626495361,-24.336203594207763,0.9155899047851562,-0.32474038314819337,-0.16220331573486327,0.22271945156398737,9.514859968261058,-2.678818066775842,-5.642287225628561,0.2862165499517283,-0.3330396693527767,-0.16246374904768238,-0.10944198064794533,1.357670129416417,17.08034239345392
1687877001.639,0.934203228054144,0.6942489050989805,0.8609083077399675,-1.1779831553227973,-0.509042799973435,1.4797805727669875,1.7147844521221085,0.934196784734878,0.694193679499872,0.8609457349076964,-1.1780725486872567,-0.508950680971916,1.4796001506645597,1.7147066299633407,0.2150799560546875,57.5755599861145,-12.007433376312255,-24.336203594207763,0.9208721542358398,-0.32340537643432615,-0.16086830902099608,0.22211150963081333,9.51517132234476,-2.678849199348889,-5.641020625549171,0.2867260278578554,-0.33289919306965454,-0.16202214986182828,-0.10528898118523006,1.3652741183287629,17.078321413087068
1687877001.738,0.934203228054144,0.6942489050989805,0.8609083077399675,-1.1779831553227973,-0.509042799973435,1.4797805727669875,1.7147844521221085,0.934196784734878,0.694193679499872,0.8609457349076964,-1.1780725486872567,-0.508950680971916,1.4796001506645597,1.7147066299633407,0.21911270523071288,57.59437948226929,-12.01271562576294,-24.338844718933107,0.9138291549682617,-0.32340537643432615,-0.16287081909179688,0.2198682047901165,9.526231772662811,-2.6807748354561536,-5.643985394931145,0.2858321821205161,-0.33242232992326426,-0.16249108963685155,-0.11661724294158282,1.3738547563608536,17.090171005519114
1687877001.837,0.9342031681675341,0.6942489050989805,0.8609083077399675,-1.1779831553227973,-0.5090428957920109,1.4797805727669875,1.7147844521221085,0.934196784734878,0.694193679499872,0.8609457349076964,-1.1780725486872567,-0.508950680971916,1.4796001506645597,1.7147066299633407,0.2123914566040039,57.55270774078369,-12.007433376312255,-24.335323219299315,0.9155899047851562,-0.32407287979125976,-0.16220331573486327,0.22303662954859363,9.522668272658233,-2.6802238136941483,-5.6447812676206475,0.2863269410804228,-0.33261792286265257,-0.1621593860500171,-0.11002097586415385,1.3682727142846214,17.088936297165844
1687877001.938,0.934203228054144,0.6942489050989805,0.8609083077399675,-1.1779830953271042,-0.509042799973435,1.4797805727669875,1.7147844521221085,0.934196784734878,0.694193679499872,0.8609457349076964,-1.1780725486872567,-0.508950680971916,1.4796001506645597,1.7147066299633407,0.22717820358276367,57.54733074188233,-12.004792251586913,-24.334442844390868,0.9164702796936035,-0.32507413482666014,-0.16253706741333007,0.21933201085943543,9.513330341789292,-2.6789054215254127,-5.6419160025127955,0.28543286627219555,-0.3328317126340839,-0.1620077144774963,-0.11063991584625851,1.3499618058137957,17.08063729204746
1687877002.070,0.9342033479364471,0.6942489050989805,0.8609083077399675,-1.1779831553227973,-0.509042799973435,1.4797805727669875,1.7147844521221085,0.934196784734878,0.694193679499872,0.8609457349076964,-1.1780725486872567,-0.508950680971916,1.4796001506645597,1.7147066299633407,0.21911270523071288,57.574215736389164,-12.01271562576294,-24.342366218566895,0.9164702796936035,-0.32407287979125976,-0.16086830902099608,0.22644410350922156,9.516631944929719,-2.677216390040127,-5.643874087344056,0.2850291622852895,-0.3323171834139576,-0.161914967378667,-0.10426150495067826,1.3730512239580264,17.086840221120863
1687877002.138,0.934203228054144,0.6942489050989805,0.8609083077399675,-1.1779830953271042,-0.509042799973435,1.4797805727669875,1.7147844521221085,0.934196784734878,0.694193679499872,0.8609457349076964,-1.1780725486872567,-0.508950680971916,1.4796001506645597,1.7147066299633407,0.22852245330810547,57.5755599861145,-12.004792251586913,-24.336203594207763,0.9103076553344727,-0.32474038314819337,-0.1615358123779297,0.2204272092621964,9.526472855753527,-2.6809711930699596,-5.642870412296972,0.28581723361446165,-0.3327114755037207,-0.1618790031221004,-0.11563143517948632,1.379897150706706,17.089060819794586
1687877002.238,0.9342031681675341,0.6942489050989805,0.8609083077399675,-1.1779831553227973,-0.509042799973435,1.4797805727669875,1.7147846318910216,0.934196784734878,0.694193679499872,0.8609457349076964,-1.1780725486872567,-0.508950680971916,1.4796001506645597,1.7147066299633407,0.22314545440673828,57.56077323913574,-12.007433376312255,-24.342366218566895,0.9173506546020508,-0.32340537643432615,-0.16120206069946288,0.22472881683204668,9.518226981429153,-2.6778399962319765,-5.641874591770744,0.2847202176655059,-0.33287718680752715,-0.1618717261904552,-0.11183726185633491,1.3693580453316407,17.08121319343372
1687877002.337,0.934203287940754,0.6942489050989805,0.8609083077399675,-1.1779831553227973,-0.509042799973435,1.4797807525359008,1.7147844521221085,0.934196784734878,0.694193679499872,0.8609457349076964,-1.1780725486872567,-0.508950680971916,1.4796001506645597,1.7147066299633407,0.2150799560546875,57.568838737487795,-12.00919412612915,-24.34412696838379,0.9173506546020508,-0.3230716247558594,-0.16287081909179688,0.22080478889906724,9.51690951417115,-2.679139698524592,-5.641350311707822,0.285180367993741,-0.3321266872496228,-0.1617177585001577,-0.11234990710421638,1.3645397665919654,17.079173125498016
1687877002.437,0.9342031681675341,0.6942489050989805,0.8609083077399675,-1.1779831553227973,-0.509042799973435,1.4797806327626808,1.7147844521221085,0.934196784734878,0.694193679499872,0.8609457349076964,-1.1780725486872567,-0.508950680971916,1.4796001506645597,1.7147066299633407,0.22986670303344728,57.56480598831177,-12.007433376312255,-24.350289592742918,0.9138291549682617,-0.3260753898620605,-0.16120206069946288,0.2244341174169544,9.517168237062693,-2.6787657367857993,-5.639732359242776,0.2854245502060354,-0.33279005292696595,-0.16229878785103227,-0.10959727873887429,1.378680610647077,17.076341870434707
1687877002.537,0.934203228054144,0.6942489050989805,0.8609081879667475,-1.1779830953271042,-0.509042799973435,1.4797806327626808,1.7147846318910216,0.934196784734878,0.694193679499872,0.8609457349076964,-1.1780725486872567,-0.508950680971916,1.4796001506645597,1.7147066299633407,0.22717820358276367,57.57018298721314,-12.006553001403809,-24.335323219299315,0.9155899047851562,-0.32474038314819337,-0.1618695640563965,0.22390378335434152,9.518173679214854,-2.6801125449572103,-5.6408776952434465,0.2861065044684924,-0.3327450389418203,-0.1619043086713396,-0.10888237655284505,1.3756349999291968,17.079902431932314
1687877002.637,0.934203228054144,0.6942489050989805,0.8609083077399675,-1.1779831553227973,-0.5090428957920109,1.4797805727669875,1.7147844521221085,0.934196784734878,0.694193679499872,0.8609457349076964,-1.1780725486872567,-0.508950680971916,1.4796001506645597,1.7147066299633407,0.2110472068786621,57.58900248336792,-12.021519374847411,-24.349409217834474,0.9120684051513672,-0.32440663146972654,-0.16086830902099608,0.22432566943797336,9.521568417065549,-2.6804561221135774,-5.642999089675577,0.28499272288359806,-0.3328712331573601,-0.16189673273790195,-0.10885454484295709,1.3771783263996056,17.08588822924428
1687877002.739,0.9342033479364471,0.6942489050989805,0.8609083077399675,-1.1779830953271042,-0.509042799973435,1.4797805727669875,1.7147844521221085,0.934196784734878,0.694193679499872,0.8609457349076964,-1.1780725486872567,-0.508950680971916,1.4796001506645597,1.7147066299633407,0.2123914566040039,57.55808473968506,-12.007433376312255,-24.34060546875,0.9138291549682617,-0.32507413482666014,-0.16420582580566406,0.22067560136481768,9.524179993555947,-2.683289134491753,-5.64410077670837,0.2846738309735639,-0.33278283826325905,-0.16230166283681224,-0.11498841247710687,1.373144167152677,17.090948362435984
1687877002.839,0.934203228054144,0.6942489050989805,0.8609083077399675,-1.1779831553227973,-0.509042799973435,1.4797806327626808,1.7147844521221085,0.934196784734878,0.694193679499872,0.8609457349076964,-1.1780725486872567,-0.508950680971916,1.4796001506645597,1.7147066299633407,0.22852245330810547,57.55405199050903,-12.008313751220703,-24.336203594207763,0.914709529876709,-0.32741039657592774,-0.1615358123779297,0.22187766160839426,9.517927476598436,-2.681316820454126,-5.643093772741555,0.2859645973738939,-0.33270885495829405,-0.16184904848082438,-0.11059055631784637,1.362333825730268,17.084175031917972
1687877002.971,0.9342033479364471,0.6942489050989805,0.8609083077399675,-1.1779831553227973,-0.509042799973435,1.4797805727669875,1.7147844521221085,0.934196784734878,0.694193679499872,0.8609457349076964,-1.1780725486872567,-0.508950680971916,1.4796001506645597,1.7147066299633407,0.2204569549560547,57.58765823364258,-12.011835250854492,-24.33708396911621,0.9111880302429199,-0.3230716247558594,-0.16287081909179688,0.22025309650414482,9.526535422008022,-2.6834990858078642,-5.646062157489609,0.28513779007060824,-0.33259255612923677,-0.16190211344394104,-0.11150888435090472,1.3728078159215513,17.095656381814276
1687877003.040,0.934203228054144,0.6942489050989805,0.8609083077399675,-1.1779831553227973,-0.509042799973435,1.4797805727669875,1.7147844521221085,0.934196784734878,0.694193679499872,0.8609457349076964,-1.1780725486872567,-0.508950680971916,1.4796001506645597,1.7147066299633407,0.22314545440673828,57.59034673309326,-12.013596000671386,-24.343246593475342,0.9155899047851562,-0.32440663146972654,-0.16353832244873046,0.22214522338509105,9.52118017774717,-2.681556145148325,-5.644707911965556,0.2847508715763277,-0.3325432787483598,-0.16196329682281668,-0.10559784483466972,1.3703852236549334,17.089341132420817
1687877003.138,0.934203228054144,0.6942490249812835,0.8609083077399675,-1.1779831553227973,-0.509042799973435,1.4797805727669875,1.7147844521221085,0.934196784734878,0.694193679499872,0.8609457349076964,-1.1780725486872567,-0.508950680971916,1.4796001506645597,1.7147066299633407,0.22717820358276367,57.57018298721314,-12.004792251586913,-24.33796434402466,0.914709529876709,-0.32340537643432615,-0.16253706741333007,0.22522870891905492,9.525281986186684,-2.6820530558008544,-5.645569593775083,0.284581720010999,-0.3329154689658276,-0.1617244755909392,-0.1074106547751433,1.3792334435554503,17.093272112825886
1687877003.243,0.934203228054144,0.6942489050989805,0.8609083077399675,-1.1779831553227973,-0.509042799973435,1.4797806327626808,1.7147844521221085,0.934196784734878,0.694193679499872,0.8609457349076964,-1.1780725486872567,-0.508950680971916,1.4796001506645597,1.7147066299633407,0.22448970413208008,57.56480598831177,-12.007433376312255,-24.336203594207763,0.9129487800598144,-0.32340537643432615,-0.16086830902099608,0.22355442862368763,9.519319661072192,-2.679377453711183,-5.64392340134542,0.2847664807311914,-0.33261649432134766,-0.1616011527248502,-0.10713604364618198,1.3662684722894611,17.085545471090924
1687877003.342,0.934203228054144,0.6942489050989805,0.8609083077399675,-1.1779830953271042,-0.509042799973435,1.4797806327626808,1.7147844521221085,0.934196784734878,0.694193679499872,0.8609457349076964,-1.1780725486872567,-0.508950680971916,1.4796001506645597,1.7147066299633407,0.21911270523071288,57.57152723693848,-12.003911876678467,-24.338844718933107,0.914709529876709,-0.32407287979125976,-0.16253706741333007,0.22467844899108846,9.517769637430161,-2.6798145180040627,-5.6418281221930595,0.2849348702741509,-0.33290370355781485,-0.16198071211512471,-0.10783897990642316,1.3733190102615862,17.081319364841132
1687877003.443,0.934203287940754,0.6942489050989805,0.8609083077399675,-1.1779831553227973,-0.509042799973435,1.4797805727669875,1.7147844521221085,0.934196784734878,0.694193679499872,0.8609457349076964,-1.1780725486872567,-0.508950680971916,1.4796001506645597,1.7147066299633407,0.2177684555053711,57.57287148666382,-12.010954875946044,-24.345007343292234,0.9103076553344727,-0.32440663146972654,-0.16287081909179688,0.21613287701318507,9.523713797263794,-2.6837126511421863,-5.641915676088633,0.2856868917819908,-0.3327367650094031,-0.16175504999239942,-0.12102338461792636,1.3695177414003392,17.08779366593859
1687877003.543,0.934203228054144,0.6942489050989805,0.8609083077399675,-1.1779831553227973,-0.509042799973435,1.4797805727669875,1.7147844521221085,0.934196784734878,0.694193679499872,0.8609457349076964,-1.1780725486872567,-0.508950680971916,1.4796001506645597,1.7147066299633407,0.2164242057800293,57.56615023803711,-12.014476375579834,-24.34412696838379,0.9191114044189453,-0.32440663146972654,-0.16220331573486327,0.2224739992943527,9.520226226376778,-2.6817144997014144,-5.640781540604703,0.28506952582584316,-0.3332737728859593,-0.16183536215728456,-0.11690502114783358,1.3745214703012794,17.084219352931157
1687877003.642,0.9342033479364471,0.6942489050989805,0.8609083077399675,-1.1779831553227973,-0.509042799973435,1.4797805727669875,1.7147845720044115,0.934196784734878,0.694193679499872,0.8609457349076964,-1.1780725486872567,-0.508950680971916,1.4796001506645597,1.7147066299633407,0.21373570632934571,57.57152723693848,-12.015356750488282,-24.33972509384155,0.914709529876709,-0.32474038314819337,-0.1615358123779297,0.22155824440951022,9.52233500966134,-2.6803146376769345,-5.642616702864496,0.2854261982151435,-0.33287175339491537,-0.16192428865787978,-0.11286148920333047,1.373494124772176,17.086174099698408
1687877003.775,0.934203228054144,0.6942489050989805,0.8609083077399675,-1.1779830953271042,-0.509042799973435,1.4797805727669875,1.7147844521221085,0.934196784734878,0.694193679499872,0.8609457349076964,-1.1780725486872567,-0.508950680971916,1.4796001506645597,1.7147066299633407,0.22717820358276367,57.5755599861145,-12.00919412612915,-24.34412696838379,0.9217525291442871,-0.32574163818359375,-0.16120206069946288,0.22185811325376298,9.522783703708797,-2.681314165436847,-5.641524239425246,0.2857761446944333,-0.3326027178781303,-0.1620941259200755,-0.11382038720915638,1.3805110086832486,17.083849388762893
1687877003.844,0.934203228054144,0.6942489050989805,0.8609083077399675,-1.1779831553227973,-0.509042799973435,1.4797805727669875,1.7147844521221085,0.934196784734878,0.694193679499872,0.8609457349076964,-1.1780725486872567,-0.508950680971916,1.4796001506645597,1.7147066299633407,0.2110472068786621,57.57018298721314,-12.005672626495361,-24.34412696838379,0.9173506546020508,-0.32440663146972654,-0.16086830902099608,0.21899831940815934,9.522759163111918,-2.681188163570868,-5.641610400952669,0.2868996443186759,-0.3326161582573609,-0.1617254747637279,-0.11658574881564909,1.3720051880329702,17.084515543944462
1687877003.944,0.934203287940754,0.6942489050989805,0.8609083077399675,-1.1779831553227973,-0.509042799973435,1.4797805727669875,1.7147844521221085,0.934196784734878,0.694193679499872,0.8609457349076964,-1.1780725486872567,-0.508950680971916,1.4796001506645597,1.7147066299633407,0.2070144577026367,57.562117488861084,-12.006553001403809,-24.338844718933107,0.9173506546020508,-0.32407287979125976,-0.16220331573486327,0.2225799143637785,9.519923446153664,-2.6796724298938535,-5.6418546112394905,0.28734718595538067,-0.333006839219206,-0.16201364614215724,-0.11092726698788224,1.3704243723144582,17.08247340555874
1687877004.043,0.934203228054144,0.6942489050989805,0.8609083077399675,-1.1779831553227973,-0.509042799973435,1.4797806327626808,1.7147844521221085,0.934196784734878,0.694193679499872,0.8609457349076964,-1.1780725486872567,-0.508950680971916,1.4796001506645597,1.7147066299633407,0.2177684555053711,57.57287148666382,-12.010954875946044,-24.336203594207763,0.9138291549682617,-0.32474038314819337,-0.16220331573486327,0.21789414703757737,9.51999241205517,-2.6812612713938826,-5.642510858284037,0.2864571163953879,-0.33268360761896604,-0.16205867743402302,-0.11706042933396632,1.3597573585288236,17.085042904237234
1687877004.143,0.934203228054144,0.6942489050989805,0.8609083077399675,-1.1779830953271042,-0.509042799973435,1.4797805727669875,1.7147844521221085,0.934196784734878,0.694193679499872,0.8609457349076964,-1.1780725486872567,-0.508950680971916,1.4796001506645597,1.7147066299633407,0.21911270523071288,57.574215736389164,-12.01271562576294,-24.34060546875,0.9111880302429199,-0.3230716247558594,-0.16253706741333007,0.2209262509602289,9.521790760307614,-2.6805548429671404,-5.643623177279913,0.2856605972862927,-0.3330751150307063,-0.1617631799517943,-0.11251435268356497,1.3662470646240663,17.088362629752677
1687877004.243,0.934203287940754,0.6942489050989805,0.8609083077399675,-1.1779831553227973,-0.509042799973435,1.4797806327626808,1.7147844521221085,0.934196784734878,0.694193679499872,0.8609457349076964,-1.1780725486872567,-0.508950680971916,1.4796001506645597,1.7147066299633407,0.21911270523071288,57.5594289894104,-12.011835250854492,-24.33356246948242,0.9129487800598144,-0.325407886505127,-0.1618695640563965,0.22241204407114795,9.52060138782128,-2.683314259767381,-5.644262357485946,0.2861601600082642,-0.3330189367976735,-0.16158820260492454,-0.10991880084002725,1.3659881552510271,17.08898300450024
1687877004.345,0.934203228054144,0.6942489050989805,0.8609083077399675,-1.1779830953271042,-0.509042799973435,1.4797806327626808,1.7147846917776313,0.934196784734878,0.694193679499872,0.8609457349076964,-1.1780725486872567,-0.508950680971916,1.4796001506645597,1.7147066299633407,0.22448970413208008,57.55539624023437,-12.007433376312255,-24.34676809310913,0.9173506546020508,-0.32407287979125976,-0.1602008056640625,0.22238521670416345,9.516504610315442,-2.681398451673087,-5.643442171356223,0.2857805755395044,-0.33263204302293564,-0.1618540998802135,-0.11114225996835925,1.3571031313508306,17.083856411682536
1687877004.443,0.934203287940754,0.6942489050989805,0.8609082478533576,-1.1779831553227973,-0.509042799973435,1.4797805727669875,1.7147845720044115,0.934196784734878,0.694193679499872,0.8609457349076964,-1.1780725486872567,-0.508950680971916,1.4796001506645597,1.7147066299633407,0.22314545440673828,57.57018298721314,-12.00919412612915,-24.341485843658447,0.914709529876709,-0.323739128112793,-0.1605345573425293,0.22266604131179776,9.518591156382914,-2.6821162293159597,-5.643054023000187,0.2865481287466789,-0.3327197639017768,-0.1621828627281356,-0.11047454094656375,1.3659017759175383,17.08415906316602
1687877004.543,0.934203228054144,0.6942489050989805,0.8609083077399675,-1.1779830953271042,-0.509042799973435,1.4797806327626808,1.7147844521221085,0.934196784734878,0.694193679499872,0.8609457349076964,-1.1780725486872567,-0.508950680971916,1.4796001506645597,1.7147066299633407,0.22717820358276367,57.57287148666382,-12.010074501037597,-24.349409217834474,0.9164702796936035,-0.3230716247558594,-0.1618695640563965,0.22355747492216793,9.520537902776676,-2.6823107258067145,-5.644218051255243,0.28715620738712544,-0.33265617193194474,-0.16209172521674292,-0.10908956862069996,1.3673959383113428,17.086916314286032
1687877004.676,0.934203228054144,0.6942489050989805,0.8609083077399675,-1.1779831553227973,-0.509042799973435,1.4797805727669875,1.7147844521221085,0.934196784734878,0.694193679499872,0.8609457349076964,-1.1780725486872567,-0.508950680971916,1.4796001506645597,1.7147066299633407,0.22717820358276367,57.5755599861145,-12.010954875946044,-24.350289592742918,0.914709529876709,-0.3230716247558594,-0.1595333023071289,0.22601094534474186,9.517477788347328,-2.6806055086968326,-5.644412413779226,0.2872867586399832,-0.3331368560910683,-0.16174792299477658,-0.10373151093582073,1.362839688868458,17.085491351064693
1687877004.745,0.934203287940754,0.6942489050989805,0.8609083077399675,-1.1779831553227973,-0.509042799973435,1.4797805727669875,1.7147844521221085,0.934196784734878,0.694193679499872,0.8609457349076964,-1.1780725486872567,-0.508950680971916,1.4796001506645597,1.7147066299633407,0.23121095275878906,57.57287148666382,-12.006553001403809,-24.342366218566895,0.9173506546020508,-0.32407287979125976,-0.1605345573425293,0.2239293297751428,9.517949134303402,-2.681518275344506,-5.642272005725302,0.28662239664450084,-0.3325173058159038,-0.16122557362399256,-0.10743200665908564,1.3701192664051138,17.081803931644295
1687877004.844,0.934203228054144,0.6942489050989805,0.8609083077399675,-1.1779831553227973,-0.509042799973435,1.4797805727669875,1.7147844521221085,0.934196784734878,0.694193679499872,0.8609457349076964,-1.1780725486872567,-0.508950680971916,1.4796001506645597,1.7147066299633407,0.2164242057800293,57.56615023803711,-12.010954875946044,-24.341485843658447,0.9217525291442871,-0.32240412139892577,-0.16253706741333007,0.2232802045230529,9.519438056577986,-2.681064571615238,-5.6434602939504455,0.28793337656322426,-0.3328511582273156,-0.16151708992208583,-0.1081789863629612,1.3649975373734258,17.085004448742673
1687877004.945,0.9342031681675341,0.6942489050989805,0.8609083077399675,-1.1779831553227973,-0.509042799973435,1.4797805727669875,1.7147844521221085,0.934196784734878,0.694193679499872,0.8609457349076964,-1.1780725486872567,-0.508950680971916,1.4796001506645597,1.7147066299633407,0.22717820358276367,57.5594289894104,-12.014476375579834,-24.33972509384155,0.9173506546020508,-0.32474038314819337,-0.1618695640563965,0.22389425742942382,9.518798759336272,-2.6811210645997896,-5.643024408320147,0.2876223902800127,-0.3328997700691476,-0.16127811279489465,-0.107083972318199,1.3669786076502826,17.084005207510376
1687877005.044,0.934203287940754,0.6942489050989805,0.8609083077399675,-1.1779831553227973,-0.509042799973435,1.4797807525359008,1.7147844521221085,0.934196784734878,0.694193679499872,0.8609457349076964,-1.1780725486872567,-0.508950680971916,1.4796001506645597,1.7147066299633407,0.22314545440673828,57.56077323913574,-12.004792251586913,-24.33356246948242,0.9182310295104981,-0.32474038314819337,-0.16086830902099608,0.22241216459696111,9.517531784105707,-2.680945248319661,-5.641259746259925,0.2874718158286004,-0.33296786065384804,-0.1617697170771127,-0.11047281292335517,1.3676972156331726,17.080373577859937
1687877005.143,0.9342031681675341,0.6942487853257606,0.8609083077399675,-1.1779831553227973,-0.509042799973435,1.4797806327626808,1.7147844521221085,0.934196784734878,0.694193679499872,0.8609457349076964,-1.1780725486872567,-0.508950680971916,1.4796001506645597,1.7147066299633407,0.21911270523071288,57.58093698501587,-12.010954875946044,-24.338844718933107,0.9199917793273925,-0.325407886505127,-0.16253706741333007,0.22382816382394138,9.523991634337698,-2.680530929578013,-5.642594500787766,0.28750564413826,-0.3330685497008137,-0.1611997807368489,-0.10903082299035016,1.3802106193599293,17.086517985288573
1687877005.242,0.934203287940754,0.6942489050989805,0.8609083077399675,-1.1779831553227973,-0.509042799973435,1.4797806327626808,1.7147844521221085,0.934196784734878,0.694193679499872,0.8609457349076964,-1.1780725486872567,-0.508950680971916,1.4796001506645597,1.7147066299633407,0.2218012046813965,57.57152723693848,-12.006553001403809,-24.335323219299315,0.9164702796936035,-0.32507413482666014,-0.16120206069946288,0.21902997020858256,9.527404913880485,-2.682481769840864,-5.643179842854502,0.2875036046836367,-0.3332465077274027,-0.16146344888635783,-0.11674010661147871,1.3760107361758416,17.09167872029547
1687877005.342,0.934203228054144,0.6942489050989805,0.8609083077399675,-1.1779831553227973,-0.509042799973435,1.4797805727669875,1.7147844521221085,0.934196784734878,0.694193679499872,0.8609457349076964,-1.1780725486872567,-0.508950680971916,1.4796001506645597,1.7147066299633407,0.2204569549560547,57.56749448776245,-12.013596000671386,-24.342366218566895,0.9155899047851562,-0.325407886505127,-0.1615358123779297,0.22456835587330903,9.519290605912174,-2.6807916430214065,-5.642787422574214,0.28733059701503666,-0.3328430351997115,-0.16175821924773467,-0.10737021870443922,1.3708921070767637,17.083356205977438
1687877005.475,0.9342031681675341,0.6942489050989805,0.8609083077399675,-1.1779830953271042,-0.509042799973435,1.4797805727669875,1.7147844521221085,0.934196784734878,0.694193679499872,0.8609457349076964,-1.1780725486872567,-0.508950680971916,1.4796001506645597,1.7147066299633407,0.2258339538574219,57.563461738586426,-12.005672626495361,-24.335323219299315,0.9164702796936035,-0.3230716247558594,-0.16287081909179688,0.22818828701589083,9.514157363055192,-2.678770489110293,-5.641710049393719,0.2869317419257754,-0.3334289938429258,-0.16138301258606214,-0.10054712792485643,1.369509585373234,17.0784251017806
1687877005.543,0.934203287940754,0.6942489050989805,0.8609083077399675,-1.1779830953271042,-0.509042799973435,1.4797805727669875,1.7147844521221085,0.934196784734878,0.694193679499872,0.8609457349076964,-1.1780725486872567,-0.508950680971916,1.4796001506645597,1.7147066299633407,0.2258339538574219,57.586313983917236,-12.010074501037597,-24.349409217834474,0.9182310295104981,-0.323739128112793,-0.1615358123779297,0.22249304621485433,9.524421004194572,-2.68215362337652,-5.643126834970783,0.2876759727528598,-0.3331504496778246,-0.16141414095957807,-0.11115488671908141,1.376944855156895,17.088574869431334
1687877005.643,0.934203228054144,0.6942489050989805,0.8609083077399675,-1.1779830953271042,-0.509042799973435,1.4797805727669875,1.7147844521221085,0.934196784734878,0.694193679499872,0.8609457349076964,-1.1780725486872567,-0.508950680971916,1.4796001506645597,1.7147066299633407,0.22314545440673828,57.563461738586426,-12.01271562576294,-24.341485843658447,0.9164702796936035,-0.3260753898620605,-0.1618695640563965,0.22242809297448285,9.522811803936708,-2.6815589076747415,-5.6435792798823154,0.2877091975933102,-0.3335197249832774,-0.16173415254618428,-0.11072753181072814,1.3701427314938635,17.088961898817903
1687877005.742,0.934203228054144,0.6942489050989805,0.8609083077399675,-1.1779831553227973,-0.509042799973435,1.4797805727669875,1.7147844521221085,0.934196784734878,0.694193679499872,0.8609457349076964,-1.1780725486872567,-0.508950680971916,1.4796001506645597,1.7147066299633407,0.2258339538574219,57.563461738586426,-12.006553001403809,-24.345007343292234,0.9164702796936035,-0.325407886505127,-0.16120206069946288,0.22062620151001883,9.521400544237892,-2.6808283238456534,-5.643963812678832,0.2880110281734347,-0.3333679107663937,-0.16189134373879854,-0.11240436192226749,1.3603951644787504,17.08863210995137
1687877005.842,0.934203228054144,0.6942489050989805,0.8609083077399675,-1.1779830953271042,-0.509042799973435,1.4797805727669875,1.7147844521221085,0.934196784734878,0.694193679499872,0.8609457349076964,-1.1780725486872567,-0.508950680971916,1.4796001506645597,1.7147066299633407,0.2218012046813965,57.58228123474121,-12.003911876678467,-24.34412696838379,0.9191114044189453,-0.32507413482666014,-0.16253706741333007,0.22638573284164035,9.519354878877728,-2.6798961204878076,-5.6428282080406005,0.2875147132786501,-0.333469100297184,-0.1619716007392124,-0.10508758323749745,1.3732814188011522,17.083904397187055
1687877005.942,0.9342033479364471,0.6942489050989805,0.8609083077399675,-1.1779830953271042,-0.509042799973435,1.4797805727669875,1.7147846318910216,0.934196784734878,0.694193679499872,0.8609457349076964,-1.1780725486872567,-0.508950680971916,1.4796001506645597,1.7147066299633407,0.2177684555053711,57.58093698501587,-12.010954875946044,-24.34676809310913,0.9155899047851562,-0.32407287979125976,-0.16086830902099608,0.2214812663515457,9.521964554329253,-2.6804765435022606,-5.6419722778718375,0.28732269442901764,-0.33303425047680046,-0.16196757222291625,-0.1130384935807156,1.3728126394230196,17.08448100901433
1687877006.042,0.934203287940754,0.6942489050989805,0.8609083077399675,-1.1779831553227973,-0.509042799973435,1.4797805727669875,1.7147846318910216,0.934196784734878,0.694193679499872,0.8609457349076964,-1.1780725486872567,-0.508950680971916,1.4796001506645597,1.7147066299633407,0.2258339538574219,57.57824848556518,-12.003911876678467,-24.338844718933107,0.9173506546020508,-0.32440663146972654,-0.16320457077026368,0.22712092812958157,9.51936799360038,-2.6802244988448805,-5.643158804241094,0.28696686923576664,-0.3334042518981465,-0.16215069810149607,-0.10439946637873909,1.3746835094810046,17.08439221953351
1687877006.141,0.934203287940754,0.6942487853257606,0.8609083077399675,-1.1779831553227973,-0.509042799973435,1.4797806327626808,1.7147844521221085,0.934196784734878,0.694193679499872,0.8609457349076964,-1.1780725486872567,-0.508950680971916,1.4796001506645597,1.7147066299633407,0.2177684555053711,57.57690423583984,-12.010954875946044,-24.34412696838379,0.9173506546020508,-0.3227378730773926,-0.16220331573486327,0.22630949139531692,9.524729139119552,-2.6806080226280784,-5.645345831409176,0.2873852124210308,-0.33292432398340466,-0.1617347282416915,-0.10534179959306234,1.3770519056754043,17.090840076178896
1687877006.241,0.9342031681675341,0.6942489050989805,0.8609083077399675,-1.1779831553227973,-0.509042799973435,1.4797805727669875,1.7147844521221085,0.934196784734878,0.694193679499872,0.8609457349076964,-1.1780725486872567,-0.508950680971916,1.4796001506645597,1.7147066299633407,0.2258339538574219,57.56480598831177,-12.00919412612915,-24.335323219299315,0.9164702796936035,-0.32440663146972654,-0.16320457077026368,0.22510166784852995,9.520200955041139,-2.681282273379492,-5.643200398861387,0.2873021095476532,-0.3330402623580467,-0.16190050548809143,-0.10703768169319877,1.372746476338604,17.08500211079291
1687877006.375,0.934203228054144,0.6942489050989805,0.8609083077399675,-1.1779831553227973,-0.5090428957920109,1.4797806327626808,1.7147844521221085,0.934196784734878,0.694193679499872,0.8609457349076964,-1.1780725486872567,-0.508950680971916,1.4796001506645597,1.7147066299633407,0.22717820358276367,57.56077323913574,-12.007433376312255,-24.33972509384155,0.9182310295104981,-0.3227378730773926,-0.1618695640563965,0.2263592875460357,9.51926188797786,-2.680642251360493,-5.645009329030385,0.28787074077246755,-0.33295099690600416,-0.16188110789885424,-0.11038427840916037,1.3634253978489836,17.087938571713774
1687877006.444,0.9342031681675341,0.6942489050989805,0.8609083077399675,-1.1779831553227973,-0.509042799973435,1.4797805727669875,1.7147844521221085,0.934196784734878,0.694193679499872,0.8609457349076964,-1.1780725486872567,-0.508950680971916,1.4796001506645597,1.7147066299633407,0.2218012046813965,57.5755599861145,-12.006553001403809,-24.33972509384155,0.9199917793273925,-0.32474038314819337,-0.16420582580566406,0.22338591652531614,9.519136161683594,-2.680616827714577,-5.644150008166524,0.28946309725246844,-0.33299265444798054,-0.16207027619939945,-0.10811233123694758,1.3595246717864722,17.08544408569646
1687877006.543,0.934203228054144,0.6942489050989805,0.8609083077399675,-1.1779831553227973,-0.509042799973435,1.4797806327626808,1.7147844521221085,0.934196784734878,0.694193679499872,0.8609457349076964,-1.1780725486872567,-0.508950680971916,1.4796001506645597,1.7147066299633407,0.2258339538574219,57.57824848556518,-12.010074501037597,-24.338844718933107,0.9173506546020508,-0.32574163818359375,-0.1598670539855957,0.21954183060311144,9.524659391483869,-2.681827177960571,-5.6432298618088925,0.28741371300473395,-0.33341736694662605,-0.16181557367361799,-0.11553912972047956,1.3699045346453689,17.09010260821775
1687877006.643,0.9342031681675341,0.6942489050989805,0.8609083077399675,-1.1779831553227973,-0.509042799973435,1.479780452993768,1.7147845720044115,0.934196784734878,0.694193679499872,0.8609457349076964,-1.1780725486872567,-0.508950680971916,1.4796001506645597,1.7147066299633407,0.22717820358276367,57.563461738586426,-12.003911876678467,-24.345007343292234,0.9199917793273925,-0.323739128112793,-0.1598670539855957,0.2266737212666473,9.521270851982447,-2.6794421808781115,-5.6443881973275865,0.28691990027400105,-0.3330056658665278,-0.161480068876671,-0.1036691922497297,1.3730765157483789,17.08711278677947
1687877006.743,0.934203228054144,0.6942489050989805,0.8609083077399675,-1.1779831553227973,-0.509042799973435,1.4797805727669875,1.7147844521221085,0.934196784734878,0.694193679499872,0.8609457349076964,-1.1780725486872567,-0.508950680971916,1.4796001506645597,1.7147066299633407,0.21911270523071288,57.5755599861145,-12.008313751220703,-24.342366218566895,0.9111880302429199,-0.32474038314819337,-0.16220331573486327,0.22064141283221939,9.521964533936096,-2.6824806449121024,-5.644369747729849,0.2862370501191294,-0.33333986589935305,-0.1616767834005477,-0.11251063184865259,1.3634218311384296,17.09083836558164
1687877006.843,0.934203228054144,0.6942489050989805,0.8609083077399675,-1.1779830953271042,-0.509042799973435,1.4797806327626808,1.7147844521221085,0.934196784734878,0.694193679499872,0.8609457349076964,-1.1780725486872567,-0.508950680971916,1.4796001506645597,1.7147066299633407,0.2218012046813965,57.57152723693848,-12.007433376312255,-24.343246593475342,0.9129487800598144,-0.32340537643432615,-0.16353832244873046,0.22324834505566793,9.523075084997267,-2.679651538815312,-5.642594137386836,0.28592447774789964,-0.3334128336873422,-0.16132577336643097,-0.10965017059003171,1.377279083768161,17.087156428350873
1687877006.943,0.9342031681675341,0.6942489050989805,0.8609083077399675,-1.1779831553227973,-0.509042799973435,1.4797805727669875,1.7147844521221085,0.934196784734878,0.694193679499872,0.8609457349076964,-1.1780725486872567,-0.508950680971916,1.4796001506645597,1.7147066299633407,0.2258339538574219,57.5755599861145,-12.008313751220703,-24.342366218566895,0.9164702796936035,-0.323739128112793,-0.16220331573486327,0.22195803125537553,9.52064435529151,-2.6806263694024928,-5.641353177167034,0.28679442778067277,-0.3332054237007921,-0.16103546186003068,-0.10668541528399594,1.376047489684382,17.085153154794433
1687877007.042,0.934203228054144,0.6942489050989805,0.8609083077399675,-1.1779831553227973,-0.509042799973435,1.4797805727669875,1.7147845720044115,0.934196784734878,0.694193679499872,0.8609457349076964,-1.1780725486872567,-0.508950680971916,1.4796001506645597,1.7147066299633407,0.22314545440673828,57.57152723693848,-12.010954875946044,-24.33708396911621,0.9138291549682617,-0.32440663146972654,-0.16253706741333007,0.22578753803734825,9.520317129745552,-2.678769575416288,-5.641615569751321,0.2867989929065314,-0.3328799468842503,-0.16111398688840942,-0.10554154762462536,1.3797627641093295,17.08146491836668
1687877007.142,0.9342031681675341,0.6942489050989805,0.8609083077399675,-1.1779831553227973,-0.5090428957920109,1.4797806327626808,1.7147845720044115,0.934196784734878,0.694193679499872,0.8609457349076964,-1.1780725486872567,-0.508950680971916,1.4796001506645597,1.7147066299633407,0.2177684555053711,57.57690423583984,-12.00919412612915,-24.335323219299315,0.9085469055175781,-0.3260753898620605,-0.16086830902099608,0.22577444929340929,9.519348738496682,-2.6785926482921982,-5.642228115322533,0.28734634423553485,-0.3328328562994986,-0.16122547905122914,-0.10491091641081551,1.3742960731834104,17.08163248781097
1687877007.247,0.934203228054144,0.6942489050989805,0.8609083077399675,-1.1779831553227973,-0.509042799973435,1.4797805727669875,1.7147844521221085,0.934196784734878,0.694193679499872,0.8609457349076964,-1.1780725486872567,-0.508950680971916,1.4796001506645597,1.7147066299633407,0.22314545440673828,57.58900248336792,-12.011835250854492,-24.34412696838379,0.9173506546020508,-0.32407287979125976,-0.1605345573425293,0.21974582024011952,9.524336952614508,-2.680974471464096,-5.642828327799776,0.2864832743848672,-0.33305552284156187,-0.16119463720452606,-0.11442482129766812,1.3720804102393334,17.088725018216937
1687877007.346,0.934203228054144,0.6942489050989805,0.8609083077399675,-1.1779830953271042,-0.509042799973435,1.4797805727669875,1.7147844521221085,0.934196784734878,0.694193679499872,0.8609457349076964,-1.1780725486872567,-0.508950680971916,1.4796001506645597,1.7147066299633407,0.22448970413208008,57.56077323913574,-12.008313751220703,-24.336203594207763,0.9155899047851562,-0.323739128112793,-0.16220331573486327,0.22014581517395088,9.524191563282029,-2.681830025882012,-5.642162140888695,0.2853187634626265,-0.33300200267332053,-0.1615102283705244,-0.11516008700386943,1.3774848141842295,17.08771941351076
1687877007.446,0.934203228054144,0.6942489050989805,0.8609083077399675,-1.1779831553227973,-0.509042799973435,1.4797805727669875,1.7147844521221085,0.934196784734878,0.694193679499872,0.8609457349076964,-1.1780725486872567,-0.508950680971916,1.4796001506645597,1.7147066299633407,0.2150799560546875,57.57690423583984,-12.011835250854492,-24.33356246948242,0.914709529876709,-0.32507413482666014,-0.16253706741333007,0.22072874879561877,9.52102745943726,-2.681385228003779,-5.64124120812852,0.28645367163116475,-0.33278507010586644,-0.1616546169601164,-0.11394025114334161,1.373845243198088,17.082974754075778
1687877007.546,0.934203287940754,0.6942489050989805,0.8609083077399675,-1.1779831553227973,-0.5090428957920109,1.4797806327626808,1.7147844521221085,0.934196784734878,0.694193679499872,0.8609457349076964,-1.1780725486872567,-0.508950680971916,1.4796001506645597,1.7147066299633407,0.22717820358276367,57.579592735290525,-12.006553001403809,-24.341485843658447,0.9155899047851562,-0.3227378730773926,-0.1618695640563965,0.22494672360494336,9.52117670245284,-2.6785798163202093,-5.6424925243267605,0.28569766246012585,-0.33310722116076746,-0.16206421313767744,-0.10804905900910994,1.3771515793895672,17.084217213315956
1687877007.646,0.9342033479364471,0.6942489050989805,0.8609083077399675,-1.1779830953271042,-0.509042799973435,1.4797806327626808,1.7147845720044115,0.934196784734878,0.694193679499872,0.8609457349076964,-1.1780725486872567,-0.508950680971916,1.4796001506645597,1.7147066299633407,0.2218012046813965,57.58228123474121,-12.00919412612915,-24.345007343292234,0.9138291549682617,-0.32440663146972654,-0.16120206069946288,0.2220293563176638,9.525517660817808,-2.678757035959234,-5.643516664592855,0.2859149661665573,-0.33285799489541834,-0.16134249908854303,-0.11147698293303626,1.3766028442308678,17.08915591485126
1687877007.745,0.934203287940754,0.6942489050989805,0.8609083077399675,-1.1779830953271042,-0.509042799973435,1.4797805727669875,1.7147844521221085,0.934196784734878,0.694193679499872,0.8609457349076964,-1.1780725486872567,-0.508950680971916,1.4796001506645597,1.7147066299633407,0.2204569549560547,57.56615023803711,-12.00919412612915,-24.33092134475708,0.9111880302429199,-0.323739128112793,-0.1602008056640625,0.22136178199751672,9.523831116751673,-2.681514471017935,-5.641884324038803,0.2856504696507115,-0.33265232363749175,-0.161398595229179,-0.11344667386739032,1.3804872925263396,17.085763926219332
1687877007.845,0.9342033479364471,0.6942489050989805,0.8609083077399675,-1.1779830354404945,-0.509042799973435,1.4797805727669875,1.7147845720044115,0.934196784734878,0.694193679499872,0.8609457349076964,-1.1780725486872567,-0.508950680971916,1.4796001506645597,1.7147066299633407,0.2258339538574219,57.58093698501587,-12.015356750488282,-24.348528842926026,0.914709529876709,-0.3230716247558594,-0.16120206069946288,0.22254229019966842,9.521877913781143,-2.6824486770589218,-5.641981742709238,0.28703300060367976,-0.3325826672976486,-0.16129511469981103,-0.11099365206007666,1.3775110107411863,17.08414249931763
1687877007.946,0.9342031681675341,0.6942489050989805,0.8609083077399675,-1.1779830953271042,-0.509042799973435,1.4797805727669875,1.7147844521221085,0.934196784734878,0.694193679499872,0.8609457349076964,-1.1780725486872567,-0.508950680971916,1.4796001506645597,1.7147066299633407,0.22314545440673828,57.568838737487795,-12.010074501037597,-24.334442844390868,0.9173506546020508,-0.3227378730773926,-0.1615358123779297,0.22249690879519246,9.523213180223348,-2.682421904733119,-5.641216808357988,0.28721607272778915,-0.3325626823923735,-0.1616969413285158,-0.11267891146088616,1.383518781318068,17.083232895044727
1687877008.078,0.934203228054144,0.6942489050989805,0.8609083077399675,-1.1779831553227973,-0.509042799973435,1.4797806327626808,1.7147844521221085,0.934196784734878,0.694193679499872,0.8609457349076964,-1.1780725486872567,-0.508950680971916,1.4796001506645597,1.7147066299633407,0.23121095275878906,57.5755599861145,-12.004792251586913,-24.345887718200682,0.9173506546020508,-0.323739128112793,-0.16120206069946288,0.22766111923926555,9.52184818449704,-2.6798606770494846,-5.642897076458022,0.28773547131421306,-0.33286400567511965,-0.1614590715090445,-0.111614253520539,1.3711853814416082,17.07784445921436
1687877008.146,0.9342033479364471,0.6942489050989805,0.8609083077399675,-1.1779831553227973,-0.509042799973435,1.4797805727669875,1.7147844521221085,0.934196784734878,0.694193679499872,0.8609457349076964,-1.1780725486872567,-0.508950680971916,1.4796001506645597,1.7147066299633407,0.22852245330810547,57.56615023803711,-12.004792251586913,-24.33356246948242,0.914709529876709,-0.32507413482666014,-0.1605345573425293,0.2266861319628691,9.518076984301986,-2.6791497580814605,-5.641009680130095,0.2882973683253821,-0.33323232506124034,-0.16111820355012013,-0.10377054685048295,1.3771180456554122,17.07912302137866
1687877008.247,0.934203287940754,0.6942489050989805,0.8609083077399675,-1.1779831553227973,-0.509042799973435,1.4797805727669875,1.7147844521221085,0.934196784734878,0.694193679499872,0.8609457349076964,-1.1780725486872567,-0.508950680971916,1.4796001506645597,1.7147066299633407,0.2164242057800293,57.57287148666382,-12.017997875213624,-24.34676809310913,0.9120684051513672,-0.323739128112793,-0.1605345573425293,0.2170802836279747,9.518130316537174,-2.6821590308979815,-5.640231533180835,0.28701026901933224,-0.33283327554466896,-0.16129925017285413,-0.11764856149263422,1.3624719151823623,17.0807054234769
1687877008.346,0.934203228054144,0.6942489050989805,0.8609083077399675,-1.1779830953271042,-0.509042799973435,1.4797806327626808,1.7147844521221085,0.934196784734878,0.694193679499872,0.8609457349076964,-1.1780725486872567,-0.508950680971916,1.4796001506645597,1.7147066299633407,0.21911270523071288,57.56077323913574,-12.01271562576294,-24.332682094573975,0.914709529876709,-0.32474038314819337,-0.1602008056640625,0.2239077375974481,9.521554010629929,-2.6803719973623217,-5.640689707526111,0.2882847800374719,-0.3329672440853616,-0.16148262120971504,-0.10965491036555797,1.3815746966216493,17.08092215310075
1687877008.446,0.934203228054144,0.6942489050989805,0.8609083077399675,-1.1779830953271042,-0.509042799973435,1.4797806327626808,1.7147844521221085,0.934196784734878,0.694193679499872,0.8609457349076964,-1.1780725486872567,-0.508950680971916,1.4796001506645597,1.7147066299633407,0.2204569549560547,57.56749448776245,-12.010074501037597,-24.33796434402466,0.9173506546020508,-0.323739128112793,-0.16086830902099608,0.22023506970604273,9.522504437698363,-2.681325593678145,-5.641911985955461,0.2866609167274591,-0.3327610559959444,-0.16191622120526314,-0.11507499108192776,1.3732457776570726,17.084936507794854
1687877008.547,0.9342031681675341,0.6942489050989805,0.8609083077399675,-1.1779831553227973,-0.509042799973435,1.4797807525359008,1.7147844521221085,0.934196784734878,0.694193679499872,0.8609457349076964,-1.1780725486872567,-0.508950680971916,1.4796001506645597,1.7147066299633407,0.22986670303344728,57.568838737487795,-12.008313751220703,-24.335323219299315,0.9173506546020508,-0.32640914154052736,-0.1602008056640625,0.22444361419690523,9.518026345717523,-2.6804276056235325,-5.64139140423041,0.2860904416062165,-0.33271846441000874,-0.1611938775645208,-0.10842323306392682,1.373901404252549,17.081393772749976
1687877008.647,0.934203228054144,0.6942489050989805,0.8609083077399675,-1.1779831553227973,-0.509042799973435,1.4797805727669875,1.7147844521221085,0.934196784734878,0.694193679499872,0.8609457349076964,-1.1780725486872567,-0.508950680971916,1.4796001506645597,1.7147066299633407,0.22448970413208008,57.58362548446655,-12.005672626495361,-24.345007343292234,0.9129487800598144,-0.32340537643432615,-0.1615358123779297,0.22045594783341696,9.52472805416248,-2.6818272927971987,-5.642352295522533,0.28611203464133245,-0.33312278302368925,-0.16121461416019117,-0.11418427338009954,1.3775804510532077,17.088392129288735
1687877008.747,0.934203287940754,0.6942489050989805,0.8609081879667475,-1.1779831553227973,-0.509042799973435,1.4797806327626808,1.7147844521221085,0.934196784734878,0.694193679499872,0.8609457349076964,-1.1780725486872567,-0.508950680971916,1.4796001506645597,1.7147066299633407,0.2218012046813965,57.56615023803711,-12.00303150177002,-24.335323219299315,0.9199917793273925,-0.32507413482666014,-0.1618695640563965,0.22148193594997984,9.523702877047842,-2.6800790605965346,-5.642051523440338,0.2864417578677356,-0.33334830780239355,-0.1619534291100766,-0.11356377600257192,1.37678776363154,17.086521862288286
1687877008.847,0.934203287940754,0.6942489050989805,0.8609083077399675,-1.1779831553227973,-0.5090428957920109,1.4797806327626808,1.7147844521221085,0.934196784734878,0.694193679499872,0.8609457349076964,-1.1780725486872567,-0.508950680971916,1.4796001506645597,1.7147066299633407,0.22986670303344728,57.563461738586426,-12.00919412612915,-24.33796434402466,0.9129487800598144,-0.32407287979125976,-0.1615358123779297,0.22437383860105042,9.51831753580695,-2.679639509557735,-5.642186532300697,0.28656649931042966,-0.3330363555284067,-0.16147749157258579,-0.10703849635496648,1.370199948922565,17.082238081775756
1687877008.980,0.934203228054144,0.6942489050989805,0.8609083077399675,-1.1779831553227973,-0.509042799973435,1.4797806327626808,1.7147844521221085,0.934196784734878,0.694193679499872,0.8609457349076964,-1.1780725486872567,-0.508950680971916,1.4796001506645597,1.7147066299633407,0.2258339538574219,57.56615023803711,-11.99951000213623,-24.345007343292234,0.9164702796936035,-0.32474038314819337,-0.16086830902099608,0.22712030761309893,9.523642384800768,-2.681438258596815,-5.643956617160855,0.28612310386120987,-0.33336861770208814,-0.1615755476461586,-0.10702263592555211,1.3803207011388796,17.090402132280637
1687877009.049,0.934203228054144,0.6942489050989805,0.8609083077399675,-1.1779831553227973,-0.509042799973435,1.4797805727669875,1.7147844521221085,0.934196784734878,0.694193679499872,0.8609457349076964,-1.1780725486872567,-0.508950680971916,1.4796001506645597,1.7147066299633407,0.21911270523071288,57.579592735290525,-12.008313751220703,-24.341485843658447,0.9164702796936035,-0.3260753898620605,-0.16253706741333007,0.22271950476701952,9.524378840459931,-2.681503350401588,-5.64420905758646,0.28717801292171136,-0.33355307702665504,-0.1615618652993383,-0.11027194431550544,1.3724386376396438,17.091270841381025
1687877009.149,0.934203228054144,0.6942489050989805,0.8609083077399675,-1.1779831553227973,-0.5090428957920109,1.4797805727669875,1.7147844521221085,0.934196784734878,0.694193679499872,0.8609457349076964,-1.1780725486872567,-0.508950680971916,1.4796001506645597,1.7147066299633407,0.22717820358276367,57.57152723693848,-12.008313751220703,-24.345887718200682,0.9164702796936035,-0.32440663146972654,-0.1602008056640625,0.22287795952501838,9.51929158523543,-2.680323874887251,-5.643019426571469,0.28717396391892847,-0.33404935575061223,-0.16151672145399498,-0.10862502983949962,1.363959655269679,17.086853354412888
1687877009.251,0.934203287940754,0.6942489050989805,0.8609083077399675,-1.1779831553227973,-0.5090428957920109,1.4797805727669875,1.7147845720044115,0.934196784734878,0.694193679499872,0.8609457349076964,-1.1780725486872567,-0.508950680971916,1.4796001506645597,1.7147066299633407,0.22448970413208008,57.57287148666382,-12.00303150177002,-24.34060546875,0.9173506546020508,-0.32407287979125976,-0.16086830902099608,0.22209514912519362,9.516397359033718,-2.6797605877289876,-5.642740928611946,0.28621457840557096,-0.3333891182627102,-0.1616661345874606,-0.10839339976567014,1.358551999355618,17.083866021477657
1687877009.353,0.934203287940754,0.6942489050989805,0.8609083077399675,-1.1779830953271042,-0.509042799973435,1.4797805727669875,1.7147845720044115,0.934196784734878,0.694193679499872,0.8609457349076964,-1.1780725486872567,-0.508950680971916,1.4796001506645597,1.7147066299633407,0.22314545440673828,57.58228123474121,-12.013596000671386,-24.34676809310913,0.9191114044189453,-0.32507413482666014,-0.16420582580566406,0.22343328800667184,9.522529549300348,-2.679663571211581,-5.644041284805702,0.2863493047975496,-0.33420132020444915,-0.16227013370292748,-0.11177766949021078,1.3667383099189214,17.09221260763038
1687877009.452,0.9342033479364471,0.6942489050989805,0.8609083077399675,-1.1779831553227973,-0.509042799973435,1.4797806327626808,1.7147844521221085,0.934196784734878,0.694193679499872,0.8609457349076964,-1.1780725486872567,-0.508950680971916,1.4796001506645597,1.7147066299633407,0.2258339538574219,57.57824848556518,-12.007433376312255,-24.345887718200682,0.9164702796936035,-0.32507413482666014,-0.16353832244873046,0.22144813160324253,9.525463302384605,-2.6822937968881386,-5.644518810508696,0.286842567800046,-0.3333591370146808,-0.16222899158475493,-0.11117519789358973,1.3733922702565673,17.09257494062153
1687877009.552,0.934203228054144,0.6942489050989805,0.8609083077399675,-1.1779830953271042,-0.509042799973435,1.4797805727669875,1.7147844521221085,0.934196784734878,0.694193679499872,0.8609457349076964,-1.1780725486872567,-0.508950680971916,1.4796001506645597,1.7147066299633407,0.22448970413208008,57.57690423583984,-12.017117500305176,-24.338844718933107,0.9129487800598144,-0.32507413482666014,-0.1605345573425293,0.21978226491148356,9.52387544513794,-2.682415291250241,-5.6427912923333885,0.2859067108925448,-0.3330944156189453,-0.1623485953976302,-0.11653878541931723,1.3731202877459598,17.088566721497
1687877009.652,0.934203228054144,0.6942489050989805,0.8609083077399675,-1.1779831553227973,-0.509042799973435,1.4797805727669875,1.7147844521221085,0.934196784734878,0.694193679499872,0.8609457349076964,-1.1780725486872567,-0.508950680971916,1.4796001506645597,1.7147066299633407,0.22314545440673828,57.55405199050903,-12.005672626495361,-24.335323219299315,0.914709529876709,-0.32474038314819337,-0.16120206069946288,0.2204659398656385,9.516765922383687,-2.681387058203022,-5.641411542840251,0.28658424258578685,-0.33310058289619093,-0.1617369614488376,-0.11270067235507181,1.3618841614986783,17.081480552974167
1687877009.786,0.934203228054144,0.6942489050989805,0.8609083077399675,-1.1779831553227973,-0.509042799973435,1.4797805727669875,1.7147844521221085,0.934196784734878,0.694193679499872,0.8609457349076964,-1.1780725486872567,-0.508950680971916,1.4796001506645597,1.7147066299633407,0.22314545440673828,57.5755599861145,-12.011835250854492,-24.33708396911621,0.9155899047851562,-0.323739128112793,-0.16287081909179688,0.22472919298338045,9.520039834656792,-2.679319635987736,-5.6440518062406655,0.2867250763907025,-0.33295420578256696,-0.16196743344709139,-0.10677471521280057,1.3672817038524239,17.086023365072222
1687877009.853,0.934203228054144,0.6942489050989805,0.8609083077399675,-1.1779831553227973,-0.509042799973435,1.4797805727669875,1.7147844521221085,0.934196784734878,0.694193679499872,0.8609457349076964,-1.1780725486872567,-0.508950680971916,1.4796001506645597,1.7147066299633407,0.2218012046813965,57.55405199050903,-12.008313751220703,-24.33708396911621,0.9120684051513672,-0.32440663146972654,-0.1615358123779297,0.2218081509863143,9.519692316243574,-2.680929471506709,-5.642790198379155,0.2866915697491822,-0.332830524734848,-0.1617593773896735,-0.11114859509542802,1.3662442835317545,17.08458690771433
1687877009.953,0.934203287940754,0.6942489050989805,0.8609083077399675,-1.1779831553227973,-0.5090428957920109,1.4797805727669875,1.7147844521221085,0.934196784734878,0.694193679499872,0.8609457349076964,-1.1780725486872567,-0.508950680971916,1.4796001506645597,1.7147066299633407,0.22717820358276367,57.56480598831177,-12.00919412612915,-24.342366218566895,0.9103076553344727,-0.32340537643432615,-0.16120206069946288,0.22657736111718368,9.518532478055556,-2.6782716792453,-5.643106007916214,0.28769043442137543,-0.3336028111459724,-0.16171245183481064,-0.10358603089335625,1.3689423070015727,17.08376991242143
1687877010.054,0.9342031681675341,0.6942490249812835,0.8609083077399675,-1.1779830953271042,-0.509042799973435,1.4797806327626808,1.7147844521221085,0.934196784734878,0.694193679499872,0.8609457349076964,-1.1780725486872567,-0.508950680971916,1.4796001506645597,1.7147066299633407,0.22852245330810547,57.57018298721314,-12.008313751220703,-24.334442844390868,0.9173506546020508,-0.32507413482666014,-0.16086830902099608,0.22384817161301807,9.51847290717658,-2.6801790243474497,-5.641850713289852,0.286284365149035,-0.3332996560294902,-0.16206267587119574,-0.10751106236280772,1.3713023969808515,17.08301753640173
1687877010.154,0.9342031681675341,0.6942489050989805,0.8609083077399675,-1.1779831553227973,-0.509042799973435,1.4797805727669875,1.7147844521221085,0.934196784734878,0.694193679499872,0.8609457349076964,-1.1780725486872567,-0.508950680971916,1.4796001506645597,1.7147066299633407,0.2070144577026367,57.60378923034668,-12.027681999206543,-24.347648468017578,0.9199917793273925,-0.323739128112793,-0.16086830902099608,0.22957159822312767,9.515128847467412,-2.677482649384595,-5.643119060119993,0.2870584107505494,-0.33356595494220687,-0.16170159969531214,-0.09849125236404827,1.3679842136066194,17.080946202568573
1687877010.252,0.9342031681675341,0.6942489050989805,0.8609083077399675,-1.1779831553227973,-0.509042799973435,1.4797805727669875,1.7147844521221085,0.934196784734878,0.694193679499872,0.8609457349076964,-1.1780725486872567,-0.508950680971916,1.4796001506645597,1.7147066299633407,0.2634729461669922,57.58093698501587,-11.977500629425048,-24.347648468017578,0.9155899047851562,-0.325407886505127,-0.16253706741333007,0.22554661505275653,9.523173691423914,-2.6838473961517724,-5.6424722752240575,0.2845393851396935,-0.3332975773366701,-0.1617299745998393,-0.10849194595003106,1.3884621898487246,17.08761213254885
1687877010.353,0.9342031681675341,0.6942489050989805,0.8609083077399675,-1.1779830953271042,-0.509042799973435,1.4797806327626808,1.7147844521221085,0.934196784734878,0.694193679499872,0.8609457349076964,-1.1780725486872567,-0.508950680971916,1.4796001506645597,1.7147066299633407,0.18550646209716798,57.59572373199463,-12.050571746826172,-24.345887718200682,0.9050254058837891,-0.3210691146850586,-0.1602008056640625,0.22449142628576332,9.536453938251224,-2.687273495798137,-5.64923642190954,0.2846881166881239,-0.3323548807132069,-0.16178691384904387,-0.10755999668839672,1.3966331888875405,17.107527901330787
1687877010.452,0.934203228054144,0.6942489050989805,0.8609083077399675,-1.1779831553227973,-0.509042799973435,1.4797805727669875,1.7147844521221085,0.934196784734878,0.694193679499872,0.8609457349076964,-1.1780725486872567,-0.508950680971916,1.4796001506645597,1.7147066299633407,0.2554074478149414,57.54195374298096,-11.984543628692627,-24.36349521636963,0.9164702796936035,-0.3230716247558594,-0.1605345573425293,0.22609946347699802,9.514131919274119,-2.6858665355214315,-5.6428076349234315,0.28538770928218393,-0.33301879523887734,-0.16186009784632505,-0.1048809463399516,1.3681542815358676,17.082436154515925
1687877010.552,0.9342031681675341,0.6942489050989805,0.8609083077399675,-1.1779831553227973,-0.509042799973435,1.4797806327626808,1.7147844521221085,0.934196784734878,0.694193679499872,0.8609457349076964,-1.1780725486872567,-0.508950680971916,1.4796001506645597,1.7147066299633407,0.2204569549560547,57.584969734191894,-12.020638999938965,-24.3555718421936,0.9138291549682617,-0.3284116516113281,-0.1618695640563965,0.22516504245814573,9.51256161621494,-2.6872712189586263,-5.643104864101111,0.28598084524183975,-0.33263451703556446,-0.16142276598078803,-0.10482735928957612,1.3620292633220774,17.08186869412745
1687877010.686,0.934203228054144,0.6942489050989805,0.8609081879667475,-1.1779830953271042,-0.509042799973435,1.4797805727669875,1.7147844521221085,0.934196784734878,0.694193679499872,0.8609457349076964,-1.1780725486872567,-0.508950680971916,1.4796001506645597,1.7147066299633407,0.23927645111083984,57.56749448776245,-12.00303150177002,-24.366136341094972,0.9199917793273925,-0.3214028663635254,-0.1605345573425293,0.22292912272476617,9.530629463788394,-2.689374394516292,-5.640688762586647,0.2854193813046936,-0.3327026014597765,-0.16146614942608517,-0.11616523918301958,1.4114128944802884,17.089429239996296
1687877010.753,0.934203228054144,0.6942489050989805,0.8609083077399675,-1.1779831553227973,-0.509042799973435,1.4797805727669875,1.7147844521221085,0.934196784734878,0.694193679499872,0.8609457349076964,-1.1780725486872567,-0.508950680971916,1.4796001506645597,1.7147066299633407,0.21373570632934571,57.598412231445316,-12.023280124664307,-24.35997371673584,0.9085469055175781,-0.32340537643432615,-0.16287081909179688,0.2256645801091351,9.517946370187214,-2.6852509854414253,-5.643455178991621,0.2858230113053122,-0.33207501235980663,-0.16147100667437347,-0.10575497397190975,1.3739025687850397,17.083775227766505
1687877010.852,0.934203228054144,0.6942489050989805,0.8609082478533576,-1.1779830953271042,-0.509042799973435,1.4797805727669875,1.7147844521221085,0.934196784734878,0.694193679499872,0.8609457349076964,-1.1780725486872567,-0.508950680971916,1.4796001506645597,1.7147066299633407,0.2258339538574219,57.5755599861145,-12.025921249389649,-24.345007343292234,0.9023842811584473,-0.32474038314819337,-0.1618695640563965,0.21529439267424863,9.538477550534394,-2.697369926221438,-5.644628887084308,0.28529413368704326,-0.3322696472809532,-0.1610905535318155,-0.12704439019763353,1.4031846753388526,17.10477802966506
1687877010.953,0.934203287940754,0.6942489050989805,0.8609083077399675,-1.1779830354404945,-0.509042799973435,1.4797805727669875,1.7147844521221085,0.934196784734878,0.694193679499872,0.8609457349076964,-1.1780725486872567,-0.508950680971916,1.4796001506645597,1.7147066299633407,0.23524370193481445,57.57018298721314,-11.995108127593994,-24.318596096038817,0.9261544036865235,-0.325407886505127,-0.1581982955932617,0.239891397402067,9.522995902360968,-2.6780347812820366,-5.645933326951504,0.28836075872684963,-0.33252265266665193,-0.16128289405164303,-0.08594497413337232,1.4003419997532693,17.085869350097926
1687877011.051,0.934203287940754,0.6942489050989805,0.8609083077399675,-1.1779831553227973,-0.509042799973435,1.4797805727669875,1.7147844521221085,0.934196784734878,0.694193679499872,0.8609457349076964,-1.1780725486872567,-0.508950680971916,1.4796001506645597,1.7147066299633407,0.2204569549560547,57.51641299819946,-12.036485748291016,-24.330040969848632,0.8971020317077637,-0.32240412139892577,-0.16086830902099608,0.2036618956614838,9.527845122021649,-2.7024081139517864,-5.634303038251528,0.2823415260254947,-0.3318634921519242,-0.16109933126628195,-0.14614416043841894,1.400843812606448,17.084439931843804
1687877011.155,0.934203228054144,0.6942489050989805,0.8609083077399675,-1.1779830953271042,-0.5090428957920109,1.4797807525359008,1.7147846318910216,0.934196784734878,0.694193679499872,0.8609457349076964,-1.1780725486872567,-0.508950680971916,1.4796001506645597,1.7147066299633407,0.20298170852661132,57.65755921936035,-12.03824649810791,-24.359093341827393,0.9155899047851562,-0.32440663146972654,-0.16220331573486327,0.22970154843989204,9.530365372878773,-2.683958033318571,-5.648272084351754,0.2851707886848315,-0.33290792219574317,-0.16131659765872847,-0.09461833262208869,1.397998288430792,17.104446078509266
1687877011.255,0.9342033479364471,0.6942489050989805,0.8609083077399675,-1.1779831553227973,-0.5090428957920109,1.4797806327626808,1.7147844521221085,0.934196784734878,0.694193679499872,0.8609457349076964,-1.1780725486872567,-0.508950680971916,1.4796001506645597,1.7147066299633407,0.24330920028686523,57.68982121276856,-12.039126873016357,-24.374940090179443,0.9155899047851562,-0.3230716247558594,-0.1615358123779297,0.23350964209927422,9.559416468420993,-2.6841072263905748,-5.6632892185987895,0.28592549812475404,-0.3322882807923915,-0.16173095869858814,-0.09793379461446808,1.4081310270103193,17.14203624653383
1687877011.355,0.9342033479364471,0.6942489050989805,0.8609083077399675,-1.1779831553227973,-0.509042799973435,1.4797806327626808,1.7147845720044115,0.934196784734878,0.694193679499872,0.8609457349076964,-1.1780725486872567,-0.508950680971916,1.4796001506645597,1.7147066299633407,0.24868619918823243,57.683099964141846,-12.015356750488282,-24.359093341827393,0.9164702796936035,-0.3147278327941895,-0.16120206069946288,0.23316734350562146,9.584974892157085,-2.710702963616047,-5.661247827931277,0.2799895478993602,-0.3265538774198723,-0.16142328608596837,-0.11511111408036906,1.5121717981748053,17.150614180245206
1687877011.489,0.934203228054144,0.6942489050989805,0.8609083077399675,-1.1779831553227973,-0.509042799973435,1.4797805727669875,1.7147844521221085,0.934196784734878,0.694193679499872,0.8609457349076964,-1.1780725486872567,-0.508950680971916,1.4796001506645597,1.7147066299633407,0.20567020797729493,57.477429756164554,-12.05761474609375,-24.30186897277832,0.9006235313415527,-0.31372657775878904,-0.16086830902099608,0.23734493059225958,9.537738286823195,-2.6899362034337555,-5.654752023231882,0.28435523789486217,-0.3264295084164997,-0.16209423208494006,-0.09820424625842633,1.4113366710757544,17.098103458048737
1687877011.555,0.934203287940754,0.6942489050989805,0.8609083077399675,-1.1779831553227973,-0.509042799973435,1.4797806327626808,1.7147844521221085,0.934196784734878,0.694193679499872,0.8609457349076964,-1.1780725486872567,-0.508950680971916,1.4796001506645597,1.7147066299633407,0.1707197151184082,57.61185472869873,-12.069939994812012,-24.320356845855713,0.9164702796936035,-0.3180653495788574,-0.16120206069946288,0.18917138003087455,9.51578120008931,-2.709641844637692,-5.642380458366874,0.2814533730080072,-0.324547505815039,-0.16178877507929518,-0.15939066321497514,1.323739831390554,17.08258196215178
1687877011.655,0.9342031681675341,0.6942489050989805,0.8609083677356606,-1.1779831553227973,-0.509042799973435,1.4797807525359008,1.7147844521221085,0.934196784734878,0.694193679499872,0.8609457349076964,-1.1780725486872567,-0.508950680971916,1.4796001506645597,1.7147066299633407,0.38848817062377927,57.42500401687622,-11.893865013122559,-24.397829837799073,0.9270347785949707,-0.30338027572631837,-0.16320457077026368,0.250842776492387,9.498285347850357,-2.67347571212096,-5.67881052306922,0.28832523291737155,-0.31923374549276684,-0.16171231386257434,-0.04486397472505177,1.2500774669359722,17.098644953933864
1687877011.755,0.934203228054144,0.6942489050989805,0.8609083077399675,-1.1779831553227973,-0.509042799973435,1.4797805727669875,1.7147844521221085,0.934196784734878,0.694193679499872,0.8609457349076964,-1.1780725486872567,-0.508950680971916,1.4796001506645597,1.7147066299633407,-0.010753997802734375,57.67906721496582,-12.165020484924316,-24.373179340362547,0.8997431564331054,-0.30504903411865236,-0.1615358123779297,0.21168008668581695,9.522103318246034,-2.6870799948666266,-5.651921294824547,0.28600615939598295,-0.31994688988956543,-0.16126735975724457,-0.12233654013038298,1.3363301094291344,17.08010390270465
1687877011.854,0.934203228054144,0.6942489050989805,0.8609083077399675,-1.1779831553227973,-0.509042799973435,1.4797805727669875,1.7147844521221085,0.934196784734878,0.694193679499872,0.8609457349076964,-1.1780725486872567,-0.508950680971916,1.4796001506645597,1.7147066299633407,0.4745201530456543,57.50700325012207,-11.834879894256591,-24.483226203918456,0.931436653137207,-0.31673034286499024,-0.1618695640563965,0.26124666919682216,9.515253295474684,-2.6803025043546587,-5.662291407164117,0.28754117132020596,-0.3196490222616341,-0.161388674910327,-0.04892522856790377,1.3869649429911226,17.07856980313826
1687877011.954,0.934203228054144,0.6942489050989805,0.8609083077399675,-1.1779830354404945,-0.509042799973435,1.4797806327626808,1.7147844521221085,0.934196784734878,0.694193679499872,0.8609457349076964,-1.1780725486872567,-0.508950680971916,1.4796001506645597,1.7147066299633407,-0.03763899230957031,57.591690982818605,-12.165020484924316,-24.33092134475708,0.9067861557006835,-0.3063840408325195,-0.1602008056640625,0.21156456852583813,9.523056470308576,-2.6994614829249883,-5.648354776733247,0.27999221023613985,-0.31925990612375954,-0.16139708421672433,-0.12854137048826736,1.370374632934449,17.07824912217565
1687877012.054,0.934203228054144,0.6942489050989805,0.8609083077399675,-1.1779831553227973,-0.509042799973435,1.4797806327626808,1.7147844521221085,0.934196784734878,0.694193679499872,0.8609457349076964,-1.1780725486872567,-0.508950680971916,1.4796001506645597,1.7147066299633407,0.28901369094848633,57.34166053390503,-11.91587438583374,-24.26225210189819,0.9155899047851562,-0.31439408111572265,-0.16120206069946288,0.21501030183400485,9.479835110046716,-2.674971666405872,-5.641258651804256,0.28344735002073074,-0.3196694094942908,-0.16177508302411464,-0.10906459412467737,1.281539921658765,17.031909412210965
1687877012.156,0.934203228054144,0.6942489050989805,0.8609083077399675,-1.1779830953271042,-0.509042799973435,1.4797805727669875,1.7147844521221085,0.934196784734878,0.694193679499872,0.8609457349076964,-1.1780725486872567,-0.508950680971916,1.4796001506645597,1.7147066299633407,0.14114622116088868,57.56749448776245,-12.065538120269775,-24.249926853179932,0.914709529876709,-0.3147278327941895,-0.16086830902099608,0.1906317568053138,9.497845118728065,-2.699869315892702,-5.635056394120087,0.28122043057426793,-0.3203268998872416,-0.16161098065441143,-0.154820190931281,1.313504652074584,17.04678722965197
1687877012.255,0.934203228054144,0.6942489050989805,0.8609083077399675,-1.1779831553227973,-0.509042799973435,1.4797807525359008,1.7147844521221085,0.934196784734878,0.694193679499872,0.8609457349076964,-1.1780725486872567,-0.508950680971916,1.4796001506645597,1.7147066299633407,0.23524370193481445,57.598412231445316,-12.010954875946044,-24.366136341094972,0.9129487800598144,-0.31439408111572265,-0.1605345573425293,0.22174751561967615,9.525425544843408,-2.6892058680935422,-5.659737867104481,0.2857781543371468,-0.31964454663362274,-0.16148656777911063,-0.10651799080093571,1.3383130023147995,17.09356197802074
1687877012.388,0.934203228054144,0.6942489050989805,0.8609083077399675,-1.1779831553227973,-0.509042799973435,1.4797805727669875,1.7147845720044115,0.934196784734878,0.694193679499872,0.8609457349076964,-1.1780725486872567,-0.508950680971916,1.4796001506645597,1.7147066299633407,0.19088346099853515,57.61051047897339,-12.039126873016357,-24.366136341094972,0.9111880302429199,-0.3107228126525879,-0.16220331573486327,0.2171457085761107,9.528031653049966,-2.691382023820863,-5.657748370757835,0.28378673432915125,-0.32019671116116344,-0.16134385547212088,-0.13345441756965526,1.3878885313227787,17.08228333732228
1687877012.456,0.9342031681675341,0.6942489050989805,0.8609083077399675,-1.1779831553227973,-0.509042799973435,1.4797805727669875,1.7147844521221085,0.934196784734878,0.694193679499872,0.8609457349076964,-1.1780725486872567,-0.508950680971916,1.4796001506645597,1.7147066299633407,0.22448970413208008,57.56749448776245,-12.010954875946044,-24.367897090911864,0.9208721542358398,-0.3097215576171875,-0.16120206069946288,0.21271086118955332,9.516812019743789,-2.692007072656785,-5.656436240963957,0.2864010974160155,-0.3199918442794686,-0.16151801615332856,-0.1174765565298016,1.3113403061836257,17.08624817646164
1687877012.556,0.934203228054144,0.6942489050989805,0.8609083077399675,-1.1779830953271042,-0.509042799973435,1.4797805727669875,1.7147845720044115,0.934196784734878,0.694193679499872,0.8609457349076964,-1.1780725486872567,-0.508950680971916,1.4796001506645597,1.7147066299633407,0.22448970413208008,57.545986492156985,-12.029442749023437,-24.348528842926026,0.8962216567993164,-0.3120578193664551,-0.1605345573425293,0.2143511346420115,9.514439334286148,-2.693610572465424,-5.656121713763019,0.28478629850625864,-0.3199418990676318,-0.161352340920098,-0.1149861242516505,1.3139772421677243,17.08485048729354
