Edkamb/ConfLiftingaaS/DTProject/experiments/second_experiment/joint_position_data.csv
timestamp,actual_q_0,actual_q_1,actual_q_2,actual_q_3,actual_q_4,actual_q_5,actual_q_6,target_q_0,target_q_1,target_q_2,target_q_3,target_q_4,target_q_5,target_q_6,measured_tq_0,measured_tq_1,measured_tq_2,measured_tq_3,measured_tq_4,measured_tq_5,measured_tq_6,external_tq_0,external_tq_1,external_tq_2,external_tq_3,external_tq_4,external_tq_5,external_tq_6,force_X,force_Y,force_Z
1687876774.839,-0.2901700229500133,-0.34902994428558,1.788987237408052,-1.9155994948753514,0.37057984567871977,1.1733760596563576,1.3629882491112448,-0.29016550854681994,-0.3489851812808391,1.7890085076265627,-1.915501018272049,0.37050105924735666,1.173181647430978,1.3630664014644907,0.49333964920043943,-19.993026165008544,8.289610137939453,-23.734027156829832,0.4833258247375488,-0.1705471076965332,0.16287081909179688,0.4854092731495657,-1.6662596170614075,1.519858377316555,-5.391231517169759,-0.10480894154905504,-0.18001547756739583,0.1623758100104136,0.49836134557140555,-7.664049041320913,12.331706487136561
1687876774.938,-0.2901700229500133,-0.349030004281273,1.788987237408052,-1.9155994948753514,0.37057984567871977,1.1733759398831378,1.3629882491112448,-0.29016550854681994,-0.3489851812808391,1.7890085076265627,-1.915501018272049,0.37050105924735666,1.173181647430978,1.3630664014644907,0.49333964920043943,-19.976895168304445,8.283447513580322,-23.727864532470704,0.477163200378418,-0.17321712112426757,0.1618695640563965,0.48374927915581833,-1.6634401817856241,1.5180222291566354,-5.392001047420175,-0.10596741078799554,-0.18017078269304698,0.1621265254260869,0.4923359296010149,-7.678202292466132,12.3201787002319
1687876775.048,-0.2901700229500133,-0.349030004281273,1.788987177412359,-1.9155994948753514,0.37057984567871977,1.1733760596563576,1.3629882491112448,-0.29016550854681994,-0.3489851812808391,1.7890085076265627,-1.915501018272049,0.37050105924735666,1.173181647430978,1.3630664014644907,0.4825856513977051,-19.993026165008544,8.282567138671874,-23.711137409210206,0.4789239501953125,-0.1722158660888672,0.16353832244873046,0.48436060535018177,-1.6684252901986745,1.520710894346946,-5.391918807874603,-0.10578058921812071,-0.18061193190159444,0.16201439105909526,0.49399572258482627,-7.650858909417581,12.338293926362763
1687876775.135,-0.2901700828366232,-0.349030004281273,1.788987297294662,-1.9155994948753514,0.3705797498601438,1.1733760596563576,1.3629882491112448,-0.29016550854681994,-0.3489851812808391,1.7890085076265627,-1.915501018272049,0.37050105924735666,1.173181647430978,1.3630664014644907,0.48930690002441407,-19.993026165008544,8.287849388122558,-23.778926277160643,0.47980432510375975,-0.16821084594726562,0.1615358123779297,0.48190184920621204,-1.664082473715411,1.516936535246838,-5.388974575865589,-0.10514588892867449,-0.18060932910433464,0.16177243807880032,0.4859829987446633,-7.66197733369191,12.327535367222817
1687876775.234,-0.2901700229500133,-0.34903006416788307,1.788987297294662,-1.9155994948753514,0.37057984567871977,1.1733760596563576,1.3629882491112448,-0.29016550854681994,-0.3489851812808391,1.7890085076265627,-1.915501018272049,0.37050105924735666,1.173181647430978,1.3630664014644907,0.4637661552429199,-19.99705891418457,8.27728488922119,-23.799174900054933,0.47188095092773436,-0.1695458526611328,0.1615358123779297,0.48294111047930965,-1.6672217586410978,1.5196181387802072,-5.39115396366504,-0.10566995959120776,-0.17993119741453106,0.16220337499831317,0.4875982195922897,-7.652708998488895,12.338346095257242
1687876775.340,-0.2901700229500133,-0.34903006416788307,1.788987237408052,-1.9155994948753514,0.37057984567871977,1.1733760596563576,1.3629881891155518,-0.29016550854681994,-0.3489851812808391,1.7890085076265627,-1.915501018272049,0.37050105924735666,1.173181647430978,1.3630664014644907,0.4919953994750977,-20.002435913085936,8.285208263397216,-23.788610401153566,0.4736417007446289,-0.16720959091186524,0.16120206069946288,0.4870532542350642,-1.6693896400695425,1.5207298705038692,-5.386035683010996,-0.10526996061859054,-0.18006322699520344,0.16245852178740955,0.501015252954301,-7.656640402336459,12.324848320026591
1687876775.439,-0.2901700828366232,-0.349030004281273,1.788987237408052,-1.9155994948753514,0.37057984567871977,1.1733759398831378,1.3629881891155518,-0.29016550854681994,-0.3489851812808391,1.7890085076265627,-1.915501018272049,0.37050105924735666,1.173181647430978,1.3630664014644907,0.47720865249633787,-19.99571466445923,8.279045639038086,-23.781567401885987,0.4736417007446289,-0.1695458526611328,0.16253706741333007,0.48001296030575186,-1.6648840951500654,1.5178265508088484,-5.3899181174575475,-0.1061668047440181,-0.18001016719663984,0.162145964394243,0.484905890649568,-7.647307966943848,12.333174792697456
1687876775.571,-0.2901700229500133,-0.349030004281273,1.788987237408052,-1.9155994948753514,0.37057984567871977,1.1733759398831378,1.3629882491112448,-0.29016550854681994,-0.3489851812808391,1.7890085076265627,-1.915501018272049,0.37050105924735666,1.173181647430978,1.3630664014644907,0.4758644027709961,-19.99571466445923,8.283447513580322,-23.76748140335083,0.47804357528686525,-0.16754334259033202,0.16320457077026368,0.48633270748004886,-1.6669311126840531,1.5190007387666724,-5.384400403890725,-0.10614204048340979,-0.17968350468397545,0.16190543611806854,0.5022893245257547,-7.658634501122482,12.316351444942663
1687876775.639,-0.2901700828366232,-0.34903006416788307,1.788987237408052,-1.9155994948753514,0.37057984567871977,1.1733760596563576,1.3629882491112448,-0.29016550854681994,-0.3489851812808391,1.7890085076265627,-1.915501018272049,0.37050105924735666,1.173181647430978,1.3630664014644907,0.4731759033203125,-19.99571466445923,8.286088638305664,-23.748993530273438,0.4754024505615234,-0.16821084594726562,0.1615358123779297,0.48024673040627397,-1.6627464979899065,1.518203517110105,-5.385644363273077,-0.10501360833425093,-0.17974932502828023,0.16226795214128925,0.48791438941893606,-7.639107702071303,12.325132485858537
1687876775.739,-0.2901700828366232,-0.34902994428558,1.788987237408052,-1.9155994948753514,0.37057984567871977,1.1733760596563576,1.3629882491112448,-0.29016550854681994,-0.3489851812808391,1.7890085076265627,-1.915501018272049,0.37050105924735666,1.173181647430978,1.3630664014644907,0.48661840057373046,-19.994370414733886,8.28432788848877,-23.735787906646728,0.4745220756530762,-0.172549617767334,0.16220331573486327,0.4844490166597698,-1.6673316324282732,1.5204514693590865,-5.385072076245279,-0.10446090211471012,-0.17980283355524768,0.16211517839221945,0.4976917657525977,-7.633060074218778,12.329509765023815
1687876775.839,-0.2901700229500133,-0.349030004281273,1.788987237408052,-1.9155994948753514,0.3705797498601438,1.1733759398831378,1.3629882491112448,-0.29016550854681994,-0.3489851812808391,1.7890085076265627,-1.915501018272049,0.37050105924735666,1.173181647430978,1.3630664014644907,0.48930690002441407,-19.99571466445923,8.281686763763428,-23.726984157562256,0.47804357528686525,-0.1712146110534668,0.1615358123779297,0.4848505495925052,-1.6652337344770332,1.5191491858872594,-5.390103037130031,-0.1056678087362207,-0.18022622874405375,0.16240695107384118,0.49951204533805144,-7.663473087265069,12.327715290099619
1687876775.938,-0.2901700229500133,-0.34902994428558,1.788987237408052,-1.9155994948753514,0.37057984567871977,1.1733760596563576,1.3629882491112448,-0.29016550854681994,-0.3489851812808391,1.7890085076265627,-1.915501018272049,0.37050105924735666,1.173181647430978,1.3630664014644907,0.4825856513977051,-19.986304916381837,8.281686763763428,-23.730505657196044,0.477163200378418,-0.16987960433959962,0.1605345573425293,0.48366583000906005,-1.6665630878033877,1.5194726287373017,-5.392838416427354,-0.10531363812714303,-0.18038124189969268,0.16225149468090946,0.49210746027491775,-7.6574815277267865,12.33799555908864
1687876776.039,-0.2901700828366232,-0.34902994428558,1.788987237408052,-1.9155994948753514,0.37057984567871977,1.1733760596563576,1.3629882491112448,-0.29016550854681994,-0.3489851812808391,1.7890085076265627,-1.915501018272049,0.37050105924735666,1.173181647430978,1.3630664014644907,0.4839299011230469,-19.99571466445923,8.287849388122558,-23.72610378265381,0.4754024505615234,-0.172549617767334,0.16320457077026368,0.4869782907005423,-1.6712915934471666,1.519853277926688,-5.395142653699099,-0.104824612426823,-0.17980166525248933,0.16271932321067978,0.5009447879781336,-7.668907828238516,12.338307654706979
1687876776.140,-0.2901699629543203,-0.34902994428558,1.788987237408052,-1.9155994948753514,0.37057984567871977,1.1733759398831378,1.3629882491112448,-0.29016550854681994,-0.3489851812808391,1.7890085076265627,-1.915501018272049,0.37050105924735666,1.173181647430978,1.3630664014644907,0.49468389892578124,-20.002435913085936,8.283447513580322,-23.74811315536499,0.4815650749206543,-0.1705471076965332,0.16453957748413087,0.48438271427528323,-1.6703941789887808,1.5191979963218665,-5.395729263482752,-0.10527495940694377,-0.179943272542477,0.16276768051616003,0.497592422158866,-7.665707255082824,12.34274657488387
1687876776.239,-0.2901700828366232,-0.34902994428558,1.788987237408052,-1.9155994948753514,0.37057984567871977,1.1733759398831378,1.3629882491112448,-0.29016550854681994,-0.3489851812808391,1.7890085076265627,-1.915501018272049,0.37050105924735666,1.173181647430978,1.3630664014644907,0.48796265029907226,-19.994370414733886,8.28080638885498,-23.75779727935791,0.4754024505615234,-0.169212100982666,0.1618695640563965,0.48265430864137976,-1.667993154301044,1.516511218851186,-5.397386611346768,-0.10561010001170858,-0.17961526721636392,0.1622679603197491,0.4897310651635185,-7.6766601674359904,12.338931995618836
1687876776.338,-0.2901699629543203,-0.349030004281273,1.788987237408052,-1.9155994948753514,0.37057984567871977,1.1733760596563576,1.3629882491112448,-0.29016550854681994,-0.3489851812808391,1.7890085076265627,-1.915501018272049,0.37050105924735666,1.173181647430978,1.3630664014644907,0.48527415084838865,-20.00512441253662,8.285208263397216,-23.78949077606201,0.4762828254699707,-0.16687583923339844,0.16253706741333007,0.48267987961576525,-1.6657441818380674,1.516704757299193,-5.3929388499434285,-0.10530576980970534,-0.18010657239435612,0.16244272898811957,0.49162952790065373,-7.675389900635742,12.332026510855359
1687876776.471,-0.2901699629543203,-0.34903006416788307,1.788987237408052,-1.9155994948753514,0.37057984567871977,1.1733760596563576,1.3629882491112448,-0.29016550854681994,-0.3489851812808391,1.7890085076265627,-1.915501018272049,0.37050105924735666,1.173181647430978,1.3630664014644907,0.4825856513977051,-19.998403163909913,8.279926013946532,-23.77980665206909,0.467479076385498,-0.16687583923339844,0.16420582580566406,0.48676817518950044,-1.6696860698743805,1.519085817495506,-5.390006115329485,-0.10620677547230781,-0.18027232739958454,0.1625591707734138,0.5012892717869517,-7.667127343298647,12.328299063592107
1687876776.540,-0.2901700828366232,-0.34902994428558,1.788987297294662,-1.9155994948753514,0.37057984567871977,1.1733760596563576,1.3629882491112448,-0.29016550854681994,-0.3489851812808391,1.7890085076265627,-1.915501018272049,0.37050105924735666,1.173181647430978,1.3630664014644907,0.4745201530456543,-19.999747413635255,8.274643764495849,-23.785969276428222,0.4710005760192871,-0.16821084594726562,0.16253706741333007,0.4839818397862943,-1.6674396522053017,1.5181549872287514,-5.388598441771992,-0.10721191044427227,-0.18020861205566685,0.16241238415755954,0.49215857312232136,-7.663586948443389,12.3257631508091
1687876776.639,-0.2901700229500133,-0.349030004281273,1.788987237408052,-1.9155994948753514,0.37057984567871977,1.1733760596563576,1.3629881891155518,-0.29016550854681994,-0.3489851812808391,1.7890085076265627,-1.915501018272049,0.37050105924735666,1.173181647430978,1.3630664014644907,0.4798971519470215,-19.999747413635255,8.28080638885498,-23.769242153167724,0.47276132583618163,-0.16854459762573243,0.1615358123779297,0.4827760073751244,-1.6685663783563358,1.5187029249586157,-5.3877666627251,-0.1061600315101196,-0.18017622006527995,0.16202728786314058,0.49039405833143923,-7.643295965686343,12.329087452799161
1687876776.739,-0.2901700229500133,-0.34902994428558,1.788987237408052,-1.9155994948753514,0.37057984567871977,1.1733758200008346,1.3629882491112448,-0.29016550854681994,-0.3489851812808391,1.7890085076265627,-1.915501018272049,0.37050105924735666,1.173181647430978,1.3630664014644907,0.4812414016723633,-20.006468662261963,8.28080638885498,-23.772763652801512,0.4754024505615234,-0.1712146110534668,0.16253706741333007,0.4842237018747473,-1.6656024795739104,1.518198915628402,-5.385812713231518,-0.1059840207751305,-0.1803019722339413,0.1617612344380446,0.49355588890283203,-7.652910047398989,12.320285784436146
1687876776.839,-0.2901699629543203,-0.349030004281273,1.788987297294662,-1.9155994948753514,0.37057984567871977,1.1733760596563576,1.3629881891155518,-0.29016550854681994,-0.3489851812808391,1.7890085076265627,-1.915501018272049,0.37050105924735666,1.173181647430978,1.3630664014644907,0.4839299011230469,-19.98899341583252,8.28080638885498,-23.727864532470704,0.4762828254699707,-0.16987960433959962,0.1602008056640625,0.48393726844477203,-1.6698996550174008,1.5202034883209619,-5.385896611850644,-0.10510575770580334,-0.18023834587948695,0.16193256950707563,0.4972216968999126,-7.632339706495697,12.33358775113897
1687876776.938,-0.2901700229500133,-0.349030004281273,1.788987237408052,-1.9155994948753514,0.37057984567871977,1.1733760596563576,1.3629882491112448,-0.29016550854681994,-0.3489851812808391,1.7890085076265627,-1.915501018272049,0.37050105924735666,1.173181647430978,1.3630664014644907,0.4839299011230469,-20.01184566116333,8.282567138671874,-23.730505657196044,0.47804357528686525,-0.1702133560180664,0.1618695640563965,0.4834847783078563,-1.6664389828114692,1.5177662007263297,-5.387473408997681,-0.10435559401733725,-0.18008276487331093,0.1615015710349429,0.49087633740153114,-7.644570955928811,12.328657311084577
1687876777.038,-0.2901700828366232,-0.34902994428558,1.788987237408052,-1.9155994948753514,0.37057984567871977,1.1733760596563576,1.3629882491112448,-0.29016550854681994,-0.3489851812808391,1.7890085076265627,-1.915501018272049,0.37050105924735666,1.173181647430978,1.3630664014644907,0.4825856513977051,-19.991681915283202,8.279045639038086,-23.707615909576415,0.47804357528686525,-0.170880859375,0.1618695640563965,0.48329688788865116,-1.6671221007922932,1.5197838096196408,-5.392504864523971,-0.10557680029123177,-0.18024885532237025,0.16171368489270593,0.4913470948462588,-7.649166873529165,12.339127178931664
1687876777.137,-0.2901700229500133,-0.34903006416788307,1.788987237408052,-1.9155994948753514,0.37057984567871977,1.1733759398831378,1.3629882491112448,-0.29016550854681994,-0.3489851812808391,1.7890085076265627,-1.915501018272049,0.37050105924735666,1.173181647430978,1.3630664014644907,0.48796265029907226,-19.99571466445923,8.291370887756347,-23.749873905181886,0.4762828254699707,-0.1702133560180664,0.16220331573486327,0.4845667875979974,-1.6657837940621065,1.5184495821600572,-5.395440185870934,-0.1058123416642553,-0.17992749812483042,0.16157341831666255,0.4900849071767126,-7.680739804703987,12.333119488208869
1687876777.237,-0.2901700828366232,-0.349030004281273,1.788987297294662,-1.9155994948753514,0.3705797498601438,1.1733760596563576,1.3629881891155518,-0.29016550854681994,-0.3489851812808391,1.7890085076265627,-1.915501018272049,0.37050105924735666,1.173181647430978,1.3630664014644907,0.48930690002441407,-19.98764916610718,8.281686763763428,-23.744591655731202,0.4762828254699707,-0.170880859375,0.16220331573486327,0.48291718368482894,-1.6664504867767351,1.5178170636868487,-5.3946290526345315,-0.10594183442580933,-0.1805080114874071,0.16155133070505145,0.49151429405227365,-7.672361320277935,12.336017425907585
1687876777.338,-0.2901700828366232,-0.34902994428558,1.788987237408052,-1.9155994948753514,0.37057984567871977,1.1733759398831378,1.3629882491112448,-0.29016550854681994,-0.3489851812808391,1.7890085076265627,-1.915501018272049,0.37050105924735666,1.173181647430978,1.3630664014644907,0.4825856513977051,-19.998403163909913,8.282567138671874,-23.774524402618407,0.48244544982910154,-0.16854459762573243,0.16120206069946288,0.48570427490486445,-1.6672616186103144,1.5193581355049592,-5.395863854131657,-0.10387754535255336,-0.17994189589750587,0.16166152198810557,0.4955711572723523,-7.674906711247696,12.341708283527549
1687876777.437,-0.2901700229500133,-0.349030004281273,1.788987237408052,-1.9155994948753514,0.37057984567871977,1.1733760596563576,1.3629881891155518,-0.29016550854681994,-0.3489851812808391,1.7890085076265627,-1.915501018272049,0.37050105924735666,1.173181647430978,1.3630664014644907,0.4906511497497559,-19.99571466445923,8.286969013214112,-23.77980665206909,0.47980432510375975,-0.1688783493041992,0.16120206069946288,0.48151550736318094,-1.6665719223448168,1.5172409633251598,-5.394894305091849,-0.10476257224496799,-0.17997747109891887,0.16179065808089405,0.4827586389017551,-7.6631638412646215,12.341516334640076
1687876777.537,-0.2901700229500133,-0.34903006416788307,1.788987237408052,-1.9155994948753514,0.3705797498601438,1.1733758200008346,1.3629882491112448,-0.29016550854681994,-0.3489851812808391,1.7890085076265627,-1.915501018272049,0.37050105924735666,1.173181647430978,1.3630664014644907,0.4745201530456543,-19.991681915283202,8.276404514312745,-23.800055274963377,0.47804357528686525,-0.1688783493041992,0.16120206069946288,0.4830385374972266,-1.6666962529432467,1.5198615920439957,-5.393787053055423,-0.10491635082190595,-0.18015117390750426,0.16196203347523752,0.48963425000482685,-7.660234387727753,12.343796794956617
1687876777.637,-0.2901700828366232,-0.34902994428558,1.788987237408052,-1.9155994948753514,0.37057984567871977,1.1733760596563576,1.3629882491112448,-0.29016550854681994,-0.3489851812808391,1.7890085076265627,-1.915501018272049,0.37050105924735666,1.173181647430978,1.3630664014644907,0.4825856513977051,-20.001091663360597,8.287849388122558,-23.775404777526855,0.47012020111083985,-0.169212100982666,0.16220331573486327,0.48325049977502793,-1.6663148602275124,1.5189041397564997,-5.387566204172918,-0.10556763364807273,-0.180553295965384,0.16164603251874293,0.4921012561920195,-7.648606713090687,12.32997196563331
1687876777.736,-0.2901700828366232,-0.349030004281273,1.788987237408052,-1.9155994948753514,0.37057984567871977,1.1733760596563576,1.3629882491112448,-0.29016550854681994,-0.3489851812808391,1.7890085076265627,-1.915501018272049,0.37050105924735666,1.173181647430978,1.3630664014644907,0.47720865249633787,-20.003780162811278,8.28080638885498,-23.77364402770996,0.4762828254699707,-0.1695458526611328,0.16086830902099608,0.4812718094918832,-1.6628389645264456,1.517595907762812,-5.387555085117544,-0.105941737480373,-0.180126210604024,0.16159706852662864,0.4843113700988724,-7.654734704666721,12.324749492545008
1687876777.837,-0.2901700229500133,-0.349030004281273,1.788987237408052,-1.9155994948753514,0.37057984567871977,1.1733759398831378,1.3629882491112448,-0.29016550854681994,-0.3489851812808391,1.7890085076265627,-1.915501018272049,0.37050105924735666,1.173181647430978,1.3630664014644907,0.4758644027709961,-19.991681915283202,8.273763389587403,-23.756036529541014,0.4745220756530762,-0.16987960433959962,0.16086830902099608,0.48448226230134056,-1.6681177174670831,1.5188195167395164,-5.38448422552444,-0.1049840559070351,-0.18041095866783924,0.16159942547855335,0.49221598715200243,-7.637512285063793,12.326934159564386
1687876777.936,-0.2901700828366232,-0.349030004281273,1.788987237408052,-1.9155994948753514,0.37057984567871977,1.1733760596563576,1.3629882491112448,-0.29016550854681994,-0.3489851812808391,1.7890085076265627,-1.915501018272049,0.37050105924735666,1.173181647430978,1.3630664014644907,0.4758644027709961,-20.001091663360597,8.279045639038086,-23.74107015609741,0.4789239501953125,-0.17188211441040038,0.16120206069946288,0.48548952243509064,-1.6644275835096516,1.518649872553178,-5.389286807252828,-0.10543628972130381,-0.18073145920857342,0.16188980233864342,0.49364484429015354,-7.668480307497058,12.324729539448237
1687876778.035,-0.2901700229500133,-0.349030004281273,1.788987237408052,-1.9155994948753514,0.3705797498601438,1.1733759398831378,1.3629882491112448,-0.29016550854681994,-0.3489851812808391,1.7890085076265627,-1.915501018272049,0.37050105924735666,1.173181647430978,1.3630664014644907,0.4906511497497559,-19.98227216720581,8.281686763763428,-23.71818040847778,0.4815650749206543,-0.1715483627319336,0.16120206069946288,0.48358050946436026,-1.6623304774077496,1.5175951134254955,-5.388386646456087,-0.10506535644918061,-0.18060844981899046,0.16219367302579035,0.49292585307035663,-7.662819658977445,12.319105907565143
1687876778.168,-0.2901699629543203,-0.34902994428558,1.788987177412359,-1.9155994948753514,0.3705797498601438,1.1733759398831378,1.3629882491112448,-0.29016550854681994,-0.3489851812808391,1.7890085076265627,-1.915501018272049,0.37050105924735666,1.173181647430978,1.3630664014644907,0.4798971519470215,-19.991681915283202,8.279045639038086,-23.733146781921388,0.4762828254699707,-0.1702133560180664,0.16120206069946288,0.482822548018005,-1.665310427028679,1.5180514196450106,-5.392953275244327,-0.10440189437394916,-0.18035321334733806,0.16172044411022735,0.4885995351173441,-7.671026595378123,12.333145009751318
1687876778.236,-0.2901699629543203,-0.349030004281273,1.788987297294662,-1.9155994948753514,0.37057984567871977,1.1733760596563576,1.3629882491112448,-0.29016550854681994,-0.3489851812808391,1.7890085076265627,-1.915501018272049,0.37050105924735666,1.173181647430978,1.3630664014644907,0.49871664810180666,-19.994370414733886,8.289610137939453,-23.727864532470704,0.4762828254699707,-0.172549617767334,0.16220331573486327,0.4836434379697165,-1.6647664831495912,1.5184251239916207,-5.393111744660394,-0.10647424121909799,-0.18008315347835108,0.16168363873835517,0.4927274566011476,-7.670720450257072,12.331440613365562
1687876778.336,-0.2901700229500133,-0.349030004281273,1.788987297294662,-1.9155994948753514,0.37057984567871977,1.1733759398831378,1.3629882491112448,-0.29016550854681994,-0.3489851812808391,1.7890085076265627,-1.915501018272049,0.37050105924735666,1.173181647430978,1.3630664014644907,0.4812414016723633,-19.98899341583252,8.285208263397216,-23.748993530273438,0.4754024505615234,-0.1702133560180664,0.1605345573425293,0.48116621855135383,-1.665996885325284,1.5183969273636895,-5.396714849393705,-0.10643659704801883,-0.18006948909574516,0.16155300905008374,0.4867749683452996,-7.66883152983319,12.341944446360705
1687876778.436,-0.2901700229500133,-0.34902994428558,1.788987237408052,-1.9155994948753514,0.3705797498601438,1.1733760596563576,1.3629882491112448,-0.29016550854681994,-0.3489851812808391,1.7890085076265627,-1.915501018272049,0.37050105924735666,1.173181647430978,1.3630664014644907,0.4919953994750977,-19.993026165008544,8.287849388122558,-23.768361778259276,0.4789239501953125,-0.169212100982666,0.16253706741333007,0.4827455162225167,-1.6706525412379003,1.5191788502847636,-5.39312351896352,-0.10594266425402768,-0.1797761840517339,0.16176878430428954,0.4892294077580831,-7.6499560302769725,12.342969908252067
1687876778.535,-0.2901700229500133,-0.349030004281273,1.788987297294662,-1.9155994948753514,0.37057984567871977,1.1733760596563576,1.3629882491112448,-0.29016550854681994,-0.3489851812808391,1.7890085076265627,-1.915501018272049,0.37050105924735666,1.173181647430978,1.3630664014644907,0.4825856513977051,-20.007812911987305,8.279045639038086,-23.783328151702882,0.4692398262023926,-0.1705471076965332,0.16420582580566406,0.48194865177149326,-1.6672493837117273,1.5172829154304326,-5.394448181574733,-0.1062364768628217,-0.18023736431913326,0.16230382105509156,0.4870557980135368,-7.668947619989343,12.338259627657683
1687876778.635,-0.2901700229500133,-0.34902994428558,1.788987297294662,-1.9155994948753514,0.37057984567871977,1.1733760596563576,1.3629882491112448,-0.29016550854681994,-0.3489851812808391,1.7890085076265627,-1.915501018272049,0.37050105924735666,1.173181647430978,1.3630664014644907,0.47720865249633787,-19.991681915283202,8.27728488922119,-23.78684965133667,0.4745220756530762,-0.16787709426879882,0.16387207412719726,0.4845654958163746,-1.6647085372822399,1.5176394726202092,-5.388926960811665,-0.10644845762904909,-0.180308571970691,0.16234744897422876,0.49218739763754904,-7.676152520033082,12.321378325534623
1687876778.735,-0.2901700229500133,-0.34903006416788307,1.788987237408052,-1.9155994948753514,0.37057984567871977,1.1733759398831378,1.3629882491112448,-0.29016550854681994,-0.3489851812808391,1.7890085076265627,-1.915501018272049,0.37050105924735666,1.173181647430978,1.3630664014644907,0.48527415084838865,-20.002435913085936,8.272002639770507,-23.77716552734375,0.47012020111083985,-0.16720959091186524,0.1618695640563965,0.48423700249545043,-1.6680404343962443,1.518511564087657,-5.390126323422184,-0.10603020544036898,-0.18037027600503092,0.16282159851442352,0.49834283713458327,-7.662217086617993,12.331104676321532
1687876778.834,-0.2901700229500133,-0.34902994428558,1.788987237408052,-1.9155994948753514,0.37057984567871977,1.1733758200008346,1.3629881891155518,-0.29016550854681994,-0.3489851812808391,1.7890085076265627,-1.915501018272049,0.37050105924735666,1.173181647430978,1.3630664014644907,0.48661840057373046,-20.00512441253662,8.283447513580322,-23.759558029174805,0.4754024505615234,-0.169212100982666,0.16287081909179688,0.4847046160590659,-1.6641621833061468,1.518074760571455,-5.38399492029464,-0.10540843620067727,-0.18031275909762357,0.16243646444863974,0.496459678621174,-7.656910066437326,12.31546514117518
1687876778.935,-0.2901700828366232,-0.349030004281273,1.788987297294662,-1.9155994948753514,0.37057984567871977,1.1733759398831378,1.3629881891155518,-0.29016550854681994,-0.3489851812808391,1.7890085076265627,-1.915501018272049,0.37050105924735666,1.173181647430978,1.3630664014644907,0.4731759033203125,-19.99033766555786,8.281686763763428,-23.748993530273438,0.47276132583618163,-0.170880859375,0.16253706741333007,0.48188006482893286,-1.6648604609928235,1.517609884581747,-5.3888354618797925,-0.10608792809273757,-0.18034073652457305,0.1621704478683346,0.48948466485593367,-7.6556384490026375,12.326858652273959
1687876779.067,-0.2901700229500133,-0.349030004281273,1.788987177412359,-1.9155994948753514,0.37057965404156784,1.1733760596563576,1.3629882491112448,-0.29016550854681994,-0.3489851812808391,1.7890085076265627,-1.915501018272049,0.37050105924735666,1.173181647430978,1.3630664014644907,0.48527415084838865,-19.96748542022705,8.27728488922119,-23.71553928375244,0.47276132583618163,-0.1712146110534668,0.16387207412719726,0.4837594246450332,-1.6611168347139214,1.5180360803673398,-5.38577348550663,-0.10612078615417081,-0.1800367410885645,0.16238910244457883,0.4919161791022405,-7.6666230993145845,12.3138212769662
1687876779.135,-0.2901700229500133,-0.349030004281273,1.788987237408052,-1.9155994948753514,0.37057984567871977,1.1733759398831378,1.3629882491112448,-0.29016550854681994,-0.3489851812808391,1.7890085076265627,-1.915501018272049,0.37050105924735666,1.173181647430978,1.3630664014644907,0.4812414016723633,-19.994370414733886,8.279045639038086,-23.720821533203125,0.4754024505615234,-0.172549617767334,0.16320457077026368,0.4824984507366128,-1.6621390920635424,1.517723119998029,-5.387799145339966,-0.10604379839581493,-0.17963403187033772,0.16287395937674787,0.49163264844921195,-7.662352139477291,12.317336249131229
1687876779.236,-0.2901700828366232,-0.34902994428558,1.788987237408052,-1.9155994948753514,0.37057984567871977,1.1733760596563576,1.3629882491112448,-0.29016550854681994,-0.3489851812808391,1.7890085076265627,-1.915501018272049,0.37050105924735666,1.173181647430978,1.3630664014644907,0.48661840057373046,-19.99033766555786,8.282567138671874,-23.72522340774536,0.4745220756530762,-0.16987960433959962,0.16320457077026368,0.48576996635018366,-1.665296473178835,1.5199532493024008,-5.392344225690438,-0.10493418218409092,-0.17952608037138068,0.16283505909485638,0.49883070248378125,-7.672556062668806,12.327603885906683
1687876779.338,-0.2901700828366232,-0.349030004281273,1.788987237408052,-1.9155996147576544,0.37057984567871977,1.1733759398831378,1.3629882491112448,-0.29016550854681994,-0.3489851812808391,1.7890085076265627,-1.915501018272049,0.37050105924735666,1.173181647430978,1.3630664014644907,0.49333964920043943,-19.999747413635255,8.286088638305664,-23.720821533203125,0.47980432510375975,-0.1722158660888672,0.1605345573425293,0.4853247155234405,-1.6667998212660355,1.5184085616674983,-5.392321009115564,-0.10382742220359037,-0.18006498753586167,0.1622022851158919,0.499951537868229,-7.662416906810522,12.334312653561435
1687876779.439,-0.2901700229500133,-0.349030004281273,1.788987237408052,-1.9155994948753514,0.3705797498601438,1.1733759398831378,1.3629882491112448,-0.29016550854681994,-0.3489851812808391,1.7890085076265627,-1.915501018272049,0.37050105924735666,1.173181647430978,1.3630664014644907,0.48661840057373046,-19.984960666656495,8.28432788848877,-23.747232780456542,0.4762828254699707,-0.16854459762573243,0.1618695640563965,0.48156416585565637,-1.6640956427147573,1.5177818518469937,-5.395658197356576,-0.10530084901098721,-0.17978970173839726,0.16246622145443068,0.4899314771562555,-7.66925388181187,12.335093878137128
1687876779.538,-0.2901699629543203,-0.349030004281273,1.788987177412359,-1.9155994948753514,0.37057984567871977,1.1733759398831378,1.3629882491112448,-0.29016550854681994,-0.3489851812808391,1.7890085076265627,-1.915501018272049,0.37050105924735666,1.173181647430978,1.3630664014644907,0.4825856513977051,-19.98899341583252,8.286969013214112,-23.75515615463257,0.477163200378418,-0.16987960433959962,0.1602008056640625,0.48523384495822053,-1.668599574439499,1.5196331601620647,-5.3958145673829,-0.10542987297087869,-0.18004742050080183,0.16249469054297017,0.4940000775275857,-7.673620787390355,12.339059930232366
1687876779.637,-0.2901700229500133,-0.34902994428558,1.788987237408052,-1.9155994948753514,0.3705797498601438,1.1733759398831378,1.3629882491112448,-0.29016550854681994,-0.3489851812808391,1.7890085076265627,-1.915501018272049,0.37050105924735666,1.173181647430978,1.3630664014644907,0.49333964920043943,-20.001091663360597,8.28432788848877,-23.787730026245118,0.4736417007446289,-0.16687583923339844,0.1618695640563965,0.48300762473113873,-1.6673561090741087,1.5181223535411092,-5.3950750920035,-0.10538024980244962,-0.1802037177231814,0.16268923673549338,0.49157128537386874,-7.668483765765046,12.339551062628638
1687876779.738,-0.2901699629543203,-0.34903006416788307,1.788987237408052,-1.9155994948753514,0.3705797498601438,1.1733760596563576,1.3629882491112448,-0.29016550854681994,-0.3489851812808391,1.7890085076265627,-1.915501018272049,0.37050105924735666,1.173181647430978,1.3630664014644907,0.4758644027709961,-19.98764916610718,8.28432788848877,-23.783328151702882,0.4736417007446289,-0.1702133560180664,0.16353832244873046,0.48100052738975796,-1.669103969704997,1.5189796595021168,-5.393977771019058,-0.10474210972756542,-0.18024120194435916,0.1626701860044512,0.4883772894668422,-7.650220244017456,12.343066653191991
1687876779.869,-0.2901700828366232,-0.34902994428558,1.788987237408052,-1.9155994948753514,0.37057965404156784,1.1733759398831378,1.3629882491112448,-0.29016550854681994,-0.3489851812808391,1.7890085076265627,-1.915501018272049,0.37050105924735666,1.173181647430978,1.3630664014644907,0.47720865249633787,-20.009157161712647,8.279926013946532,-23.79565340042114,0.47276132583618163,-0.169212100982666,0.16220331573486327,0.4835308762904099,-1.6673321387592452,1.5199207525947687,-5.388995301301807,-0.10445107116101617,-0.18004526943981763,0.1626337841846521,0.4956450722003758,-7.646217397535086,12.334428651787135
1687876779.937,-0.2901700229500133,-0.349030004281273,1.788987297294662,-1.9155994948753514,0.37057984567871977,1.1733759398831378,1.3629881891155518,-0.29016550854681994,-0.3489851812808391,1.7890085076265627,-1.915501018272049,0.37050105924735666,1.173181647430978,1.3630664014644907,0.48796265029907226,-20.006468662261963,8.27728488922119,-23.775404777526855,0.47276132583618163,-0.16821084594726562,0.1615358123779297,0.4809159351065696,-1.6652583468762732,1.518597642495772,-5.387999724168895,-0.1067310379992179,-0.18057046694870632,0.1629075048541998,0.4898483692664442,-7.649485430449856,12.330484538791309
1687876780.038,-0.2901700229500133,-0.349030004281273,1.788987237408052,-1.9155994948753514,0.37057984567871977,1.1733760596563576,1.3629881891155518,-0.29016550854681994,-0.3489851812808391,1.7890085076265627,-1.915501018272049,0.37050105924735666,1.173181647430978,1.3630664014644907,0.4812414016723633,-20.001091663360597,8.279926013946532,-23.771883277893068,0.4692398262023926,-0.16854459762573243,0.16320457077026368,0.4848170866383352,-1.6679350094965457,1.518669943210732,-5.387296157273258,-0.10569950712127515,-0.1800727766347856,0.1630027858502832,0.4945215153483733,-7.658376365565801,12.323581527440345
1687876780.137,-0.2901700828366232,-0.34903006416788307,1.788987177412359,-1.9155994948753514,0.37057984567871977,1.1733760596563576,1.3629882491112448,-0.29016550854681994,-0.3489851812808391,1.7890085076265627,-1.915501018272049,0.37050105924735666,1.173181647430978,1.3630664014644907,0.48930690002441407,-19.998403163909913,8.282567138671874,-23.73490753173828,0.47188095092773436,-0.169212100982666,0.1615358123779297,0.4800996905495549,-1.667076032981968,1.5190417302614805,-5.387175741775397,-0.10710648088748675,-0.18020986411268963,0.16290809843690252,0.4883831381745747,-7.633207664324248,12.331053615761213
1687876780.236,-0.2901700229500133,-0.349030004281273,1.788987237408052,-1.9155994948753514,0.37057984567871977,1.1733760596563576,1.3629881292289416,-0.29016550854681994,-0.3489851812808391,1.7890085076265627,-1.915501018272049,0.37050105924735666,1.173181647430978,1.3630664014644907,0.4839299011230469,-19.98899341583252,8.281686763763428,-23.73930940628052,0.47980432510375975,-0.1705471076965332,0.16220331573486327,0.486696619068847,-1.6665050997233555,1.5201908660772199,-5.389282743652229,-0.10646740138232727,-0.17988577247803436,0.1630542903793926,0.5008863337363325,-7.67110674333466,12.322991652795483
1687876780.337,-0.2901699629543203,-0.34902994428558,1.788987237408052,-1.9155994948753514,0.37057984567871977,1.1733760596563576,1.3629881891155518,-0.29016550854681994,-0.3489851812808391,1.7890085076265627,-1.915501018272049,0.37050105924735666,1.173181647430978,1.3630664014644907,0.48796265029907226,-19.98764916610718,8.285208263397216,-23.723462657928465,0.4754024505615234,-0.1715483627319336,0.16253706741333007,0.48511694892121615,-1.667098268625619,1.5192042891866087,-5.391694519663099,-0.10740534163039081,-0.17999524822741894,0.1623612820247523,0.4942844431569795,-7.668822178297384,12.32723017466351
1687876780.435,-0.2901700828366232,-0.34902994428558,1.788987237408052,-1.9155994948753514,0.37057984567871977,1.1733759398831378,1.3629882491112448,-0.29016550854681994,-0.3489851812808391,1.7890085076265627,-1.915501018272049,0.37050105924735666,1.173181647430978,1.3630664014644907,0.4839299011230469,-19.994370414733886,8.283447513580322,-23.743711280822755,0.4754024505615234,-0.1702133560180664,0.1615358123779297,0.4830486573182142,-1.6654038232450972,1.5182617606174333,-5.396745918676267,-0.10684823596829997,-0.18002674311848188,0.16217984362676285,0.4882006684164436,-7.68053050549283,12.337148122390134
1687876780.535,-0.2901700229500133,-0.349030004281273,1.788987237408052,-1.9155994948753514,0.37057984567871977,1.1733759398831378,1.3629882491112448,-0.29016550854681994,-0.3489851812808391,1.7890085076265627,-1.915501018272049,0.37050105924735666,1.173181647430978,1.3630664014644907,0.5040936470031738,-19.99033766555786,8.287849388122558,-23.751634654998778,0.4833258247375488,-0.1688783493041992,0.16320457077026368,0.4820286622301001,-1.6687840256123418,1.5192884318471584,-5.39545761679711,-0.10624105161707594,-0.18002479136035898,0.16251792400935725,0.49188033512919804,-7.661389039189863,12.343131472248466
1687876780.635,-0.2901699629543203,-0.349030004281273,1.788987237408052,-1.9155994948753514,0.37057984567871977,1.1733760596563576,1.3629882491112448,-0.29016550854681994,-0.3489851812808391,1.7890085076265627,-1.915501018272049,0.37050105924735666,1.173181647430978,1.3630664014644907,0.4798971519470215,-20.003780162811278,8.285208263397216,-23.782447776794434,0.4754024505615234,-0.16821084594726562,0.16220331573486327,0.4838532320175371,-1.6690265405845568,1.5175598925590756,-5.396283785834884,-0.1056398749251245,-0.180068563895531,0.16276931309660542,0.4913156903683637,-7.673054501272208,12.341705213471572
1687876780.768,-0.2901700828366232,-0.34903006416788307,1.788987237408052,-1.9155994948753514,0.37057984567871977,1.1733759398831378,1.3629882491112448,-0.29016550854681994,-0.3489851812808391,1.7890085076265627,-1.915501018272049,0.37050105924735666,1.173181647430978,1.3630664014644907,0.4745201530456543,-19.99571466445923,8.278165264129639,-23.783328151702882,0.477163200378418,-0.16754334259033202,0.16220331573486327,0.48410398656759185,-1.6676025323719474,1.5183486366864896,-5.392286901790533,-0.10772241197710425,-0.1802070192160108,0.16236911474954374,0.4884965002771242,-7.674021691888092,12.328959310701789
1687876780.836,-0.2901700229500133,-0.34903006416788307,1.788987237408052,-1.9155994948753514,0.37057984567871977,1.1733760596563576,1.3629881891155518,-0.29016550854681994,-0.3489851812808391,1.7890085076265627,-1.915501018272049,0.37050105924735666,1.173181647430978,1.3630664014644907,0.4825856513977051,-20.001091663360597,8.279926013946532,-23.798294525146485,0.47276132583618163,-0.16687583923339844,0.16220331573486327,0.48321076494401544,-1.6644195167200628,1.5181749750617461,-5.393078899108831,-0.10562858600401034,-0.1804594521210442,0.16232829907566143,0.4907432319638232,-7.673550601118243,12.334717451687817
1687876780.936,-0.2901700229500133,-0.34903006416788307,1.788987237408052,-1.9155994948753514,0.37057984567871977,1.1733758200008346,1.3629882491112448,-0.29016550854681994,-0.3489851812808391,1.7890085076265627,-1.915501018272049,0.37050105924735666,1.173181647430978,1.3630664014644907,0.4906511497497559,-20.00512441253662,8.28432788848877,-23.78949077606201,0.4745220756530762,-0.16787709426879882,0.16353832244873046,0.4811445199974578,-1.6657509471764906,1.5183047536360825,-5.38784528874466,-0.1051553858173887,-0.18059331749774127,0.16235161693378308,0.4879225027158405,-7.64710275115263,12.332401270457563
1687876781.035,-0.2901700229500133,-0.349030004281273,1.788987237408052,-1.9155994948753514,0.37057984567871977,1.1733759398831378,1.3629882491112448,-0.29016550854681994,-0.3489851812808391,1.7890085076265627,-1.915501018272049,0.37050105924735666,1.173181647430978,1.3630664014644907,0.4745201530456543,-20.00512441253662,8.281686763763428,-23.772763652801512,0.47276132583618163,-0.16854459762573243,0.1602008056640625,0.48216544013736656,-1.6655323232616803,1.5184910892284214,-5.388432917462684,-0.10564414261537611,-0.17994465677044813,0.1618928299119119,0.48979495521283656,-7.648825660591905,12.329792294596945
1687876781.136,-0.2901700229500133,-0.349030004281273,1.788987237408052,-1.9155996147576544,0.37057984567871977,1.1733760596563576,1.3629882491112448,-0.29016550854681994,-0.3489851812808391,1.7890085076265627,-1.915501018272049,0.37050105924735666,1.173181647430978,1.3630664014644907,0.4812414016723633,-19.99705891418457,8.281686763763428,-23.747232780456542,0.47980432510375975,-0.170880859375,0.16253706741333007,0.4847302450564645,-1.6680519952524406,1.5202949912851489,-5.384743426462246,-0.10583362516239006,-0.18078388365518253,0.16232735131816828,0.49438033500277556,-7.640593978332433,12.326233133099903
1687876781.234,-0.2901700828366232,-0.34903006416788307,1.788987237408052,-1.9155994948753514,0.37057984567871977,1.1733759398831378,1.3629882491112448,-0.29016550854681994,-0.3489851812808391,1.7890085076265627,-1.915501018272049,0.37050105924735666,1.173181647430978,1.3630664014644907,0.48527415084838865,-20.001091663360597,8.286969013214112,-23.735787906646728,0.4754024505615234,-0.16987960433959962,0.1605345573425293,0.4841309416065327,-1.6648260732811884,1.51821792190184,-5.389497010148279,-0.1055974988866446,-0.18104809583561723,0.1620039271157142,0.48998519972927196,-7.663451920016405,12.327172248648484
1687876781.334,-0.2901700229500133,-0.34903006416788307,1.788987237408052,-1.9155994948753514,0.3705797498601438,1.1733760596563576,1.3629882491112448,-0.29016550854681994,-0.3489851812808391,1.7890085076265627,-1.915501018272049,0.37050105924735666,1.173181647430978,1.3630664014644907,0.4785529022216797,-19.994370414733886,8.279926013946532,-23.723462657928465,0.47980432510375975,-0.1715483627319336,0.1602008056640625,0.4838837437484324,-1.6635846513880639,1.518599541136139,-5.388106889287902,-0.10511189282240584,-0.18089042551727724,0.16185359463945437,0.49213758395766954,-7.661026863136648,12.326705333740744
1687876781.434,-0.2901700828366232,-0.34903006416788307,1.788987237408052,-1.9155994948753514,0.3705797498601438,1.1733759398831378,1.3629882491112448,-0.29016550854681994,-0.3489851812808391,1.7890085076265627,-1.915501018272049,0.37050105924735666,1.173181647430978,1.3630664014644907,0.48930690002441407,-19.98899341583252,8.289610137939453,-23.73490753173828,0.4736417007446289,-0.1695458526611328,0.16220331573486327,0.48337580260992397,-1.6666493484229186,1.5194713959399846,-5.395757051247046,-0.10691086824629531,-0.18024237644288787,0.16211047839134324,0.49299891688128605,-7.6728485224157925,12.337183366249075
1687876781.567,-0.2901700828366232,-0.34903006416788307,1.788987237408052,-1.9155994948753514,0.37057984567871977,1.1733760596563576,1.3629882491112448,-0.29016550854681994,-0.3489851812808391,1.7890085076265627,-1.915501018272049,0.37050105924735666,1.173181647430978,1.3630664014644907,0.48796265029907226,-19.980927917480468,8.2904905128479,-23.74195053100586,0.47804357528686525,-0.17321712112426757,0.16287081909179688,0.4833977220325819,-1.6629334335805706,1.5181577255730385,-5.3928680970498695,-0.10769881751440807,-0.1806746398439502,0.16211838179373522,0.4907202638508403,-7.682805725154353,12.326365330555248
1687876781.635,-0.2901700229500133,-0.34902994428558,1.788987237408052,-1.9155996147576544,0.3705797498601438,1.1733760596563576,1.3629882491112448,-0.29016550854681994,-0.3489851812808391,1.7890085076265627,-1.915501018272049,0.37050105924735666,1.173181647430978,1.3630664014644907,0.48930690002441407,-19.98899341583252,8.282567138671874,-23.748993530273438,0.4710005760192871,-0.16854459762573243,0.1595333023071289,0.4854892428969221,-1.6684048195052945,1.519305241811867,-5.39651508809173,-0.10706792250793404,-0.1803322541340986,0.16234553813048763,0.494952323314381,-7.682129890596542,12.338104459835524
1687876781.735,-0.2901700229500133,-0.34903006416788307,1.788987237408052,-1.9155994948753514,0.37057984567871977,1.1733760596563576,1.3629882491112448,-0.29016550854681994,-0.3489851812808391,1.7890085076265627,-1.915501018272049,0.37050105924735666,1.173181647430978,1.3630664014644907,0.4919953994750977,-19.99705891418457,8.283447513580322,-23.772763652801512,0.4789239501953125,-0.16720959091186524,0.16387207412719726,0.4866157613190339,-1.6696968092131956,1.5208032992989262,-5.395038757034824,-0.10701410013596767,-0.17961789960588806,0.162210093983121,0.49363077014721046,-7.677851344148721,12.335055585634146
1687876781.834,-0.2901700828366232,-0.349030004281273,1.788987237408052,-1.9155996147576544,0.37057984567871977,1.1733759398831378,1.3629881292289416,-0.29016550854681994,-0.3489851812808391,1.7890085076265627,-1.915501018272049,0.37050105924735666,1.173181647430978,1.3630664014644907,0.48930690002441407,-19.994370414733886,8.283447513580322,-23.778926277160643,0.47804357528686525,-0.16754334259033202,0.1615358123779297,0.48328238095639553,-1.6633434166683845,1.517724852391627,-5.394146824353764,-0.10609980640036956,-0.17977897646367802,0.16229505243153244,0.4892609323982444,-7.681925703622944,12.329991187437535
1687876781.934,-0.2901700828366232,-0.34903006416788307,1.788987237408052,-1.9155994948753514,0.37057984567871977,1.1733760596563576,1.3629882491112448,-0.29016550854681994,-0.3489851812808391,1.7890085076265627,-1.915501018272049,0.37050105924735666,1.173181647430978,1.3630664014644907,0.4825856513977051,-19.994370414733886,8.279926013946532,-23.794773025512693,0.4762828254699707,-0.16787709426879882,0.16120206069946288,0.4835736721775299,-1.6654397928017524,1.5204465188881824,-5.388989448681615,-0.10369986248016638,-0.18038139783450008,0.16208096480738576,0.4952022363658167,-7.650202631562777,12.33749417489169
1687876782.035,-0.2901700229500133,-0.34903006416788307,1.788987237408052,-1.9155994948753514,0.37057984567871977,1.1733760596563576,1.3629881891155518,-0.29016550854681994,-0.3489851812808391,1.7890085076265627,-1.915501018272049,0.37050105924735666,1.173181647430978,1.3630664014644907,0.48527415084838865,-20.00512441253662,8.287849388122558,-23.775404777526855,0.4754024505615234,-0.1695458526611328,0.1615358123779297,0.4834857907623402,-1.6664020180635228,1.519432662049556,-5.388529582449864,-0.10478616771263363,-0.18076460665893876,0.1623690321030235,0.49352926747435993,-7.648517234393739,12.335468032645888
1687876782.133,-0.2901700828366232,-0.349030004281273,1.788987237408052,-1.9155994948753514,0.37057984567871977,1.1733758200008346,1.3629881891155518,-0.29016550854681994,-0.3489851812808391,1.7890085076265627,-1.915501018272049,0.37050105924735666,1.173181647430978,1.3630664014644907,0.4798971519470215,-19.994370414733886,8.278165264129639,-23.770122528076172,0.47012020111083985,-0.16687583923339844,0.16220331573486327,0.48347926574548916,-1.665466345651005,1.518916169005712,-5.38547387324044,-0.10497842844383451,-0.18072603227922635,0.16213103317615046,0.4965012827036122,-7.652011486292643,12.323974748373496
1687876782.265,-0.2901700229500133,-0.34903006416788307,1.788987177412359,-1.9155996147576544,0.3705797498601438,1.1733759398831378,1.3629882491112448,-0.29016550854681994,-0.3489851812808391,1.7890085076265627,-1.915501018272049,0.37050105924735666,1.173181647430978,1.3630664014644907,0.4798971519470215,-19.99705891418457,8.285208263397216,-23.73842903137207,0.48068470001220703,-0.1702133560180664,0.16220331573486327,0.48482097211145747,-1.6627316241221577,1.5198683121955638,-5.388655476482421,-0.10421607652015519,-0.1807997241626323,0.16227004982844812,0.49485088976597885,-7.664712577085511,12.326938543397919
1687876782.364,-0.2901700229500133,-0.34902994428558,1.788987237408052,-1.9155994948753514,0.3705797498601438,1.1733759398831378,1.3629882491112448,-0.29016550854681994,-0.3489851812808391,1.7890085076265627,-1.915501018272049,0.37050105924735666,1.173181647430978,1.3630664014644907,0.48661840057373046,-19.98899341583252,8.286088638305664,-23.71201778411865,0.4789239501953125,-0.170880859375,0.16120206069946288,0.48329578296672104,-1.6650134684046107,1.519376052917253,-5.3875823103978355,-0.10409055471483547,-0.18043936222909565,0.1621038276083897,0.4939561222602691,-7.645073416213526,12.328567685911624
1687876782.498,-0.2901699629543203,-0.349030004281273,1.788987237408052,-1.9155994948753514,0.37057984567871977,1.1733759398831378,1.3629882491112448,-0.29016550854681994,-0.3489851812808391,1.7890085076265627,-1.915501018272049,0.37050105924735666,1.173181647430978,1.3630664014644907,0.48527415084838865,-19.993026165008544,8.289610137939453,-23.73226640701294,0.47804357528686525,-0.1715483627319336,0.16253706741333007,0.48513211195632955,-1.6651154906513006,1.5198938779924103,-5.3941134513060085,-0.10594437713340245,-0.18074977753075067,0.16244607615667617,0.49389768929183747,-7.6756029012516755,12.335438509788043
1687876782.533,-0.2901700828366232,-0.34902994428558,1.788987237408052,-1.9155994948753514,0.37057984567871977,1.1733760596563576,1.3629882491112448,-0.29016550854681994,-0.3489851812808391,1.7890085076265627,-1.915501018272049,0.37050105924735666,1.173181647430978,1.3630664014644907,0.48661840057373046,-19.991681915283202,8.28432788848877,-23.736668281555175,0.47276132583618163,-0.16854459762573243,0.1598670539855957,0.48752213555680823,-1.667818895058391,1.5205305752051774,-5.392023683776264,-0.10588119516339883,-0.18042054652432304,0.16198336469283808,0.5000769656780315,-7.670718521989351,12.332107225050965
1687876782.664,-0.2901700828366232,-0.34902994428558,1.788987297294662,-1.9155994948753514,0.3705797498601438,1.1733760596563576,1.3629882491112448,-0.29016550854681994,-0.3489851812808391,1.7890085076265627,-1.915501018272049,0.37050105924735666,1.173181647430978,1.3630664014644907,0.48527415084838865,-19.99705891418457,8.27728488922119,-23.751634654998778,0.4736417007446289,-0.16987960433959962,0.16253706741333007,0.4809658940617311,-1.667066127179279,1.5190794565289454,-5.395574355333369,-0.10806441792467175,-0.18035647073770628,0.16199575458659027,0.4856115907620358,-7.6603950580027025,12.343313037748823
1687876782.763,-0.2901700229500133,-0.349030004281273,1.788987237408052,-1.9155994948753514,0.3705797498601438,1.1733759398831378,1.3629882491112448,-0.29016550854681994,-0.3489851812808391,1.7890085076265627,-1.915501018272049,0.37050105924735666,1.173181647430978,1.3630664014644907,0.49602814865112305,-19.999747413635255,8.286969013214112,-23.775404777526855,0.4692398262023926,-0.1702133560180664,0.16320457077026368,0.4840960169578056,-1.6656104792153563,1.5186523920467785,-5.3915190338284145,-0.1071465310338067,-0.18052231339607605,0.16232138149034792,0.49037008036782254,-7.675107584539765,12.328349938451321
1687876782.864,-0.2901699629543203,-0.349030004281273,1.788987237408052,-1.9155994948753514,0.3705797498601438,1.1733760596563576,1.3629882491112448,-0.29016550854681994,-0.3489851812808391,1.7890085076265627,-1.915501018272049,0.37050105924735666,1.173181647430978,1.3630664014644907,0.4812414016723633,-19.99571466445923,8.278165264129639,-23.781567401885987,0.4683594512939453,-0.16821084594726562,0.1618695640563965,0.482233208690497,-1.6664613422432495,1.5172474053040057,-5.39230449548316,-0.10678040976946349,-0.1799858570133862,0.16244547540625875,0.4892048714365353,-7.665347186363249,12.331526241515286
1687876782.964,-0.2901700229500133,-0.34903006416788307,1.788987237408052,-1.9155996147576544,0.37057984567871977,1.1733760596563576,1.3629882491112448,-0.29016550854681994,-0.3489851812808391,1.7890085076265627,-1.915501018272049,0.37050105924735666,1.173181647430978,1.3630664014644907,0.4906511497497559,-19.999747413635255,8.282567138671874,-23.790371150970458,0.4692398262023926,-0.16720959091186524,0.16253706741333007,0.4840389520876357,-1.6654031719765072,1.5183669663729744,-5.384732875244424,-0.10700686805981918,-0.1801375284090254,0.1621024664703855,0.49630792067269064,-7.656925259111776,12.31932034374797
1687876783.063,-0.2901700229500133,-0.349030004281273,1.788987237408052,-1.9155994948753514,0.37057984567871977,1.1733759398831378,1.3629881891155518,-0.29016550854681994,-0.3489851812808391,1.7890085076265627,-1.915501018272049,0.37050105924735666,1.173181647430978,1.3630664014644907,0.4758644027709961,-20.001091663360597,8.275524139404297,-23.766601028442384,0.4710005760192871,-0.16854459762573243,0.16287081909179688,0.48044758404012644,-1.6626283982685655,1.516934375877879,-5.3870965219262095,-0.1064257780971913,-0.18072773799026487,0.16253723978085577,0.4857750152719335,-7.653845449479817,12.32358878637807
1687876783.163,-0.2901700229500133,-0.34903006416788307,1.788987237408052,-1.9155994948753514,0.37057984567871977,1.1733760596563576,1.3629882491112448,-0.29016550854681994,-0.3489851812808391,1.7890085076265627,-1.915501018272049,0.37050105924735666,1.173181647430978,1.3630664014644907,0.4798971519470215,-19.991681915283202,8.279926013946532,-23.756036529541014,0.4754024505615234,-0.1705471076965332,0.1615358123779297,0.48542052152843107,-1.6611733812693932,1.5182826372766287,-5.383226186485656,-0.10567275697849723,-0.18063103346900483,0.1622067616924644,0.4958014076356245,-7.666840994652491,12.309435280975068
1687876783.268,-0.2901700229500133,-0.34902994428558,1.788987297294662,-1.9155994948753514,0.37057984567871977,1.1733759398831378,1.3629882491112448,-0.29016550854681994,-0.3489851812808391,1.7890085076265627,-1.915501018272049,0.37050105924735666,1.173181647430978,1.3630664014644907,0.4812414016723633,-19.998403163909913,8.285208263397216,-23.758677654266357,0.4736417007446289,-0.169212100982666,0.1615358123779297,0.4824470158524211,-1.662868906800171,1.5184328894769998,-5.385192098129246,-0.10451348517674484,-0.18046668747882064,0.162099599665859,0.49093172266096874,-7.647526339311325,12.32324519703783
1687876783.338,-0.2901700229500133,-0.34903006416788307,1.788987237408052,-1.9155994948753514,0.37057984567871977,1.1733760596563576,1.3629881891155518,-0.29016550854681994,-0.3489851812808391,1.7890085076265627,-1.915501018272049,0.37050105924735666,1.173181647430978,1.3630664014644907,0.4745201530456543,-20.001091663360597,8.274643764495849,-23.768361778259276,0.4789239501953125,-0.16821084594726562,0.16320457077026368,0.48313960277935375,-1.6631819791523252,1.517575531855198,-5.386380652640914,-0.10494762850589817,-0.18048571922482737,0.16221135208607596,0.4931758355443409,-7.662454577505041,12.323480231693893
1687876783.438,-0.2901700229500133,-0.34902994428558,1.788987237408052,-1.9155994948753514,0.37057984567871977,1.1733759398831378,1.3629882491112448,-0.29016550854681994,-0.3489851812808391,1.7890085076265627,-1.915501018272049,0.37050105924735666,1.173181647430978,1.3630664014644907,0.4758644027709961,-19.993026165008544,8.282567138671874,-23.73842903137207,0.47804357528686525,-0.1702133560180664,0.1615358123779297,0.4819491498402063,-1.6625932579065212,1.5182214539718895,-5.3840718408824335,-0.10402001697600713,-0.18021994164670602,0.16242745097945513,0.491221457550217,-7.641676831906909,12.321483763706851
1687876783.537,-0.2901700828366232,-0.34903006416788307,1.788987237408052,-1.9155994948753514,0.37057984567871977,1.1733759398831378,1.3629882491112448,-0.29016550854681994,-0.3489851812808391,1.7890085076265627,-1.915501018272049,0.37050105924735666,1.173181647430978,1.3630664014644907,0.4812414016723633,-19.99705891418457,8.282567138671874,-23.73226640701294,0.48068470001220703,-0.1705471076965332,0.16220331573486327,0.4836275376804904,-1.6643691216664922,1.521049751848033,-5.387647566544374,-0.10417185704284801,-0.1798442196497786,0.16226406615342373,0.4919899619345833,-7.641430678772498,12.330727365909254
1687876783.637,-0.2901700229500133,-0.34903006416788307,1.788987237408052,-1.9155994948753514,0.3705797498601438,1.1733759398831378,1.3629882491112448,-0.29016550854681994,-0.3489851812808391,1.7890085076265627,-1.915501018272049,0.37050105924735666,1.173181647430978,1.3630664014644907,0.48930690002441407,-19.98227216720581,8.286969013214112,-23.720821533203125,0.4815650749206543,-0.17355087280273437,0.16253706741333007,0.4849298997250445,-1.6623924242886585,1.521135166173933,-5.38850427630104,-0.10436731893443837,-0.18006236479570092,0.16231095929959066,0.49716836734186043,-7.6585172306732945,12.325489886606766
1687876783.736,-0.2901700229500133,-0.349030004281273,1.788987237408052,-1.9155994948753514,0.37057984567871977,1.1733760596563576,1.3629882491112448,-0.29016550854681994,-0.3489851812808391,1.7890085076265627,-1.915501018272049,0.37050105924735666,1.173181647430978,1.3630664014644907,0.4798971519470215,-19.984960666656495,8.288729763031006,-23.744591655731202,0.4789239501953125,-0.170880859375,0.16120206069946288,0.4803388032621615,-1.6629167653384314,1.5194511242117903,-5.394619741405021,-0.1051917954851275,-0.17975886704219562,0.1618991115172163,0.4886142413731458,-7.655186257744933,12.342434813860478
1687876783.836,-0.2901699629543203,-0.349030004281273,1.788987237408052,-1.9155994948753514,0.37057984567871977,1.1733760596563576,1.3629882491112448,-0.29016550854681994,-0.3489851812808391,1.7890085076265627,-1.915501018272049,0.37050105924735666,1.173181647430978,1.3630664014644907,0.48930690002441407,-19.99571466445923,8.279926013946532,-23.749873905181886,0.47980432510375975,-0.170880859375,0.16287081909179688,0.48304687694449533,-1.664347640604193,1.520119541557544,-5.393976186909429,-0.1050366156952412,-0.17948082371043717,0.16215014172609277,0.4902822321131257,-7.664933358575069,12.336082606140016
1687876783.936,-0.2901700229500133,-0.349030004281273,1.788987237408052,-1.9155994948753514,0.37057984567871977,1.1733760596563576,1.3629881891155518,-0.29016550854681994,-0.3489851812808391,1.7890085076265627,-1.915501018272049,0.37050105924735666,1.173181647430978,1.3630664014644907,0.4839299011230469,-19.99033766555786,8.285208263397216,-23.774524402618407,0.4762828254699707,-0.1688783493041992,0.1618695640563965,0.48131087196906264,-1.6658032101641205,1.5180027074904598,-5.396989739306337,-0.10450828541311566,-0.17977689457290386,0.16252341733472825,0.48573405075250964,-7.668513637947946,12.343085800071805
1687876784.035,-0.2901699629543203,-0.34902994428558,1.788987237408052,-1.9155994948753514,0.37057984567871977,1.1733759398831378,1.3629882491112448,-0.29016550854681994,-0.3489851812808391,1.7890085076265627,-1.915501018272049,0.37050105924735666,1.173181647430978,1.3630664014644907,0.4812414016723633,-19.999747413635255,8.285208263397216,-23.784208526611327,0.4762828254699707,-0.1702133560180664,0.16387207412719726,0.48093107143455466,-1.6647463315893782,1.5179353357138718,-5.391710252980998,-0.10547541942868276,-0.18054949004474485,0.16248641844615674,0.48849242383648134,-7.658754267571819,12.337453169984562
1687876784.168,-0.2901700229500133,-0.34902994428558,1.788987297294662,-1.9155994948753514,0.37057984567871977,1.1733759398831378,1.3629881292289416,-0.29016550854681994,-0.3489851812808391,1.7890085076265627,-1.915501018272049,0.37050105924735666,1.173181647430978,1.3630664014644907,0.4758644027709961,-19.998403163909913,8.28432788848877,-23.797414150238037,0.47188095092773436,-0.169212100982666,0.16253706741333007,0.48189377466766287,-1.6659964239747742,1.5182522929021185,-5.392092287562964,-0.10409043482909199,-0.18063973912435555,0.16256189281011652,0.489031651504013,-7.661833526200446,12.339249582556524
1687876784.236,-0.2901700828366232,-0.34902994428558,1.788987237408052,-1.9155994948753514,0.37057984567871977,1.1733760596563576,1.3629882491112448,-0.29016550854681994,-0.3489851812808391,1.7890085076265627,-1.915501018272049,0.37050105924735666,1.173181647430978,1.3630664014644907,0.4825856513977051,-19.991681915283202,8.282567138671874,-23.785088901519774,0.4736417007446289,-0.1688783493041992,0.16287081909179688,0.48330962267979083,-1.6664068730562167,1.5181169645692538,-5.384998619700184,-0.10439148783797145,-0.18050153453245837,0.1623857912609944,0.4937366477854329,-7.647061319038267,12.32581364005372
1687876784.335,-0.2901700229500133,-0.349030004281273,1.788987177412359,-1.9155994948753514,0.3705797498601438,1.1733759398831378,1.3629882491112448,-0.29016550854681994,-0.3489851812808391,1.7890085076265627,-1.915501018272049,0.37050105924735666,1.173181647430978,1.3630664014644907,0.4731759033203125,-20.002435913085936,8.273763389587403,-23.770122528076172,0.47276132583618163,-0.1695458526611328,0.16220331573486327,0.4855363554694832,-1.6668923483817537,1.5188684598183433,-5.386188506070689,-0.10501256264275055,-0.1805482516328884,0.16197166917592482,0.4943117409693027,-7.654650980103986,12.325037799208399
1687876784.435,-0.2901700229500133,-0.34902994428558,1.788987237408052,-1.9155994948753514,0.37057984567871977,1.1733760596563576,1.3629882491112448,-0.29016550854681994,-0.3489851812808391,1.7890085076265627,-1.915501018272049,0.37050105924735666,1.173181647430978,1.3630664014644907,0.4839299011230469,-19.986304916381837,8.28432788848877,-23.749873905181886,0.4815650749206543,-0.169212100982666,0.16220331573486327,0.48457655402648314,-1.6636635969484626,1.5191070423220963,-5.38407030725392,-0.10425342832434584,-0.18006038341654496,0.1619367415636702,0.4981621277249753,-7.645426471228959,12.32229304831611
1687876784.535,-0.2901700229500133,-0.349030004281273,1.788987237408052,-1.9155994948753514,0.37057984567871977,1.1733759398831378,1.3629881891155518,-0.29016550854681994,-0.3489851812808391,1.7890085076265627,-1.915501018272049,0.37050105924735666,1.173181647430978,1.3630664014644907,0.4812414016723633,-19.993026165008544,8.281686763763428,-23.726984157562256,0.4754024505615234,-0.169212100982666,0.16220331573486327,0.4849168341203661,-1.6657581530972725,1.5195276314334711,-5.3861971507446595,-0.10405370092489014,-0.17940604020614828,0.16188642643596823,0.4956409869928383,-7.645519732753757,12.324158413439683
1687876784.634,-0.2901699629543203,-0.349030004281273,1.788987237408052,-1.9155994948753514,0.3705797498601438,1.1733760596563576,1.3629881891155518,-0.29016550854681994,-0.3489851812808391,1.7890085076265627,-1.915501018272049,0.37050105924735666,1.173181647430978,1.3630664014644907,0.48796265029907226,-19.994370414733886,8.283447513580322,-23.726984157562256,0.477163200378418,-0.1702133560180664,0.1618695640563965,0.48373064164064217,-1.6639807459342502,1.5190608271261232,-5.387135144986972,-0.10348522656582519,-0.17989116019219842,0.16191021397535496,0.4936953656167848,-7.650653973877964,12.32703331816807
1687876784.734,-0.2901700229500133,-0.34903006416788307,1.788987237408052,-1.9155994948753514,0.37057984567871977,1.1733760596563576,1.3629881292289416,-0.29016550854681994,-0.3489851812808391,1.7890085076265627,-1.915501018272049,0.37050105924735666,1.173181647430978,1.3630664014644907,0.4919953994750977,-19.991681915283202,8.286088638305664,-23.727864532470704,0.4762828254699707,-0.1695458526611328,0.16253706741333007,0.4819208759883301,-1.6645028362602616,1.5190207846765653,-5.394330694596513,-0.10466529911767598,-0.17936509490071323,0.1620994289605434,0.4878139463023293,-7.661557334282731,12.338686287095395
1687876784.833,-0.2901700229500133,-0.34903006416788307,1.788987237408052,-1.9155994948753514,0.3705797498601438,1.1733759398831378,1.3629882491112448,-0.29016550854681994,-0.3489851812808391,1.7890085076265627,-1.915501018272049,0.37050105924735666,1.173181647430978,1.3630664014644907,0.4839299011230469,-19.991681915283202,8.287849388122558,-23.75075428009033,0.4762828254699707,-0.1712146110534668,0.16086830902099608,0.48300367857667037,-1.6646792068133756,1.5190809420529572,-5.394004091146913,-0.1045578340173544,-0.17943288033728427,0.16214677949847214,0.4898507949298945,-7.663207984810334,12.33749839468968
1687876784.964,-0.2901700229500133,-0.349030004281273,1.788987237408052,-1.9155994948753514,0.37057984567871977,1.1733760596563576,1.3629882491112448,-0.29016550854681994,-0.3489851812808391,1.7890085076265627,-1.915501018272049,0.37050105924735666,1.173181647430978,1.3630664014644907,0.4825856513977051,-19.998403163909913,8.291370887756347,-23.772763652801512,0.4745220756530762,-0.169212100982666,0.16420582580566406,0.48386548788527595,-1.6678077529625654,1.5194009212895991,-5.393941707712592,-0.10629895988529561,-0.17948693481771977,0.16216177572122226,0.49075265997462536,-7.663540510055283,12.338640862140972
1687876785.098,-0.2901699629543203,-0.34903006416788307,1.788987177412359,-1.9155994948753514,0.3705797498601438,1.1733759398831378,1.3629881891155518,-0.29016550854681994,-0.3489851812808391,1.7890085076265627,-1.915501018272049,0.37050105924735666,1.173181647430978,1.3630664014644907,0.4839299011230469,-20.002435913085936,8.279045639038086,-23.775404777526855,0.47012020111083985,-0.16587458419799805,0.16220331573486327,0.4833377102526343,-1.668268302341384,1.5187260277300427,-5.389422858091053,-0.10435695733665842,-0.17959158840173556,0.16217784874645874,0.49192947610353255,-7.648980594447204,12.333633987006817
1687876785.133,-0.2901700229500133,-0.349030004281273,1.788987237408052,-1.9155994948753514,0.37057984567871977,1.1733760596563576,1.3629882491112448,-0.29016550854681994,-0.3489851812808391,1.7890085076265627,-1.915501018272049,0.37050105924735666,1.173181647430978,1.3630664014644907,0.4785529022216797,-20.00512441253662,8.27728488922119,-23.785088901519774,0.47980432510375975,-0.16620833587646483,0.16120206069946288,0.4810040442152565,-1.6669073179017577,1.5179133434215162,-5.393883876937649,-0.10508295510740459,-0.1792620124373338,0.16203381917055523,0.48696973939889143,-7.653453862015398,12.34040782985829
1687876785.265,-0.2901700229500133,-0.34903006416788307,1.788987237408052,-1.9155996147576544,0.3705797498601438,1.1733759398831378,1.3629882491112448,-0.29016550854681994,-0.3489851812808391,1.7890085076265627,-1.915501018272049,0.37050105924735666,1.173181647430978,1.3630664014644907,0.48661840057373046,-20.002435913085936,8.286969013214112,-23.76484027862549,0.4789239501953125,-0.1688783493041992,0.16253706741333007,0.4855474664888405,-1.6632424066430516,1.518492833001829,-5.382371974933155,-0.1037641163546076,-0.1796451608528548,0.16228739966711656,0.49894977533474716,-7.653073786278126,12.312394526014666
1687876785.364,-0.2901700229500133,-0.349030004281273,1.788987297294662,-1.9155994948753514,0.37057984567871977,1.1733760596563576,1.3629882491112448,-0.29016550854681994,-0.3489851812808391,1.7890085076265627,-1.915501018272049,0.37050105924735666,1.173181647430978,1.3630664014644907,0.4745201530456543,-19.99705891418457,8.279045639038086,-23.7613187789917,0.4745220756530762,-0.16821084594726562,0.16420582580566406,0.48347899365366187,-1.6649727188347736,1.519449745521904,-5.386344727454933,-0.10433305097534078,-0.1801451564271362,0.16200855583255536,0.49385533813455423,-7.645652073310016,12.32757665568025
1687876785.463,-0.2901700828366232,-0.349030004281273,1.788987237408052,-1.9155996147576544,0.37057984567871977,1.1733760596563576,1.3629881891155518,-0.29016550854681994,-0.3489851812808391,1.7890085076265627,-1.915501018272049,0.37050105924735666,1.173181647430978,1.3630664014644907,0.4798971519470215,-19.99571466445923,8.282567138671874,-23.73226640701294,0.48068470001220703,-0.1705471076965332,0.16120206069946288,0.48388907719687224,-1.6655102895437488,1.5200193793654952,-5.383527738926291,-0.10383365450321545,-0.17959874567177259,0.1616894147410824,0.4993420068245854,-7.628434405488513,12.324142181295562
1687876785.563,-0.2901700828366232,-0.349030004281273,1.788987237408052,-1.9155994948753514,0.37057984567871977,1.1733759398831378,1.3629882491112448,-0.29016550854681994,-0.3489851812808391,1.7890085076265627,-1.915501018272049,0.37050105924735666,1.173181647430978,1.3630664014644907,0.4839299011230469,-19.986304916381837,8.28080638885498,-23.72522340774536,0.47980432510375975,-0.1715483627319336,0.16353832244873046,0.4816372861030279,-1.6679958006911157,1.5192153437027907,-5.38988787645685,-0.10462024544210305,-0.17950477242657736,0.16208105972092635,0.4908539385116447,-7.637767751240668,12.338646822032839
1687876785.663,-0.2901700828366232,-0.349030004281273,1.788987237408052,-1.9155994948753514,0.37057984567871977,1.1733760596563576,1.3629881891155518,-0.29016550854681994,-0.3489851812808391,1.7890085076265627,-1.915501018272049,0.37050105924735666,1.173181647430978,1.3630664014644907,0.49468389892578124,-19.999747413635255,8.285208263397216,-23.723462657928465,0.4833258247375488,-0.17188211441040038,0.16253706741333007,0.4837658689076909,-1.6683446245115843,1.5185186073275045,-5.389615896510281,-0.10455584928729063,-0.1798007871642502,0.1622979040236126,0.49536838667130056,-7.650561113843392,12.333257977405447
1687876785.763,-0.2901700828366232,-0.349030004281273,1.788987237408052,-1.9155994948753514,0.3705797498601438,1.1733758200008346,1.3629881292289416,-0.29016550854681994,-0.3489851812808391,1.7890085076265627,-1.915501018272049,0.37050105924735666,1.173181647430978,1.3630664014644907,0.4812414016723633,-19.99705891418457,8.279926013946532,-23.743711280822755,0.47804357528686525,-0.1705471076965332,0.1618695640563965,0.483284514534852,-1.6696939523773913,1.5181966716481765,-5.394543532380742,-0.10508454604648722,-0.17922305479708087,0.16221723839466928,0.4929277488347082,-7.656711956090159,12.340453964616346
1687876785.896,-0.2901699629543203,-0.349030004281273,1.788987237408052,-1.9155994948753514,0.3705797498601438,1.1733759398831378,1.3629882491112448,-0.29016550854681994,-0.3489851812808391,1.7890085076265627,-1.915501018272049,0.37050105924735666,1.173181647430978,1.3630664014644907,0.48796265029907226,-19.999747413635255,8.287849388122558,-23.75515615463257,0.4815650749206543,-0.17188211441040038,0.16320457077026368,0.48352335001299845,-1.6711859450077675,1.5188546160244198,-5.392454233820889,-0.10401306301854038,-0.1794085001946839,0.1622739233446514,0.49586774281255497,-7.645838079414266,12.342871481026355
1687876785.964,-0.2901699629543203,-0.349030004281273,1.788987237408052,-1.9155994948753514,0.37057984567871977,1.1733760596563576,1.3629882491112448,-0.29016550854681994,-0.3489851812808391,1.7890085076265627,-1.915501018272049,0.37050105924735666,1.173181647430978,1.3630664014644907,0.47720865249633787,-19.99705891418457,8.28432788848877,-23.758677654266357,0.47188095092773436,-0.1695458526611328,0.16253706741333007,0.481909021790069,-1.6692014486349418,1.5188198216984052,-5.394849341221107,-0.10500839560875609,-0.17953283203727088,0.1626737764199942,0.49110692608342943,-7.65268964822945,12.344861544696284
1687876786.063,-0.2901700229500133,-0.34903006416788307,1.788987237408052,-1.9155994948753514,0.37057984567871977,1.1733759398831378,1.3629882491112448,-0.29016550854681994,-0.3489851812808391,1.7890085076265627,-1.915501018272049,0.37050105924735666,1.173181647430978,1.3630664014644907,0.48930690002441407,-19.991681915283202,8.281686763763428,-23.785969276428222,0.47188095092773436,-0.16720959091186524,0.16120206069946288,0.4833577201882021,-1.666202752949328,1.5187797604570288,-5.390072521182596,-0.10490601961124794,-0.1798693053769146,0.16216630979130603,0.49354404014777375,-7.658796279859239,12.332409736734268
1687876786.163,-0.2901700229500133,-0.349030004281273,1.788987237408052,-1.9155994948753514,0.37057984567871977,1.1733759398831378,1.3629882491112448,-0.29016550854681994,-0.3489851812808391,1.7890085076265627,-1.915501018272049,0.37050105924735666,1.173181647430978,1.3630664014644907,0.47720865249633787,-20.001091663360597,8.28432788848877,-23.781567401885987,0.4789239501953125,-0.16654208755493163,0.1618695640563965,0.4817480820187048,-1.6684654051810952,1.5171778815333503,-5.389775995246479,-0.10601712353018089,-0.17918375306981504,0.1618519754142122,0.48968353629728456,-7.646664593213538,12.332043388896539
1687876786.263,-0.2901700229500133,-0.34903006416788307,1.788987297294662,-1.9155994948753514,0.3705797498601438,1.1733760596563576,1.3629881891155518,-0.29016550854681994,-0.3489851812808391,1.7890085076265627,-1.915501018272049,0.37050105924735666,1.173181647430978,1.3630664014644907,0.4718316535949707,-20.007812911987305,8.276404514312745,-23.77980665206909,0.4745220756530762,-0.1712146110534668,0.1605345573425293,0.4840266713521568,-1.6662728193762284,1.5182224388099121,-5.386094408121604,-0.1049882792338997,-0.17996710940165717,0.16190429981666027,0.49485078705834384,-7.649879562726778,12.324090510886887
1687876786.362,-0.2901700828366232,-0.349030004281273,1.788987237408052,-1.9155994948753514,0.37057965404156784,1.1733759398831378,1.3629882491112448,-0.29016550854681994,-0.3489851812808391,1.7890085076265627,-1.915501018272049,0.37050105924735666,1.173181647430978,1.3630664014644907,0.4825856513977051,-20.003780162811278,8.276404514312745,-23.76748140335083,0.47804357528686525,-0.170880859375,0.1615358123779297,0.48336211457605666,-1.667436908763081,1.5183945382514916,-5.386361782267583,-0.10533682397138958,-0.18000307644621855,0.16214152557638062,0.4921093601462497,-7.645180417755624,12.32710022171128
1687876786.462,-0.2901700229500133,-0.34902994428558,1.788987237408052,-1.9155994948753514,0.3705797498601438,1.1733759398831378,1.3629881891155518,-0.29016550854681994,-0.3489851812808391,1.7890085076265627,-1.915501018272049,0.37050105924735666,1.173181647430978,1.3630664014644907,0.4785529022216797,-20.001091663360597,8.282567138671874,-23.75691690444946,0.4815650749206543,-0.16854459762573243,0.1615358123779297,0.48545884346443413,-1.6664341181933473,1.5178480497274047,-5.384010904761573,-0.10588655937137456,-0.17975954722825732,0.1618476290666676,0.49773220931550943,-7.654824858686026,12.31552676131869
1687876786.561,-0.2901699629543203,-0.349030004281273,1.788987177412359,-1.9155994948753514,0.37057984567871977,1.1733760596563576,1.3629882491112448,-0.29016550854681994,-0.3489851812808391,1.7890085076265627,-1.915501018272049,0.37050105924735666,1.173181647430978,1.3630664014644907,0.4785529022216797,-19.986304916381837,8.282567138671874,-23.72258228302002,0.48244544982910154,-0.170880859375,0.16220331573486327,0.48328933073659147,-1.6652782179975811,1.5192586185622228,-5.388927241362218,-0.10569485600878434,-0.17986116515655473,0.16216473062570458,0.49232067685018743,-7.654772163517445,12.328635868790792
1687876786.661,-0.2901700828366232,-0.34903006416788307,1.788987297294662,-1.9155994948753514,0.37057984567871977,1.1733759398831378,1.3629882491112448,-0.29016550854681994,-0.3489851812808391,1.7890085076265627,-1.915501018272049,0.37050105924735666,1.173181647430978,1.3630664014644907,0.48930690002441407,-19.99705891418457,8.287849388122558,-23.72610378265381,0.4754024505615234,-0.1705471076965332,0.16287081909179688,0.4855388761807464,-1.6659344946342292,1.5194831849816528,-5.387667472056156,-0.10657466466947677,-0.17964224331326983,0.16215976765371581,0.4962201389528349,-7.663382760805775,12.318497026559657
1687876786.795,-0.2901700229500133,-0.34902994428558,1.788987237408052,-1.9155994948753514,0.3705797498601438,1.1733760596563576,1.3629882491112448,-0.29016550854681994,-0.3489851812808391,1.7890085076265627,-1.915501018272049,0.37050105924735666,1.173181647430978,1.3630664014644907,0.4825856513977051,-19.98899341583252,8.286088638305664,-23.735787906646728,0.47804357528686525,-0.16821084594726562,0.1615358123779297,0.4839047342470671,-1.6662935948082613,1.5188046003091542,-5.395659916638175,-0.10707651259629188,-0.17948336582417812,0.16226921684510548,0.4910091991549545,-7.678024167069701,12.334405974962404
1687876786.862,-0.2901700229500133,-0.349030004281273,1.788987237408052,-1.9155994948753514,0.37057984567871977,1.1733759398831378,1.3629882491112448,-0.29016550854681994,-0.3489851812808391,1.7890085076265627,-1.915501018272049,0.37050105924735666,1.173181647430978,1.3630664014644907,0.49602814865112305,-19.993026165008544,8.287849388122558,-23.743711280822755,0.4754024505615234,-0.1695458526611328,0.16220331573486327,0.4849073897893659,-1.6662423513189828,1.5190715084406525,-5.394564942976489,-0.10679727042872822,-0.17969935871870601,0.16209508953062557,0.4921017175195215,-7.679543870120179,12.330089595780523
1687876786.962,-0.2901700828366232,-0.34902994428558,1.788987177412359,-1.9155994948753514,0.37057984567871977,1.1733759398831378,1.3629882491112448,-0.29016550854681994,-0.3489851812808391,1.7890085076265627,-1.915501018272049,0.37050105924735666,1.173181647430978,1.3630664014644907,0.48930690002441407,-19.98764916610718,8.281686763763428,-23.75779727935791,0.4736417007446289,-0.1688783493041992,0.1615358123779297,0.48292859570357777,-1.6666731014365939,1.5192706982815702,-5.3948366176980445,-0.10629342050865444,-0.17978124274373314,0.16200437432791287,0.48963293369719707,-7.665667366952623,12.339149232969238
1687876787.062,-0.2901700229500133,-0.349030004281273,1.788987177412359,-1.9155994948753514,0.37057984567871977,1.1733759398831378,1.3629882491112448,-0.29016550854681994,-0.3489851812808391,1.7890085076265627,-1.915501018272049,0.37050105924735666,1.173181647430978,1.3630664014644907,0.4812414016723633,-19.99571466445923,8.286088638305664,-23.783328151702882,0.47188095092773436,-0.16854459762573243,0.16220331573486327,0.48163250293141885,-1.6662752723073582,1.5181297362122397,-5.392901067590984,-0.10669905041145232,-0.1800700511137842,0.16192018924717957,0.4869457306851821,-7.659873149911779,12.33625063925493
1687876787.161,-0.2901699629543203,-0.34903006416788307,1.788987237408052,-1.9155994948753514,0.3705797498601438,1.1733760596563576,1.3629882491112448,-0.29016550854681994,-0.3489851812808391,1.7890085076265627,-1.915501018272049,0.37050105924735666,1.173181647430978,1.3630664014644907,0.47720865249633787,-19.99705891418457,8.278165264129639,-23.768361778259276,0.4745220756530762,-0.16821084594726562,0.16220331573486327,0.481990113295786,-1.6677438320317834,1.5184447255208702,-5.3907898788729085,-0.10487454423619344,-0.18004396178372067,0.16172820717972464,0.4890007529662453,-7.648635396448827,12.338567097379455
1687876787.266,-0.2901700229500133,-0.34903006416788307,1.7889871175257488,-1.9155994948753514,0.37057984567871977,1.1733760596563576,1.3629882491112448,-0.29016550854681994,-0.3489851812808391,1.7890085076265627,-1.915501018272049,0.37050105924735666,1.173181647430978,1.3630664014644907,0.47720865249633787,-19.994370414733886,8.286969013214112,-23.7930122756958,0.4789239501953125,-0.16720959091186524,0.16353832244873046,0.48129651275520613,-1.667058588134402,1.5200538230958665,-5.392985082605202,-0.10449874980887991,-0.1799662948416769,0.16259756490429966,0.4898011594745856,-7.645081375331035,12.344726793934168
1687876787.334,-0.2901700828366232,-0.349030004281273,1.788987237408052,-1.9155994948753514,0.3705797498601438,1.1733759398831378,1.3629882491112448,-0.29016550854681994,-0.3489851812808391,1.7890085076265627,-1.915501018272049,0.37050105924735666,1.173181647430978,1.3630664014644907,0.4839299011230469,-19.99705891418457,8.283447513580322,-23.790371150970458,0.4745220756530762,-0.16821084594726562,0.16120206069946288,0.48170113474517606,-1.6700219191655699,1.5196888866764544,-5.389727682787033,-0.10516807802204398,-0.1798613746874413,0.16239379351477104,0.4910064930662782,-7.637987039625178,12.341294299387375
1687876787.465,-0.2901700828366232,-0.349030004281273,1.788987237408052,-1.9155994948753514,0.3705797498601438,1.1733759398831378,1.3629882491112448,-0.29016550854681994,-0.3489851812808391,1.7890085076265627,-1.915501018272049,0.37050105924735666,1.173181647430978,1.3630664014644907,0.4704874038696289,-20.003780162811278,8.274643764495849,-23.778926277160643,0.47188095092773436,-0.170880859375,0.16253706741333007,0.48247324441389927,-1.6679945979860544,1.5203426579336694,-5.385154668714973,-0.1054944368232405,-0.1797154649951037,0.16282103300500886,0.4954330007917255,-7.629669413706254,12.330070716163114
1687876787.565,-0.2901700828366232,-0.34903006416788307,1.788987237408052,-1.9155994948753514,0.37057984567871977,1.1733760596563576,1.3629882491112448,-0.29016550854681994,-0.3489851812808391,1.7890085076265627,-1.915501018272049,0.37050105924735666,1.173181647430978,1.3630664014644907,0.48661840057373046,-19.998403163909913,8.282567138671874,-23.745472030639647,0.4762828254699707,-0.1705471076965332,0.16220331573486327,0.4848393920580528,-1.6688403469442865,1.5208689474726493,-5.381863061663669,-0.10695653047253358,-0.18010265424369953,0.1625990307508139,0.5003571614971274,-7.632990728708946,12.321089615254031
1687876787.633,-0.2901700229500133,-0.34902994428558,1.788987237408052,-1.9155994948753514,0.37057984567871977,1.1733760596563576,1.3629881891155518,-0.29016550854681994,-0.3489851812808391,1.7890085076265627,-1.915501018272049,0.37050105924735666,1.173181647430978,1.3630664014644907,0.4691431541442871,-20.003780162811278,8.274643764495849,-23.751634654998778,0.47188095092773436,-0.16987960433959962,0.16320457077026368,0.48279870616734966,-1.6683200473249467,1.5195698479610367,-5.385028487687307,-0.10591468487831805,-0.18022192305374876,0.1627025337794402,0.49549606685779524,-7.634237969947109,12.328651749452273
1687876787.765,-0.2901700229500133,-0.349030004281273,1.788987237408052,-1.9155994948753514,0.37057984567871977,1.1733759398831378,1.3629882491112448,-0.29016550854681994,-0.3489851812808391,1.7890085076265627,-1.915501018272049,0.37050105924735666,1.173181647430978,1.3630664014644907,0.48796265029907226,-19.98899341583252,8.285208263397216,-23.729625282287596,0.47980432510375975,-0.170880859375,0.16120206069946288,0.48592331785726306,-1.665170660404399,1.5195169785516305,-5.384157975268831,-0.10527907408340983,-0.1801173300164694,0.16249046939750422,0.4998375011302433,-7.655531075196878,12.317186465669202
1687876787.865,-0.2901699629543203,-0.34902994428558,1.788987237408052,-1.9155996147576544,0.37057984567871977,1.1733759398831378,1.3629882491112448,-0.29016550854681994,-0.3489851812808391,1.7890085076265627,-1.915501018272049,0.37050105924735666,1.173181647430978,1.3630664014644907,0.4798971519470215,-19.99571466445923,8.279926013946532,-23.727864532470704,0.48244544982910154,-0.16987960433959962,0.16120206069946288,0.48492940189541706,-1.6671541817391795,1.5186899065563728,-5.3913466345164425,-0.10516905479965324,-0.1795034397046788,0.16221490611789796,0.4958622218472136,-7.665177985183619,12.330333985507092
1687876787.964,-0.2901699629543203,-0.34903006416788307,1.788987237408052,-1.9155994948753514,0.37057984567871977,1.1733760596563576,1.3629882491112448,-0.29016550854681994,-0.3489851812808391,1.7890085076265627,-1.915501018272049,0.37050105924735666,1.173181647430978,1.3630664014644907,0.48661840057373046,-19.98764916610718,8.285208263397216,-23.73490753173828,0.4815650749206543,-0.16987960433959962,0.1618695640563965,0.48422036763816634,-1.6651000257286115,1.5176593925222557,-5.391423652154284,-0.10475273609234012,-0.17949010429306794,0.1625414534722411,0.49756662248305195,-7.6711669031388725,12.324901866101754
1687876788.064,-0.2901700828366232,-0.34902994428558,1.788987237408052,-1.9155994948753514,0.3705797498601438,1.1733760596563576,1.3629881891155518,-0.29016550854681994,-0.3489851812808391,1.7890085076265627,-1.915501018272049,0.37050105924735666,1.173181647430978,1.3630664014644907,0.4839299011230469,-19.993026165008544,8.279045639038086,-23.75779727935791,0.4736417007446289,-0.16821084594726562,0.16353832244873046,0.4848093224968294,-1.6682899109783722,1.517878653792123,-5.395822978704647,-0.10685437962419586,-0.17968937387817435,0.16256729237639184,0.49419383216688795,-7.681294766923988,12.334168824932485
1687876788.164,-0.2901700229500133,-0.34903006416788307,1.788987237408052,-1.9155994948753514,0.37057984567871977,1.1733760596563576,1.3629880693423315,-0.29016550854681994,-0.3489851812808391,1.7890085076265627,-1.915501018272049,0.37050105924735666,1.173181647430978,1.3630664014644907,0.4906511497497559,-19.991681915283202,8.281686763763428,-23.766601028442384,0.4762828254699707,-0.16821084594726562,0.16253706741333007,0.4836910179812909,-1.6638343662686528,1.5181115825665383,-5.393174318890347,-0.10592402650868135,-0.17989721669007236,0.16256545408322265,0.4911065639458633,-7.67777387966332,12.328726081784392
1687876788.263,-0.2901700229500133,-0.349030004281273,1.788987237408052,-1.9155994948753514,0.3705797498601438,1.1733760596563576,1.3629882491112448,-0.29016550854681994,-0.3489851812808391,1.7890085076265627,-1.915501018272049,0.37050105924735666,1.173181647430978,1.3630664014644907,0.4731759033203125,-19.998403163909913,8.276404514312745,-23.783328151702882,0.47276132583618163,-0.16720959091186524,0.16220331573486327,0.4814796059593306,-1.6655536966488622,1.517733712584981,-5.392829532855348,-0.10693476282087193,-0.17939052515501963,0.16243204491085178,0.4870594417871209,-7.669632096566617,12.33040231823823
1687876788.363,-0.2901700229500133,-0.34903006416788307,1.788987177412359,-1.9155994948753514,0.37057984567871977,1.1733759398831378,1.3629882491112448,-0.29016550854681994,-0.3489851812808391,1.7890085076265627,-1.915501018272049,0.37050105924735666,1.173181647430978,1.3630664014644907,0.4825856513977051,-19.99705891418457,8.286088638305664,-23.785088901519774,0.4754024505615234,-0.16620833587646483,0.16287081909179688,0.48324778844237287,-1.6669714285846118,1.5181310539931971,-5.388324247712044,-0.10602177803255732,-0.17937187306786628,0.1621471942285473,0.49300019233532577,-7.652485843511748,12.326433038376472
1687876788.497,-0.2901700828366232,-0.349030004281273,1.788987237408052,-1.9155994948753514,0.37057984567871977,1.1733759398831378,1.3629882491112448,-0.29016550854681994,-0.3489851812808391,1.7890085076265627,-1.915501018272049,0.37050105924735666,1.173181647430978,1.3630664014644907,0.4704874038696289,-20.009157161712647,8.27728488922119,-23.778926277160643,0.47012020111083985,-0.16987960433959962,0.1618695640563965,0.4810403093216956,-1.6662675066614785,1.5171024597090308,-5.387713370831021,-0.10615762417057162,-0.1801001108160793,0.16222160758431736,0.48584335554238167,-7.643750994125733,12.326689668125518
1687876788.564,-0.2901700828366232,-0.349030004281273,1.788987237408052,-1.9155994948753514,0.37057984567871977,1.1733760596563576,1.3629882491112448,-0.29016550854681994,-0.3489851812808391,1.7890085076265627,-1.915501018272049,0.37050105924735666,1.173181647430978,1.3630664014644907,0.4785529022216797,-20.003780162811278,8.281686763763428,-23.775404777526855,0.47276132583618163,-0.1688783493041992,0.1618695640563965,0.48236219609084285,-1.6639136528048342,1.5174591249036027,-5.383648653012227,-0.10614892990872195,-0.17974931568604896,0.16217206432672057,0.49157870101195716,-7.6470053633174,12.319807464809648
1687876788.664,-0.2901700229500133,-0.349030004281273,1.788987237408052,-1.9155994948753514,0.37057984567871977,1.1733760596563576,1.3629881891155518,-0.29016550854681994,-0.3489851812808391,1.7890085076265627,-1.915501018272049,0.37050105924735666,1.173181647430978,1.3630664014644907,0.4798971519470215,-20.003780162811278,8.279926013946532,-23.74811315536499,0.4736417007446289,-0.17188211441040038,0.16220331573486327,0.4826673337094183,-1.6667989475878864,1.5180400538034118,-5.385365009921327,-0.10646775858742744,-0.1798451717258756,0.1624089589792546,0.4930690294903,-7.64448496749714,12.322779714029057
1687876788.763,-0.2901700229500133,-0.349030004281273,1.788987237408052,-1.9155994948753514,0.37057984567871977,1.1733759398831378,1.3629882491112448,-0.29016550854681994,-0.3489851812808391,1.7890085076265627,-1.915501018272049,0.37050105924735666,1.173181647430978,1.3630664014644907,0.4785529022216797,-19.998403163909913,8.279045639038086,-23.736668281555175,0.4692398262023926,-0.1688783493041992,0.16353832244873046,0.4863451239525492,-1.667806965799989,1.5186073275134395,-5.382643315917406,-0.10613301669558117,-0.17948132340064415,0.16220556980983494,0.5015028550396353,-7.6505033548093735,12.313609189345119
1687876788.863,-0.2901699629543203,-0.34903006416788307,1.788987237408052,-1.9155994948753514,0.3705797498601438,1.1733760596563576,1.3629882491112448,-0.29016550854681994,-0.3489851812808391,1.7890085076265627,-1.915501018272049,0.37050105924735666,1.173181647430978,1.3630664014644907,0.48661840057373046,-19.984960666656495,8.287849388122558,-23.717300033569337,0.4815650749206543,-0.170880859375,0.16220331573486327,0.4859061101803027,-1.6668537016803224,1.518370625549558,-5.387388148093006,-0.10469858049507957,-0.1792369385717982,0.1626178585119833,0.49918447697546164,-7.656108875231204,12.32107731506877
1687876788.963,-0.2901700229500133,-0.349030004281273,1.788987237408052,-1.9155994948753514,0.37057984567871977,1.1733759398831378,1.3629882491112448,-0.29016550854681994,-0.3489851812808391,1.7890085076265627,-1.915501018272049,0.37050105924735666,1.173181647430978,1.3630664014644907,0.4785529022216797,-19.98899341583252,8.286969013214112,-23.72522340774536,0.47804357528686525,-0.170880859375,0.16387207412719726,0.48599414069573393,-1.6676660329234845,1.5168202506048587,-5.388096195833287,-0.10584243544986352,-0.17922864583961018,0.16294283970375495,0.5000179718624911,-7.670402639576559,12.31748631689867
1687876789.062,-0.2901700229500133,-0.34903006416788307,1.788987237408052,-1.9155994948753514,0.37057984567871977,1.1733760596563576,1.3629882491112448,-0.29016550854681994,-0.3489851812808391,1.7890085076265627,-1.915501018272049,0.37050105924735666,1.173181647430978,1.3630664014644907,0.48796265029907226,-19.99033766555786,8.28432788848877,-23.740189781188963,0.4789239501953125,-0.1722158660888672,0.16287081909179688,0.48490942693172345,-1.666452781978799,1.5183230599541264,-5.393366484196077,-0.10630991671694952,-0.17937627524692748,0.1628314825215712,0.4952682836595129,-7.677738925256847,12.328460445388815
1687876789.162,-0.2901700229500133,-0.349030004281273,1.788987177412359,-1.9155994948753514,0.37057984567871977,1.1733758200008346,1.3629881292289416,-0.29016550854681994,-0.3489851812808391,1.7890085076265627,-1.915501018272049,0.37050105924735666,1.173181647430978,1.3630664014644907,0.4919953994750977,-19.984960666656495,8.28432788848877,-23.76395990371704,0.4736417007446289,-0.16554083251953125,0.16120206069946288,0.4855733364974375,-1.667020832899902,1.5167770299918546,-5.39330696501488,-0.10604109110507876,-0.1790004381691853,0.16247436041841112,0.49469847286536395,-7.68472144732267,12.324128813521202
1687876789.262,-0.2901700828366232,-0.34903006416788307,1.788987177412359,-1.9155994948753514,0.37057984567871977,1.1733760596563576,1.3629882491112448,-0.29016550854681994,-0.3489851812808391,1.7890085076265627,-1.915501018272049,0.37050105924735666,1.173181647430978,1.3630664014644907,0.48930690002441407,-20.009157161712647,8.286969013214112,-23.78068702697754,0.4789239501953125,-0.16854459762573243,0.16520708084106445,0.48700695286314244,-1.6699669354296647,1.5182077165109118,-5.395143785434378,-0.10911208837209277,-0.17966184403553354,0.16258421556178448,0.49840397777323214,-7.691096707740588,12.32757909319881
1687876789.395,-0.2901700229500133,-0.349030004281273,1.788987237408052,-1.9155996147576544,0.37057984567871977,1.1733760596563576,1.3629881891155518,-0.29016550854681994,-0.3489851812808391,1.7890085076265627,-1.915501018272049,0.37050105924735666,1.173181647430978,1.3630664014644907,0.4825856513977051,-20.00512441253662,8.288729763031006,-23.788610401153566,0.47276132583618163,-0.16854459762573243,0.16420582580566406,0.484764707924173,-1.6724143606796722,1.5191732849189976,-5.38785789290281,-0.10726217582675052,-0.1798842029172669,0.16278689901965307,0.4997959856072099,-7.64725861711967,12.332510919453938
1687876789.462,-0.2901700229500133,-0.34902994428558,1.788987237408052,-1.9155994948753514,0.3705797498601438,1.1733759398831378,1.3629881891155518,-0.29016550854681994,-0.3489851812808391,1.7890085076265627,-1.915501018272049,0.37050105924735666,1.173181647430978,1.3630664014644907,0.4798971519470215,-20.01184566116333,8.286088638305664,-23.775404777526855,0.47276132583618163,-0.16854459762573243,0.16220331573486327,0.48404122364276075,-1.673057149708424,1.5194713671709983,-5.3879597317052585,-0.10786426429476693,-0.17981702419069695,0.16258046576189,0.49814816245752114,-7.640001935512612,12.332904140450763
1687876789.561,-0.2901700229500133,-0.34903006416788307,1.788987237408052,-1.9155994948753514,0.37057984567871977,1.1733760596563576,1.3629882491112448,-0.29016550854681994,-0.3489851812808391,1.7890085076265627,-1.915501018272049,0.37050105924735666,1.173181647430978,1.3630664014644907,0.4825856513977051,-20.009157161712647,8.279926013946532,-23.768361778259276,0.4692398262023926,-0.16554083251953125,0.16220331573486327,0.4834237332056554,-1.6657363193958168,1.5187901402310717,-5.381173170578673,-0.10625756574774864,-0.18011102311266303,0.1623133476435724,0.4954858977181892,-7.63726708891838,12.31604783166059
1687876789.662,-0.2901700229500133,-0.34903006416788307,1.788987237408052,-1.9155994948753514,0.37057984567871977,1.1733758200008346,1.3629881891155518,-0.29016550854681994,-0.3489851812808391,1.7890085076265627,-1.915501018272049,0.37050105924735666,1.173181647430978,1.3630664014644907,0.4704874038696289,-19.993026165008544,8.28080638885498,-23.740189781188963,0.4745220756530762,-0.170880859375,0.16287081909179688,0.4835888353293488,-1.6708041224545833,1.5210456853401164,-5.386383016460966,-0.10589985422811832,-0.18044605332133742,0.16228353382801503,0.49576661810894407,-7.627654462431528,12.336312497305668
1687876789.761,-0.2901700229500133,-0.349030004281273,1.788987237408052,-1.9155994948753514,0.37057984567871977,1.1733759398831378,1.3629882491112448,-0.29016550854681994,-0.3489851812808391,1.7890085076265627,-1.915501018272049,0.37050105924735666,1.173181647430978,1.3630664014644907,0.49333964920043943,-20.006468662261963,8.285208263397216,-23.748993530273438,0.4789239501953125,-0.169212100982666,0.16086830902099608,0.48810878120195744,-1.6635787508173867,1.5182800561169572,-5.382599961992717,-0.10441908515234705,-0.1807904534790023,0.1621486086084855,0.5029252128323343,-7.669771984176836,12.308866633154297
1687876789.860,-0.2901700229500133,-0.34902994428558,1.788987237408052,-1.9155994948753514,0.3705797498601438,1.1733759398831378,1.3629881891155518,-0.29016550854681994,-0.3489851812808391,1.7890085076265627,-1.915501018272049,0.37050105924735666,1.173181647430978,1.3630664014644907,0.48661840057373046,-19.98764916610718,8.278165264129639,-23.714658908843994,0.47804357528686525,-0.1695458526611328,0.16253706741333007,0.4825676227761563,-1.6661262764113176,1.5161161901467328,-5.388632557050317,-0.10630930958908448,-0.18060074480658445,0.16232931710053644,0.49058360197496403,-7.661546021389506,12.32497894384195
1687876789.960,-0.2901700828366232,-0.34903006416788307,1.788987237408052,-1.9155994948753514,0.3705797498601438,1.1733760596563576,1.3629882491112448,-0.29016550854681994,-0.3489851812808391,1.7890085076265627,-1.915501018272049,0.37050105924735666,1.173181647430978,1.3630664014644907,0.48930690002441407,-19.994370414733886,8.288729763031006,-23.73490753173828,0.4754024505615234,-0.1695458526611328,0.16120206069946288,0.4869366135292827,-1.6654024669032008,1.5172106238314051,-5.390005650618749,-0.10587727936591101,-0.180078415555302,0.16269263141989976,0.4992281989523439,-7.6859171640067,12.317906477615034
1687876790.060,-0.2901699629543203,-0.34902994428558,1.788987237408052,-1.9155994948753514,0.37057984567871977,1.1733759398831378,1.3629882491112448,-0.29016550854681994,-0.3489851812808391,1.7890085076265627,-1.915501018272049,0.37050105924735666,1.173181647430978,1.3630664014644907,0.49602814865112305,-19.991681915283202,8.28080638885498,-23.72610378265381,0.4754024505615234,-0.1702133560180664,0.16287081909179688,0.48459726578537743,-1.6681680832264654,1.5166160654841039,-5.392757025905302,-0.10657360650837223,-0.1802646220333134,0.16276544870315407,0.4949552755790162,-7.677142168336209,12.328866140888893
1687876790.193,-0.2901699629543203,-0.34903006416788307,1.788987177412359,-1.9155994948753514,0.37057984567871977,1.1733760596563576,1.3629882491112448,-0.29016550854681994,-0.3489851812808391,1.7890085076265627,-1.915501018272049,0.37050105924735666,1.173181647430978,1.3630664014644907,0.4798971519470215,-19.998403163909913,8.281686763763428,-23.77100290298462,0.4736417007446289,-0.17188211441040038,0.16120206069946288,0.488282429978073,-1.667209631131786,1.51739766567112,-5.3959835880416644,-0.10647811026575572,-0.1798383635882043,0.162563536938344,0.5000814289401355,-7.704280216510379,12.325429955011588
1687876790.262,-0.2901700828366232,-0.349030004281273,1.788987177412359,-1.9155994948753514,0.3705797498601438,1.1733760596563576,1.3629881891155518,-0.29016550854681994,-0.3489851812808391,1.7890085076265627,-1.915501018272049,0.37050105924735666,1.173181647430978,1.3630664014644907,0.4919953994750977,-19.98899341583252,8.286088638305664,-23.75515615463257,0.4815650749206543,-0.16987960433959962,0.16120206069946288,0.48664109636616293,-1.6706253612379243,1.5171153280691894,-5.393450327191041,-0.10577348596673042,-0.1800299917480052,0.16195112618019228,0.498850311298105,-7.677324241687163,12.33212050070813
1687876790.362,-0.2901700229500133,-0.34903006416788307,1.788987237408052,-1.9155994948753514,0.37057984567871977,1.1733760596563576,1.3629882491112448,-0.29016550854681994,-0.3489851812808391,1.7890085076265627,-1.915501018272049,0.37050105924735666,1.173181647430978,1.3630664014644907,0.4825856513977051,-20.001091663360597,8.282567138671874,-23.785969276428222,0.47804357528686525,-0.16720959091186524,0.16287081909179688,0.4848399136097762,-1.6690843600494585,1.518171356074774,-5.394965845045633,-0.10529228247331804,-0.1796375047692786,0.16247011699374117,0.4957358874353228,-7.671739571782164,12.337320275957872
1687876790.461,-0.2901700229500133,-0.34903006416788307,1.788987237408052,-1.9155994948753514,0.3705797498601438,1.1733759398831378,1.3629882491112448,-0.29016550854681994,-0.3489851812808391,1.7890085076265627,-1.915501018272049,0.37050105924735666,1.173181647430978,1.3630664014644907,0.48661840057373046,-20.002435913085936,8.28080638885498,-23.778045902252195,0.4683594512939453,-0.16787709426879882,0.16220331573486327,0.48495887050088016,-1.6671092963619962,1.5164734503364126,-5.3903797263020365,-0.1052291100971996,-0.18024264428278072,0.16256957645491937,0.4962053593900054,-7.672421625003689,12.325337246651145
1687876790.561,-0.2901700229500133,-0.34903006416788307,1.788987237408052,-1.9155994948753514,0.37057984567871977,1.1733759398831378,1.3629882491112448,-0.29016550854681994,-0.3489851812808391,1.7890085076265627,-1.915501018272049,0.37050105924735666,1.173181647430978,1.3630664014644907,0.48527415084838865,-20.01050141143799,8.275524139404297,-23.792131900787354,0.4754024505615234,-0.16987960433959962,0.16287081909179688,0.48539013529112085,-1.6736112297032326,1.5182535676020306,-5.389803948521641,-0.1060990067697106,-0.18044242589283016,0.1621453436605957,0.49519127888041686,-7.655310006196425,12.335873243925162
1687876790.660,-0.2901699629543203,-0.349030004281273,1.788987177412359,-1.9155994948753514,0.37057984567871977,1.1733759398831378,1.3629882491112448,-0.29016550854681994,-0.3489851812808391,1.7890085076265627,-1.915501018272049,0.37050105924735666,1.173181647430978,1.3630664014644907,0.4906511497497559,-19.999747413635255,8.282567138671874,-23.758677654266357,0.47188095092773436,-0.16987960433959962,0.16287081909179688,0.48404306400574637,-1.665280158787579,1.5154749300725108,-5.383482640356929,-0.10673833473898352,-0.18105450048204694,0.16207742383675194,0.49375526037935846,-7.661439511903545,12.312345578935068
1687876790.760,-0.2901700229500133,-0.34903006416788307,1.788987237408052,-1.9155994948753514,0.37057984567871977,1.1733759398831378,1.3629882491112448,-0.29016550854681994,-0.3489851812808391,1.7890085076265627,-1.915501018272049,0.37050105924735666,1.173181647430978,1.3630664014644907,0.4812414016723633,-19.999747413635255,8.27728488922119,-23.75427577972412,0.4736417007446289,-0.1705471076965332,0.16287081909179688,0.48502906582573463,-1.668394348061852,1.517603287407838,-5.386010586972703,-0.10686240413939643,-0.18109689512186183,0.16192987765283962,0.49658662925612096,-7.657225413310892,12.32283747221318
1687876790.860,-0.2901700229500133,-0.34902994428558,1.788987237408052,-1.9155994948753514,0.37057984567871977,1.1733759398831378,1.3629882491112448,-0.29016550854681994,-0.3489851812808391,1.7890085076265627,-1.915501018272049,0.37050105924735666,1.173181647430978,1.3630664014644907,0.48527415084838865,-19.993026165008544,8.281686763763428,-23.73226640701294,0.47804357528686525,-0.1712146110534668,0.16120206069946288,0.488195414392519,-1.6668137680277413,1.516721893284268,-5.384931721270137,-0.10681127252189736,-0.1811685007079105,0.16227701318039017,0.4994884060923818,-7.67717592764459,12.3091310991878
