Edkamb/ConfLiftingaaS/DTProject/experiments/second_experiment/joint_position_data.csv
timestamp,actual_q_0,actual_q_1,actual_q_2,actual_q_3,actual_q_4,actual_q_5,actual_q_6,target_q_0,target_q_1,target_q_2,target_q_3,target_q_4,target_q_5,target_q_6,measured_tq_0,measured_tq_1,measured_tq_2,measured_tq_3,measured_tq_4,measured_tq_5,measured_tq_6,external_tq_0,external_tq_1,external_tq_2,external_tq_3,external_tq_4,external_tq_5,external_tq_6,force_X,force_Y,force_Z
1688472807.413,-0.11423471042497198,0.5927502500161543,-0.06838953740659565,-1.2600009134794348,0.03977516301143348,1.290141778494731,-0.18193000156093403,-0.11423143302388598,0.5927034816281026,-0.06830049321706973,-1.2599849345538,0.03968552342464985,1.2901949782029103,-0.1819052308664421,1.0673342819213867,59.37282186889649,1.5468187141418457,-26.842630958557127,0.6127409362792968,-0.24096871185302735,0.2035885238647461,1.0622560695375083,10.53818393799796,0.41075962448024395,-6.250421289035078,0.01262123216291506,-0.2525498995688734,0.2051834996829982,-1.441721987122533,1.7814709492629568,17.303503493507016
1688472807.546,-0.11423471042497198,0.5927502500161543,-0.06838947741090261,-1.2600009134794348,0.03977516301143348,1.290141778494731,-0.18193000156093403,-0.11423143302388598,0.5927034816281026,-0.06830049321706973,-1.2599849345538,0.03968552342464985,1.2901949782029103,-0.1819052308664421,1.0579245338439942,59.38088736724853,1.5424168395996094,-26.87520483016968,0.6145016860961914,-0.23863245010375977,0.20559103393554687,1.0647429485546882,10.54055739790061,0.4119335633520478,-6.254333524694932,0.01335773111615008,-0.25216715858937,0.20519826803729158,-1.430684026292428,1.7873901657994984,17.310901882617642
1688472807.616,-0.11423459054266896,0.5927502500161543,-0.06838947741090261,-1.2600009134794348,0.03977525900454234,1.290141778494731,-0.18193000156093403,-0.11423143302388598,0.5927034816281026,-0.06830049321706973,-1.2599849345538,0.03968552342464985,1.2901949782029103,-0.1819052308664421,1.0565802841186522,59.37685461807251,1.5362542152404786,-26.873444080352783,0.6118605613708497,-0.23829869842529297,0.20525728225708006,1.0662733233740596,10.535641942571205,0.41215552688482004,-6.253014635756931,0.0134289356033328,-0.25230158684965753,0.2057794078995216,-1.4237556980811432,1.7919014848847585,17.305684404338308
1688472807.718,-0.11423459054266896,0.5927502500161543,-0.06838953740659565,-1.2600008535928247,0.03977516301143348,1.2901415987258182,-0.18193000156093403,-0.11423143302388598,0.5927034816281026,-0.06830049321706973,-1.2599849345538,0.03968552342464985,1.2901949782029103,-0.1819052308664421,1.0646457824707032,59.37685461807251,1.5476990890502929,-26.832946834564208,0.6189035606384278,-0.24130246353149415,0.20458977890014649,1.060232510050262,10.541058978229554,0.40871226966401797,-6.25295512727946,0.012437102123254822,-0.25235534140422683,0.20537136693668057,-1.440188732674222,1.7789381927086683,17.308125619886273
1688472807.819,-0.11423471042497198,0.5927502500161543,-0.06838959729320561,-1.2600009134794348,0.03977525900454234,1.2901415987258182,-0.18193000156093403,-0.11423143302388598,0.5927034816281026,-0.06830049321706973,-1.2599849345538,0.03968552342464985,1.2901949782029103,-0.1819052308664421,1.0633015327453614,59.37416611862183,1.5406560897827148,-26.841750583648682,0.606578311920166,-0.24030120849609374,0.2049235305786133,1.066182191986602,10.536889073598584,0.41116754155073443,-6.248900443859644,0.012718802225185007,-0.2523588955320538,0.2048980979694976,-1.4456071610889751,1.7867583349563345,17.299816529886318
1688472807.917,-0.11423459054266896,0.5927502500161543,-0.06838959729320561,-1.2600009134794348,0.03977516301143348,1.2901415987258182,-0.18193006155662708,-0.11423143302388598,0.5927034816281026,-0.06830049321706973,-1.2599849345538,0.03968552342464985,1.2901949782029103,-0.1819052308664421,1.0579245338439942,59.36206787109375,1.541536464691162,-26.8681618309021,0.6136213111877441,-0.23763119506835936,0.2029210205078125,1.0606317864209198,10.53420396882645,0.408624827179383,-6.253551902844352,0.012162720709702288,-0.25194375421163295,0.2051911230751867,-1.415906347911705,1.7800049289522184,17.30292899718654
1688472808.017,-0.11423459054266896,0.5927502500161543,-0.06838947741090261,-1.2600009134794348,0.03977506719285755,1.290141778494731,-0.18193000156093403,-0.11423143302388598,0.5927034816281026,-0.06830049321706973,-1.2599849345538,0.03968552342464985,1.2901949782029103,-0.1819052308664421,1.0606130332946777,59.36072362136841,1.5432972145080566,-26.871683330535888,0.6136213111877441,-0.23863245010375977,0.20792729568481444,1.0575091564119656,10.531086448968274,0.4085433401253883,-6.255965375818585,0.013591470927600949,-0.2524840065672862,0.20523376745429975,-1.398351345176773,1.7841530914121546,17.308466110027464
1688472808.122,-0.11423459054266896,0.5927502500161543,-0.06838959729320561,-1.2600009134794348,0.03977516301143348,1.290141778494731,-0.18193006155662708,-0.11423143302388598,0.5927034816281026,-0.06830049321706973,-1.2599849345538,0.03968552342464985,1.2901949782029103,-0.1819052308664421,1.052547534942627,59.387608615875244,1.5362542152404786,-26.85495620727539,0.603056812286377,-0.24030120849609374,0.20559103393554687,1.064952039384928,10.53472526202459,0.4116912145375139,-6.253275527402872,0.012202563705132395,-0.2522165123057273,0.20492425013236545,-1.4199028503048388,1.7882624043502817,17.302724017039026
1688472808.224,-0.11423459054266896,0.5927502500161543,-0.06838959729320561,-1.2600009134794348,0.03977525900454234,1.290141778494731,-0.18193000156093403,-0.11423143302388598,0.5927034816281026,-0.06830049321706973,-1.2599849345538,0.03968552342464985,1.2901949782029103,-0.1819052308664421,1.0606130332946777,59.37282186889649,1.5397757148742675,-26.879606704711914,0.6092194366455078,-0.23896620178222655,0.20559103393554687,1.0635740867055108,10.536767192945923,0.4108714542233133,-6.2543454766802045,0.01213261744535421,-0.25259184547570435,0.2051456267926125,-1.4187695930865325,1.7825545493081565,17.30795496924395
1688472808.324,-0.11423459054266896,0.5927502500161543,-0.06838959729320561,-1.2600009134794348,0.03977525900454234,1.2901416586124281,-0.18193000156093403,-0.11423143302388598,0.5927034816281026,-0.06830049321706973,-1.2599849345538,0.03968552342464985,1.2901949782029103,-0.1819052308664421,1.0633015327453614,59.364756370544434,1.5424168395996094,-26.8514347076416,0.6083390617370605,-0.23996745681762696,0.20392227554321288,1.0637272567819933,10.541015194853394,0.4118210946788871,-6.2566522437616765,0.011501073103441953,-0.2520996368993604,0.2049974385675633,-1.4222766205649626,1.7851896207909295,17.314628556601185
1688472808.423,-0.11423459054266896,0.5927502500161543,-0.06838947741090261,-1.2600009134794348,0.03977516301143348,1.290141778494731,-0.18193006155662708,-0.11423143302388598,0.5927034816281026,-0.06830049321706973,-1.2599849345538,0.03968552342464985,1.2901949782029103,-0.1819052308664421,1.059268783569336,59.35131387329101,1.5468187141418457,-26.837348709106443,0.6118605613708497,-0.23929995346069335,0.20592478561401367,1.0616482006345738,10.535170658435938,0.4101120832883772,-6.253221386929761,0.009991295731442577,-0.25217538972336967,0.20494802905586015,-1.422677982318733,1.7851656350860823,17.304436555502175
1688472808.524,-0.11423459054266896,0.5927502500161543,-0.06838959729320561,-1.2600009134794348,0.03977525900454234,1.2901416586124281,-0.18193000156093403,-0.11423143302388598,0.5927034816281026,-0.06830049321706973,-1.2599849345538,0.03968552342464985,1.2901949782029103,-0.1819052308664421,1.0807767791748046,59.366100620269776,1.5494598388671874,-26.867281455993652,0.6127409362792968,-0.23629618835449218,0.20458977890014649,1.0677797408765815,10.527816398757722,0.41052629759056714,-6.247902917807181,0.010681883339023408,-0.25234734892537697,0.20490734589552034,-1.4236046237982833,1.790516937126573,17.291397718920933
1688472808.623,-0.11423459054266896,0.5927502500161543,-0.06838947741090261,-1.2600009134794348,0.03977525900454234,1.2901415987258182,-0.18193006155662708,-0.11423143302388598,0.5927034816281026,-0.06830049321706973,-1.2599849345538,0.03968552342464985,1.2901949782029103,-0.1819052308664421,1.0579245338439942,59.3956741142273,1.5388953399658203,-26.90601795196533,0.6083390617370605,-0.23863245010375977,0.2049235305786133,1.0641129006220027,10.536409243164744,0.4098914242708091,-6.256312879797138,0.009985639469471282,-0.2523658737321464,0.20521281283777199,-1.409525696415402,1.7891301061011367,17.311913879482766
1688472808.723,-0.11423459054266896,0.5927502500161543,-0.06838947741090261,-1.2600009134794348,0.03977516301143348,1.290141778494731,-0.18193006155662708,-0.11423143302388598,0.5927034816281026,-0.06830049321706973,-1.2599849345538,0.03968552342464985,1.2901949782029103,-0.1819052308664421,1.0700227813720704,59.37819886779785,1.5450579643249511,-26.881367454528807,0.6074586868286133,-0.23929995346069335,0.20458977890014649,1.0617842264838864,10.544760737112776,0.4085688165880994,-6.259051231208142,0.009549583957535742,-0.25238768899565134,0.20496289292132802,-1.4207340177815198,1.7888672116228186,17.32126487906989
1688472808.822,-0.11423471042497198,0.5927502500161543,-0.06838959729320561,-1.2600008535928247,0.03977525900454234,1.290141778494731,-0.18193000156093403,-0.11423143302388598,0.5927034816281026,-0.06830049321706973,-1.2599849345538,0.03968552342464985,1.2901949782029103,-0.1819052308664421,1.0740555305480957,59.359379371643065,1.5494598388671874,-26.834707584381103,0.6127409362792968,-0.24030120849609374,0.20592478561401367,1.0666835454604306,10.535434881806715,0.40971238842958824,-6.254429219336453,0.01079751241902099,-0.25232928267109034,0.20524431409605914,-1.417346018673327,1.793482900899388,17.30324881594509
1688472808.922,-0.11423459054266896,0.5927502500161543,-0.06838947741090261,-1.2600009134794348,0.03977516301143348,1.2901415987258182,-0.18193000156093403,-0.11423143302388598,0.5927034816281026,-0.06830049321706973,-1.2599849345538,0.03968552342464985,1.2901949782029103,-0.1819052308664421,1.0552360343933105,59.38492011642456,1.5476990890502929,-26.87696557998657,0.6136213111877441,-0.23829869842529297,0.20525728225708006,1.0630552746770932,10.534264407573072,0.41081301737483555,-6.250647556483992,0.010251097886542316,-0.25282958211899526,0.2049474594511441,-1.4272587922866125,1.7818933666934835,17.302680336752136
1688472809.022,-0.11423459054266896,0.5927502500161543,-0.06838947741090261,-1.2600009734751274,0.03977516301143348,1.2901416586124281,-0.18193000156093403,-0.11423143302388598,0.5927034816281026,-0.06830049321706973,-1.2599849345538,0.03968552342464985,1.2901949782029103,-0.1819052308664421,1.0646457824707032,59.35534662246704,1.541536464691162,-26.878726329803467,0.6109801864624024,-0.23629618835449218,0.20559103393554687,1.061597528155914,10.535303464585139,0.4093844061039795,-6.251846080458716,0.010548709843086864,-0.2529122405250782,0.20534864952554663,-1.423304923048135,1.7832101777003047,17.304737624986934
1688472809.156,-0.11423459054266896,0.5927502500161543,-0.06838947741090261,-1.2600009134794348,0.03977525900454234,1.290141778494731,-0.18193000156093403,-0.11423143302388598,0.5927034816281026,-0.06830049321706973,-1.2599849345538,0.03968552342464985,1.2901949782029103,-0.1819052308664421,1.0794325294494629,59.366100620269776,1.5371345901489257,-26.87784595489502,0.6056979370117187,-0.23696369171142578,0.20425602722167968,1.0657542805028757,10.523004512947548,0.4103603130145222,-6.252037457122276,0.010630729943342382,-0.25233628747994075,0.2051102928390625,-1.4305246739669697,1.7844544942691811,17.313046748924403
1688472809.224,-0.11423459054266896,0.5927502500161543,-0.06838959729320561,-1.2600009134794348,0.03977525900454234,1.2901415987258182,-0.18193000156093403,-0.11423143302388598,0.5927034816281026,-0.06830049321706973,-1.2599849345538,0.03968552342464985,1.2901949782029103,-0.1819052308664421,1.0498590354919433,59.40777236175537,1.5380149650573731,-26.863759956359864,0.6109801864624024,-0.23996745681762696,0.20425602722167968,1.0635323327380801,10.540436602838032,0.4104764159845292,-6.252531975289109,0.0102430107179837,-0.2530359603583995,0.2048440550154953,-1.4382271151069184,1.7814032575426912,17.310732481765527
1688472809.324,-0.11423459054266896,0.5927502500161543,-0.06838959729320561,-1.2600008535928247,0.03977525900454234,1.2901415987258182,-0.18193000156093403,-0.11423143302388598,0.5927034816281026,-0.06830049321706973,-1.2599849345538,0.03968552342464985,1.2901949782029103,-0.1819052308664421,1.065990032196045,59.35669087219238,1.5397757148742675,-26.855836582183837,0.6127409362792968,-0.23896620178222655,0.20592478561401367,1.0627666582561917,10.548669258056748,0.4099125385749779,-6.256303529559789,0.010888288201120568,-0.2526334113083432,0.20511874702674177,-1.441516447085998,1.7790001225275653,17.319020640856493
1688472809.424,-0.11423471042497198,0.5927502500161543,-0.06838959729320561,-1.2600009134794348,0.03977525900454234,1.2901415987258182,-0.18193006155662708,-0.11423143302388598,0.5927034816281026,-0.06830049321706973,-1.2599849345538,0.03968552342464985,1.2901949782029103,-0.1819052308664421,1.0753997802734374,59.33518287658691,1.551220588684082,-26.86464033126831,0.606578311920166,-0.23829869842529297,0.20425602722167968,1.0680354183509129,10.522905563643699,0.41139511056201794,-6.250544209811452,0.01110051259622436,-0.2523643020633305,0.2050990460818022,-1.4019267721982114,1.801844126471832,17.29476398988663
1688472809.524,-0.11423459054266896,0.5927502500161543,-0.06838959729320561,-1.2600009734751274,0.03977525900454234,1.290141778494731,-0.18193000156093403,-0.11423143302388598,0.5927034816281026,-0.06830049321706973,-1.2599849345538,0.03968552342464985,1.2901949782029103,-0.1819052308664421,1.0552360343933105,59.39701836395264,1.5424168395996094,-26.85495620727539,0.6100998115539551,-0.23863245010375977,0.20525728225708006,1.0644123970453763,10.524464985300417,0.4109075654821214,-6.25271587894048,0.010715438750285067,-0.25250150809619587,0.20483439853309537,-1.3992092133888037,1.7889000913430266,17.29923914764652
1688472809.623,-0.11423459054266896,0.5927502500161543,-0.06838959729320561,-1.2600009134794348,0.03977516301143348,1.2901415987258182,-0.18193000156093403,-0.11423143302388598,0.5927034816281026,-0.06830049321706973,-1.2599849345538,0.03968552342464985,1.2901949782029103,-0.1819052308664421,1.0740555305480957,59.3956741142273,1.5450579643249511,-26.85231508255005,0.6092194366455078,-0.24063496017456054,0.20425602722167968,1.0610590875443067,10.54616161989404,0.40948141912959934,-6.260121483134726,0.010221272989523465,-0.25241946974265816,0.20474490802971856,-1.4235121996130071,1.7825610144330617,17.32447996277551
1688472809.725,-0.11423459054266896,0.5927502500161543,-0.06838959729320561,-1.2600009134794348,0.03977525900454234,1.290141778494731,-0.18193006155662708,-0.11423143302388598,0.5927034816281026,-0.06830049321706973,-1.2599849345538,0.03968552342464985,1.2901949782029103,-0.1819052308664421,1.08480952835083,59.35534662246704,1.554742088317871,-26.87784595489502,0.6092194366455078,-0.2372974433898926,0.2049235305786133,1.0719881707964736,10.537421760187778,0.41481413658104005,-6.252986382447939,0.011725304508483254,-0.25214388884269445,0.2053868489732802,-1.4259383743440543,1.79643288517142,17.306123842739268
1688472809.824,-0.11423471042497198,0.5927502500161543,-0.06838947741090261,-1.2600009134794348,0.03977516301143348,1.290141778494731,-0.18193000156093403,-0.11423143302388598,0.5927034816281026,-0.06830049321706973,-1.2599849345538,0.03968552342464985,1.2901949782029103,-0.1819052308664421,1.0498590354919433,59.36744486999512,1.5388953399658203,-26.888410453796386,0.606578311920166,-0.23796494674682617,0.20392227554321288,1.068343282912931,10.533227567609787,0.4132020041518071,-6.258680363418821,0.0123002380054377,-0.25210586132310486,0.20458276743665782,-1.392552314760244,1.7978927089543941,17.31362376316549
1688472809.924,-0.11423459054266896,0.5927502500161543,-0.06838959729320561,-1.2600009134794348,0.03977525900454234,1.290141778494731,-0.18193000156093403,-0.11423143302388598,0.5927034816281026,-0.06830049321706973,-1.2599849345538,0.03968552342464985,1.2901949782029103,-0.1819052308664421,1.072711280822754,59.366100620269776,1.541536464691162,-26.86464033126831,0.6074586868286133,-0.23863245010375977,0.2049235305786133,1.061239004991445,10.536893295094657,0.4097794448565899,-6.259925961706438,0.01101886916876452,-0.2520475721207075,0.20497525538020023,-1.399120706004725,1.784519821342963,17.31436529293795
1688472810.026,-0.11423459054266896,0.5927502500161543,-0.06838947741090261,-1.2600009134794348,0.03977516301143348,1.2901415987258182,-0.18193000156093403,-0.11423143302388598,0.5927034816281026,-0.06830049321706973,-1.2599849345538,0.03968552342464985,1.2901949782029103,-0.1819052308664421,1.0753997802734374,59.37819886779785,1.5503402137756348,-26.857597332000733,0.6109801864624024,-0.23963370513916016,0.20559103393554687,1.063866649401651,10.532271073128232,0.41077046466559197,-6.253334905706979,0.011956313303960929,-0.25262577379773166,0.20511256735560088,-1.4156174099136722,1.7941460398159301,17.304038777062736
1688472810.125,-0.11423459054266896,0.5927502500161543,-0.06838947741090261,-1.2600008535928247,0.03977525900454234,1.290141778494731,-0.18193000156093403,-0.11423143302388598,0.5927034816281026,-0.06830049321706973,-1.2599849345538,0.03968552342464985,1.2901949782029103,-0.1819052308664421,1.0552360343933105,59.38357586669922,1.5388953399658203,-26.89105157852173,0.6118605613708497,-0.2372974433898926,0.2029210205078125,1.0627051920579287,10.533703041742285,0.4109159671312371,-6.253885251191072,0.012626895220959704,-0.2523527195449866,0.20511503655889948,-1.413684310591706,1.7935065867218989,17.308563918637034
1688472810.225,-0.11423459054266896,0.5927502500161543,-0.06838959729320561,-1.2600008535928247,0.03977525900454234,1.290141778494731,-0.18193006155662708,-0.11423143302388598,0.5927034816281026,-0.06830049321706973,-1.2599849345538,0.03968552342464985,1.2901949782029103,-0.1819052308664421,1.0646457824707032,59.37685461807251,1.5371345901489257,-26.896333827972413,0.6056979370117187,-0.23696369171142578,0.20525728225708006,1.06220560374223,10.543191074373526,0.4095027462843469,-6.258013999765265,0.012290364811386054,-0.25198073863795034,0.20528599141582782,-1.4204936269197983,1.7931110482118298,17.320323867007854
1688472810.325,-0.11423459054266896,0.5927502500161543,-0.06838947741090261,-1.2600009734751274,0.03977516301143348,1.2901415987258182,-0.18193006155662708,-0.11423143302388598,0.5927034816281026,-0.06830049321706973,-1.2599849345538,0.03968552342464985,1.2901949782029103,-0.1819052308664421,1.0646457824707032,59.34728112411499,1.5459383392333985,-26.850554332733154,0.6136213111877441,-0.24063496017456054,0.20458977890014649,1.0641712909206396,10.533355741819506,0.4099648401863394,-6.254780557554987,0.012756002672851199,-0.25224011935335794,0.20501746162576212,-1.4106975850304675,1.79128735182001,17.306435370827746
1688472810.425,-0.11423459054266896,0.5927502500161543,-0.06838959729320561,-1.2600009734751274,0.03977525900454234,1.290141778494731,-0.18193000156093403,-0.11423143302388598,0.5927034816281026,-0.06830049321706973,-1.2599849345538,0.03968552342464985,1.2901949782029103,-0.1819052308664421,1.065990032196045,59.371477619171145,1.5388953399658203,-26.86199920654297,0.6127409362792968,-0.23929995346069335,0.20525728225708006,1.062720835262785,10.525036914436356,0.411538317570869,-6.251306571510657,0.012309544874654943,-0.2518327287696887,0.20525117616950148,-1.404205913512439,1.7944920879172925,17.290436846855094
1688472810.524,-0.11423459054266896,0.5927502500161543,-0.06838947741090261,-1.2600009734751274,0.03977525900454234,1.290141778494731,-0.18193000156093403,-0.11423143302388598,0.5927034816281026,-0.06830049321706973,-1.2599849345538,0.03968552342464985,1.2901949782029103,-0.1819052308664421,1.0579245338439942,59.40105111312866,1.5388953399658203,-26.89281232833862,0.6074586868286133,-0.23763119506835936,0.2049235305786133,1.062983399866119,10.538229869499645,0.4106101118210299,-6.2554672556513,0.01349787361205922,-0.2523858280913334,0.20493593300442045,-1.4213849945586265,1.785328793014061,17.31507829724347
1688472810.624,-0.11423459054266896,0.5927502500161543,-0.06838947741090261,-1.2600008535928247,0.03977516301143348,1.2901416586124281,-0.18193006155662708,-0.11423143302388598,0.5927034816281026,-0.06830049321706973,-1.2599849345538,0.03968552342464985,1.2901949782029103,-0.1819052308664421,1.0619572830200195,59.34728112411499,1.5362542152404786,-26.87080295562744,0.6092194366455078,-0.23829869842529297,0.20425602722167968,1.0642233881680367,10.543675312843675,0.4110829695529474,-6.260565460147095,0.013465318647381756,-0.2518827755541277,0.20467425907756612,-1.4122147653543433,1.7896562938596559,17.32120102298548
1688472810.724,-0.11423471042497198,0.5927501901295443,-0.06838953740659565,-1.2600009134794348,0.03977525900454234,1.290141778494731,-0.18193006155662708,-0.11423143302388598,0.5927034816281026,-0.06830049321706973,-1.2599849345538,0.03968552342464985,1.2901949782029103,-0.1819052308664421,1.0606130332946777,59.34728112411499,1.5336130905151366,-26.842630958557127,0.6136213111877441,-0.23896620178222655,0.20425602722167968,1.0685828791032588,10.526002918998989,0.4122380591329393,-6.252545810012871,0.013023086938944932,-0.25217959284701236,0.20463865261729747,-1.4008674211784202,1.7890900249466926,17.297512181802652
1688472810.858,-0.11423459054266896,0.5927503099027643,-0.06838959729320561,-1.2600009134794348,0.03977525900454234,1.2901416586124281,-0.18193000156093403,-0.11423143302388598,0.5927034816281026,-0.06830049321706973,-1.2599849345538,0.03968552342464985,1.2901949782029103,-0.1819052308664421,1.0538917846679687,59.39701836395264,1.5432972145080566,-26.847913208007814,0.6092194366455078,-0.24096871185302735,0.20792729568481444,1.0588377585162616,10.529831310598311,0.40830478406731735,-6.253308176488572,0.011985229667123893,-0.25246379505412675,0.20493248516427942,-1.419377008240073,1.7859840396155264,17.302023868507934
1688472810.925,-0.11423459054266896,0.5927502500161543,-0.06838947741090261,-1.2600009134794348,0.03977516301143348,1.290141778494731,-0.18193006155662708,-0.11423143302388598,0.5927034816281026,-0.06830049321706973,-1.2599849345538,0.03968552342464985,1.2901949782029103,-0.1819052308664421,1.0673342819213867,59.36341212081909,1.5485794639587402,-26.87696557998657,0.6100998115539551,-0.2359624366760254,0.20425602722167968,1.06292442120752,10.545618730454324,0.4099136939033523,-6.259844403147564,0.012516384131824584,-0.2527459944085283,0.20482337669694894,-1.4181021532487201,1.7826899977285589,17.32189328661203
1688472811.025,-0.11423471042497198,0.5927502500161543,-0.06838959729320561,-1.2600009734751274,0.03977525900454234,1.2901415987258182,-0.18193006155662708,-0.11423143302388598,0.5927034816281026,-0.06830049321706973,-1.2599849345538,0.03968552342464985,1.2901949782029103,-0.1819052308664421,1.0901865272521973,59.35534662246704,1.5556224632263183,-26.869042205810548,0.6136213111877441,-0.23929995346069335,0.20458977890014649,1.0632824176007178,10.530434162136249,0.4116889396722506,-6.2553785958714,0.01199621271775864,-0.25290055869253747,0.20474185651868426,-1.3994445324117815,1.7961057974608459,17.306012700126747
1688472811.126,-0.11423471042497198,0.5927502500161543,-0.06838947741090261,-1.2600008535928247,0.03977516301143348,1.2901416586124281,-0.18193000156093403,-0.11423143302388598,0.5927034816281026,-0.06830049321706973,-1.2599849345538,0.03968552342464985,1.2901949782029103,-0.1819052308664421,1.0633015327453614,59.3862643661499,1.5459383392333985,-26.863759956359864,0.6118605613708497,-0.23896620178222655,0.20425602722167968,1.0671009075012825,10.532132405689381,0.41193840232711854,-6.258144970437698,0.011771506166097605,-0.2528878473856664,0.2049169729250661,-1.3964253885714821,1.7982633836609205,17.312455526621612
1688472811.226,-0.11423459054266896,0.5927502500161543,-0.06838947741090261,-1.2600009734751274,0.03977525900454234,1.290141778494731,-0.18193000156093403,-0.11423143302388598,0.5927034816281026,-0.06830049321706973,-1.2599849345538,0.03968552342464985,1.2901949782029103,-0.1819052308664421,1.065990032196045,59.364756370544434,1.544177589416504,-26.871683330535888,0.6145016860961914,-0.23996745681762696,0.2049235305786133,1.0588947669412532,10.544756231913105,0.40864447112198743,-6.258389202565849,0.011844642014506957,-0.252854375742134,0.2052112538356219,-1.4232430402008485,1.7793514960671843,17.320815588213403
1688472811.325,-0.11423459054266896,0.5927502500161543,-0.06838941752429264,-1.2600009134794348,0.03977525900454234,1.290141778494731,-0.18193000156093403,-0.11423143302388598,0.5927034816281026,-0.06830049321706973,-1.2599849345538,0.03968552342464985,1.2901949782029103,-0.1819052308664421,1.0673342819213867,59.348625373840335,1.5556224632263183,-26.87432445526123,0.6127409362792968,-0.24030120849609374,0.20392227554321288,1.0675890832562398,10.530909905633086,0.4118528040370942,-6.249679016816941,0.011877370518864375,-0.25258178428537525,0.20543868732334902,-1.422228765859283,1.7960370656217317,17.29817352905222
1688472811.425,-0.11423459054266896,0.5927502500161543,-0.06838959729320561,-1.2600008535928247,0.03977516301143348,1.290141778494731,-0.18193006155662708,-0.11423143302388598,0.5927034816281026,-0.06830049321706973,-1.2599849345538,0.03968552342464985,1.2901949782029103,-0.1819052308664421,1.052547534942627,59.37685461807251,1.5397757148742675,-26.89105157852173,0.6083390617370605,-0.23696369171142578,0.20759354400634766,1.0691279010790453,10.527584112884455,0.4130836166403721,-6.2544939516348546,0.011019988478031293,-0.25296151939158606,0.20564929951764604,-1.3940588993432796,1.7949815445026283,17.30458769714995
1688472811.496,-0.11423459054266896,0.5927502500161543,-0.06838959729320561,-1.2600009134794348,0.03977525900454234,1.290141778494731,-0.18193012144323706,-0.11423143302388598,0.5927034816281026,-0.06830049321706973,-1.2599849345538,0.03968552342464985,1.2901949782029103,-0.1819052308664421,1.052547534942627,59.36744486999512,1.544177589416504,-26.878726329803467,0.6092194366455078,-0.2372974433898926,0.20559103393554687,1.0679288536582638,10.526595727990008,0.41216348368581524,-6.2531438780080615,0.011142616091438953,-0.2528378600490474,0.20542076866207257,-1.398583698897939,1.7957965329331147,17.299046404403473
1688472811.596,-0.11423459054266896,0.5927502500161543,-0.06838959729320561,-1.2600009134794348,0.03977525900454234,1.290141778494731,-0.18193000156093403,-0.11423143302388598,0.5927034816281026,-0.06830049321706973,-1.2599849345538,0.03968552342464985,1.2901949782029103,-0.1819052308664421,1.0700227813720704,59.39970686340332,1.5468187141418457,-26.859358081817625,0.6109801864624024,-0.23996745681762696,0.20425602722167968,1.0636479684870535,10.538613988133298,0.4093455868605242,-6.256494265672616,0.0109700703677172,-0.25235774793598686,0.20535341985284233,-1.4180566358608113,1.7802155544385356,17.312899047985724
1688472811.730,-0.11423459054266896,0.5927502500161543,-0.06838947741090261,-1.2600009734751274,0.03977525900454234,1.2901415987258182,-0.18193006155662708,-0.11423143302388598,0.5927034816281026,-0.06830049321706973,-1.2599849345538,0.03968552342464985,1.2901949782029103,-0.1819052308664421,1.065990032196045,59.36341212081909,1.5371345901489257,-26.88400857925415,0.6100998115539551,-0.2356286849975586,0.20559103393554687,1.0680335928457207,10.528214525243861,0.41145009324919374,-6.252928965137512,0.012311826994093498,-0.25228550919950354,0.20503507250350933,-1.405406577508483,1.796207836001127,17.300064609112216
1688472811.798,-0.11423459054266896,0.5927502500161543,-0.06838959729320561,-1.2600009134794348,0.03977525900454234,1.290141778494731,-0.18193000156093403,-0.11423143302388598,0.5927034816281026,-0.06830049321706973,-1.2599849345538,0.03968552342464985,1.2901949782029103,-0.1819052308664421,1.0673342819213867,59.364756370544434,1.5459383392333985,-26.895453453063965,0.6136213111877441,-0.234961181640625,0.20659228897094725,1.0692115204103645,10.530720152667145,0.4112836162715152,-6.253360286570516,0.012088490686530128,-0.2522263497091962,0.20506177197438197,-1.4090313632187965,1.7941766643251484,17.304760734678514
1688472811.898,-0.11423459054266896,0.5927502500161543,-0.06838959729320561,-1.2600009134794348,0.03977516301143348,1.290141778494731,-0.18193006155662708,-0.11423143302388598,0.5927034816281026,-0.06830049321706973,-1.2599849345538,0.03968552342464985,1.2901949782029103,-0.1819052308664421,1.0633015327453614,59.37685461807251,1.5450579643249511,-26.876085205078123,0.6074586868286133,-0.24063496017456054,0.20458977890014649,1.0624376970708596,10.535385215845512,0.4104457299802373,-6.257556264166098,0.012590404120224646,-0.25266004526426766,0.2051426435408591,-1.4029580871496035,1.7873938790211488,17.313332561432418
1688472811.998,-0.11423459054266896,0.5927502500161543,-0.06838947741090261,-1.2600009134794348,0.03977525900454234,1.290141778494731,-0.18193000156093403,-0.11423143302388598,0.5927034816281026,-0.06830049321706973,-1.2599849345538,0.03968552342464985,1.2901949782029103,-0.1819052308664421,1.0633015327453614,59.37819886779785,1.5450579643249511,-26.849673957824706,0.6083390617370605,-0.24096871185302735,0.20592478561401367,1.0643200403896618,10.536474706505627,0.4112999174405551,-6.2556429019282955,0.012668617864670852,-0.2527112308785978,0.20520103869193423,-1.4195373103288789,1.7832790003307708,17.31134434963896
1688472812.102,-0.11423459054266896,0.5927502500161543,-0.06838959729320561,-1.2600009134794348,0.03977525900454234,1.290141778494731,-0.18193000156093403,-0.11423143302388598,0.5927034816281026,-0.06830049321706973,-1.2599849345538,0.03968552342464985,1.2901949782029103,-0.1819052308664421,1.0619572830200195,59.366100620269776,1.5468187141418457,-26.89017120361328,0.6118605613708497,-0.2359624366760254,0.20425602722167968,1.0700500831937894,10.53405949724626,0.4116029726744527,-6.252069784051775,0.01361975648752715,-0.25187338812062676,0.2051333371779886,-1.42110218701894,1.795552565448089,17.303107127865857
1688472812.202,-0.11423459054266896,0.5927502500161543,-0.06838959729320561,-1.2600009134794348,0.03977516301143348,1.290141778494731,-0.18193000156093403,-0.11423143302388598,0.5927034816281026,-0.06830049321706973,-1.2599849345538,0.03968552342464985,1.2901949782029103,-0.1819052308664421,1.065990032196045,59.37416611862183,1.5476990890502929,-26.878726329803467,0.6100998115539551,-0.23996745681762696,0.20525728225708006,1.0639598709684954,10.536670273778654,0.41033653635938194,-6.255934210985661,0.011660942070120583,-0.2524277651230047,0.2053187013369348,-1.4135976777703396,1.7941618439268907,17.31132046978977
1688472812.302,-0.11423459054266896,0.5927502500161543,-0.06838959729320561,-1.2600009134794348,0.03977516301143348,1.290141778494731,-0.18193006155662708,-0.11423143302388598,0.5927034816281026,-0.06830049321706973,-1.2599849345538,0.03968552342464985,1.2901949782029103,-0.1819052308664421,1.0633015327453614,59.3701333694458,1.5397757148742675,-26.847032833099366,0.6153820610046387,-0.23929995346069335,0.20559103393554687,1.0656253758881546,10.537639899518219,0.41178916294242396,-6.2561282675667895,0.011170400296940584,-0.25244439255978296,0.20534567404322762,-1.4170996313523876,1.7861844976187917,17.312396626882798
1688472812.402,-0.11423459054266896,0.5927502500161543,-0.06838959729320561,-1.2600009134794348,0.03977525900454234,1.290141778494731,-0.18193000156093403,-0.11423143302388598,0.5927034816281026,-0.06830049321706973,-1.2599849345538,0.03968552342464985,1.2901949782029103,-0.1819052308664421,1.0713670310974122,59.3701333694458,1.5380149650573731,-26.855836582183837,0.6162624359130859,-0.23863245010375977,0.20625853729248048,1.06658490464842,10.531502470723346,0.41228032629892586,-6.250184154937387,0.012023679948856865,-0.2524645936932362,0.20532160393690038,-1.4278281192321092,1.7901478194366314,17.301277399364004
1688472812.535,-0.11423459054266896,0.5927502500161543,-0.06838959729320561,-1.2600009734751274,0.03977525900454234,1.2901416586124281,-0.18193000156093403,-0.11423143302388598,0.5927034816281026,-0.06830049321706973,-1.2599849345538,0.03968552342464985,1.2901949782029103,-0.1819052308664421,1.0606130332946777,59.3701333694458,1.5397757148742675,-26.878726329803467,0.6153820610046387,-0.23696369171142578,0.20659228897094725,1.0643560770326845,10.536192410806786,0.41173888384801727,-6.254410692829712,0.012606019982551696,-0.2525792959811119,0.20534253403450453,-1.4172338349796174,1.787151606198663,17.307159811711095
1688472812.603,-0.11423459054266896,0.5927502500161543,-0.06838947741090261,-1.2600009134794348,0.03977525900454234,1.2901416586124281,-0.18193000156093403,-0.11423143302388598,0.5927034816281026,-0.06830049321706973,-1.2599849345538,0.03968552342464985,1.2901949782029103,-0.1819052308664421,1.0700227813720704,59.38357586669922,1.5388953399658203,-26.853195457458497,0.6127409362792968,-0.23996745681762696,0.20625853729248048,1.06231926292779,10.540532779530658,0.40839771657005397,-6.260174874541484,0.012095656296742287,-0.2519225289510539,0.20552534309615383,-1.4106590651421385,1.7896715051155927,17.318611953271006
1688472812.703,-0.11423471042497198,0.5927502500161543,-0.06838947741090261,-1.2600009134794348,0.03977516301143348,1.2901415987258182,-0.18193000156093403,-0.11423143302388598,0.5927034816281026,-0.06830049321706973,-1.2599849345538,0.03968552342464985,1.2901949782029103,-0.1819052308664421,1.072711280822754,59.35131387329101,1.5538617134094237,-26.82326271057129,0.6127409362792968,-0.24030120849609374,0.20458977890014649,1.0650048880275818,10.532376293439096,0.409968474393077,-6.252586823735458,0.01219051471194722,-0.2524827577288523,0.20525848221947754,-1.4213261887729327,1.7950000634608172,17.300998106096145
1688472812.804,-0.11423459054266896,0.5927502500161543,-0.06838959729320561,-1.2600009134794348,0.03977525900454234,1.2901415987258182,-0.18193000156093403,-0.11423143302388598,0.5927034816281026,-0.06830049321706973,-1.2599849345538,0.03968552342464985,1.2901949782029103,-0.1819052308664421,1.0646457824707032,59.37954311752319,1.541536464691162,-26.871683330535888,0.6145016860961914,-0.23929995346069335,0.20425602722167968,1.0650591635963202,10.529510604313952,0.411574445672238,-6.250963799278009,0.01282097478798156,-0.2522907501254439,0.20540248263848165,-1.4166989320697454,1.7909652865240655,17.298918021985607
1688472812.902,-0.11423471042497198,0.5927502500161543,-0.06838959729320561,-1.2600009134794348,0.03977525900454234,1.290141778494731,-0.18193006155662708,-0.11423143302388598,0.5927034816281026,-0.06830049321706973,-1.2599849345538,0.03968552342464985,1.2901949782029103,-0.1819052308664421,1.0579245338439942,59.37819886779785,1.541536464691162,-26.90073570251465,0.6083390617370605,-0.23929995346069335,0.20392227554321288,1.0647915274330966,10.5426440647655,0.4096813958392903,-6.259087117941303,0.011775620564871695,-0.2520153679420078,0.20528365831354184,-1.4135479064616314,1.7872286947337832,17.31995972201803
1688472813.002,-0.11423459054266896,0.5927502500161543,-0.06838941752429264,-1.2600009134794348,0.03977525900454234,1.2901415987258182,-0.18193000156093403,-0.11423143302388598,0.5927034816281026,-0.06830049321706973,-1.2599849345538,0.03968552342464985,1.2901949782029103,-0.1819052308664421,1.0794325294494629,59.352658123016354,1.5521009635925294,-26.859358081817625,0.6092194366455078,-0.23696369171142578,0.2049235305786133,1.0625129001025633,10.533273895698878,0.40864935937061475,-6.257805299733592,0.012128753066100284,-0.25247101579044384,0.20552386922776644,-1.3989552306809319,1.7953824006140255,17.30931653805557
1688472813.103,-0.11423471042497198,0.5927502500161543,-0.06838947741090261,-1.2600009134794348,0.03977525900454234,1.2901415987258182,-0.18193006155662708,-0.11423143302388598,0.5927034816281026,-0.06830049321706973,-1.2599849345538,0.03968552342464985,1.2901949782029103,-0.1819052308664421,1.0673342819213867,59.382231616973876,1.544177589416504,-26.865520706176756,0.6145016860961914,-0.23996745681762696,0.2049235305786133,1.0657930124268442,10.529818658454452,0.40952163151299514,-6.253743674751002,0.012785641564604731,-0.2522044751896447,0.2055924044658875,-1.4070001884956644,1.790643792034433,17.30270378038462
1688472813.203,-0.11423459054266896,0.5927502500161543,-0.06838959729320561,-1.2600009134794348,0.03977525900454234,1.2901415987258182,-0.18193000156093403,-0.11423143302388598,0.5927034816281026,-0.06830049321706973,-1.2599849345538,0.03968552342464985,1.2901949782029103,-0.1819052308664421,1.0498590354919433,59.38088736724853,1.5432972145080566,-26.883128204345702,0.6145016860961914,-0.23763119506835936,0.20525728225708006,1.0592425602782696,10.544230025580909,0.4072134241597626,-6.25537505820766,0.01207529320779382,-0.25251761396069217,0.20582360108634606,-1.4340011737295482,1.781099600805315,17.31634374620869
1688472813.303,-0.11423459054266896,0.5927502500161543,-0.06838947741090261,-1.2600009134794348,0.03977516301143348,1.290141778494731,-0.18193000156093403,-0.11423143302388598,0.5927034816281026,-0.06830049321706973,-1.2599849345538,0.03968552342464985,1.2901949782029103,-0.1819052308664421,1.0780882797241211,59.34996962356568,1.5432972145080566,-26.881367454528807,0.6145016860961914,-0.23629618835449218,0.2049235305786133,1.0659636886415031,10.534600852462853,0.4094303399741267,-6.2525597477148676,0.013198165668815123,-0.25209226874362217,0.20514712016767644,-1.4186488482765045,1.7871478341256437,17.303562548920834
1688472813.436,-0.11423459054266896,0.5927502500161543,-0.06838947741090261,-1.2600009134794348,0.03977516301143348,1.290141778494731,-0.18193000156093403,-0.11423143302388598,0.5927034816281026,-0.06830049321706973,-1.2599849345538,0.03968552342464985,1.2901949782029103,-0.1819052308664421,1.059268783569336,59.375510368347165,1.541536464691162,-26.866401081085204,0.6100998115539551,-0.23796494674682617,0.20392227554321288,1.0578430370299103,10.545381201808205,0.4077218675550881,-6.25569756508667,0.011374099141664819,-0.2520037529096356,0.20514546433413672,-1.4368800421581374,1.7780657875551846,17.314177992527977
1688472813.504,-0.11423459054266896,0.5927502500161543,-0.06838959729320561,-1.2600009134794348,0.03977516301143348,1.290141778494731,-0.18193006155662708,-0.11423143302388598,0.5927034816281026,-0.06830049321706973,-1.2599849345538,0.03968552342464985,1.2901949782029103,-0.1819052308664421,1.0646457824707032,59.387608615875244,1.5424168395996094,-26.863759956359864,0.6083390617370605,-0.23796494674682617,0.20592478561401367,1.0597492247618119,10.544903737108058,0.4084375093576161,-6.255838998278202,0.011989262127915082,-0.2520790305945797,0.20530375212197716,-1.4368013762805196,1.7805434357976917,17.315804496539986
1688472813.604,-0.11423471042497198,0.5927502500161543,-0.06838947741090261,-1.2600009134794348,0.03977516301143348,1.2901416586124281,-0.18193000156093403,-0.11423143302388598,0.5927034816281026,-0.06830049321706973,-1.2599849345538,0.03968552342464985,1.2901949782029103,-0.1819052308664421,1.0686785316467284,59.33921562576294,1.5450579643249511,-26.867281455993652,0.6145016860961914,-0.23796494674682617,0.20659228897094725,1.0675742635742833,10.533277413854748,0.41084013013776144,-6.248157543070148,0.013347545749676785,-0.25256437632192275,0.2051835219422042,-1.433898785006735,1.788493781508872,17.29658168523017
1688472813.705,-0.11423459054266896,0.5927502500161543,-0.06838959729320561,-1.2600009134794348,0.03977525900454234,1.2901415987258182,-0.18193006155662708,-0.11423143302388598,0.5927034816281026,-0.06830049321706973,-1.2599849345538,0.03968552342464985,1.2901949782029103,-0.1819052308664421,1.0565802841186522,59.37282186889649,1.5388953399658203,-26.880487079620362,0.6145016860961914,-0.2359624366760254,0.20692604064941406,1.0679240118134312,10.529631389183756,0.41114270663715,-6.2512358537944515,0.014032833352093082,-0.2521771055749885,0.20578885895412474,-1.4160792239484614,1.7953590929147474,17.298448930518063
1688472813.803,-0.11423471042497198,0.5927502500161543,-0.06838959729320561,-1.2600009134794348,0.03977525900454234,1.2901415987258182,-0.18193006155662708,-0.11423143302388598,0.5927034816281026,-0.06830049321706973,-1.2599849345538,0.03968552342464985,1.2901949782029103,-0.1819052308664421,1.0619572830200195,59.39029711532593,1.5432972145080566,-26.847032833099366,0.6180231857299805,-0.24063496017456054,0.20659228897094725,1.061621958045437,10.542005281528478,0.40901199236488905,-6.255417557437209,0.012957783828406004,-0.2522546946248145,0.2053271126755366,-1.432593723015282,1.7821186628433756,17.31279645847145
1688472813.903,-0.11423459054266896,0.5927502500161543,-0.06838947741090261,-1.2600009134794348,0.03977516301143348,1.290141778494731,-0.18193006155662708,-0.11423143302388598,0.5927034816281026,-0.06830049321706973,-1.2599849345538,0.03968552342464985,1.2901949782029103,-0.1819052308664421,1.0713670310974122,59.364756370544434,1.5485794639587402,-26.827664585113524,0.6162624359130859,-0.24130246353149415,0.2049235305786133,1.0657707183567793,10.536372649282482,0.41027962465386014,-6.252827461133062,0.014146128168319554,-0.25231546962679546,0.20533135233830313,-1.4308502990908183,1.7939286429057555,17.302887466333615
1688472814.003,-0.11423459054266896,0.5927502500161543,-0.06838959729320561,-1.2600009134794348,0.03977525900454234,1.290141778494731,-0.18193006155662708,-0.11423143302388598,0.5927034816281026,-0.06830049321706973,-1.2599849345538,0.03968552342464985,1.2901949782029103,-0.1819052308664421,1.0606130332946777,59.38088736724853,1.5424168395996094,-26.87080295562744,0.6145016860961914,-0.2359624366760254,0.2025872688293457,1.0717890000264356,10.535329226004333,0.41181496916667154,-6.249615858308467,0.01471445448818549,-0.2520584556716533,0.20496483036176444,-1.436432038133304,1.7929985798074035,17.3015003697011
1688472814.103,-0.11423459054266896,0.5927502500161543,-0.06838959729320561,-1.2600009134794348,0.03977516301143348,1.290141778494731,-0.18193000156093403,-0.11423143302388598,0.5927034816281026,-0.06830049321706973,-1.2599849345538,0.03968552342464985,1.2901949782029103,-0.1819052308664421,1.059268783569336,59.37416611862183,1.5468187141418457,-26.883128204345702,0.6118605613708497,-0.23763119506835936,0.20392227554321288,1.064481056822474,10.54374369830181,0.41080475185531573,-6.256357506630605,0.01343787666669358,-0.25169358539066267,0.20546065473948455,-1.4285314998117569,1.7819194027236034,17.315565427233835
1688472814.236,-0.11423459054266896,0.5927502500161543,-0.06838959729320561,-1.2600009134794348,0.03977516301143348,1.290141778494731,-0.18193006155662708,-0.11423143302388598,0.5927034816281026,-0.06830049321706973,-1.2599849345538,0.03968552342464985,1.2901949782029103,-0.1819052308664421,1.0780882797241211,59.3540023727417,1.5468187141418457,-26.850554332733154,0.6127409362792968,-0.24030120849609374,0.20592478561401367,1.068000484445895,10.535647934612044,0.4117641745228663,-6.256077912245125,0.013538121826140701,-0.2517782764751428,0.20510069969660918,-1.4108497736705925,1.7879128796594879,17.307793861679563
1688472814.304,-0.11423471042497198,0.5927502500161543,-0.06838959729320561,-1.2600009134794348,0.03977525900454234,1.290141778494731,-0.18193000156093403,-0.11423143302388598,0.5927034816281026,-0.06830049321706973,-1.2599849345538,0.03968552342464985,1.2901949782029103,-0.1819052308664421,1.065990032196045,59.38088736724853,1.5432972145080566,-26.85231508255005,0.6127409362792968,-0.23963370513916016,0.20725979232788086,1.06867503638421,10.535611954151648,0.411914582581196,-6.250059133345706,0.013699620463133406,-0.2514346561529362,0.20525249440524768,-1.4391144724044105,1.7949642569000341,17.299349830672934
1688472814.404,-0.11423459054266896,0.5927502500161543,-0.06838947741090261,-1.2600009134794348,0.03977516301143348,1.290141778494731,-0.18193006155662708,-0.11423143302388598,0.5927034816281026,-0.06830049321706973,-1.2599849345538,0.03968552342464985,1.2901949782029103,-0.1819052308664421,1.059268783569336,59.366100620269776,1.5450579643249511,-26.89281232833862,0.6127409362792968,-0.23829869842529297,0.20759354400634766,1.064011189545304,10.542637843736529,0.4097043040333508,-6.25362849206711,0.012694139692910812,-0.2518019968826458,0.20579319903920723,-1.4350462052920854,1.7855771857349823,17.311538326919795
1688472814.504,-0.11423459054266896,0.5927502500161543,-0.06838959729320561,-1.2600009134794348,0.03977516301143348,1.2901416586124281,-0.18193006155662708,-0.11423143302388598,0.5927034816281026,-0.06830049321706973,-1.2599849345538,0.03968552342464985,1.2901949782029103,-0.1819052308664421,1.0753997802734374,59.36072362136841,1.551220588684082,-26.873444080352783,0.6127409362792968,-0.2372974433898926,0.20559103393554687,1.0694248447926522,10.536069747820104,0.4121430639668935,-6.2537316914974665,0.014488130384121185,-0.25201134468730124,0.20583423271342183,-1.419312110235673,1.7893789724972677,17.308206421700795
1688472814.603,-0.11423459054266896,0.5927502500161543,-0.06838947741090261,-1.2600008535928247,0.03977516301143348,1.2901415987258182,-0.18193000156093403,-0.11423143302388598,0.5927034816281026,-0.06830049321706973,-1.2599849345538,0.03968552342464985,1.2901949782029103,-0.1819052308664421,1.0606130332946777,59.38088736724853,1.5424168395996094,-26.86111883163452,0.6127409362792968,-0.23963370513916016,0.2049235305786133,1.0684886218044012,10.534933568708103,0.41115434828806857,-6.252481056434127,0.014497532004790122,-0.25225431998551556,0.205236386347026,-1.4246364621535461,1.7929014741305873,17.305915918772538
1688472814.703,-0.11423459054266896,0.5927503099027643,-0.06838959729320561,-1.2600009734751274,0.03977525900454234,1.2901415987258182,-0.18193006155662708,-0.11423143302388598,0.5927034816281026,-0.06830049321706973,-1.2599849345538,0.03968552342464985,1.2901949782029103,-0.1819052308664421,1.0606130332946777,59.387608615875244,1.544177589416504,-26.871683330535888,0.6127409362792968,-0.23763119506835936,0.20659228897094725,1.0649615979178408,10.537868287533852,0.4107056440645118,-6.249722090653344,0.014824089337420444,-0.2524439665568322,0.20546595802675333,-1.4428206369927516,1.7880905386829822,17.303441358302678
1688472814.803,-0.11423459054266896,0.5927502500161543,-0.06838947741090261,-1.2600009134794348,0.03977516301143348,1.290141778494731,-0.18193000156093403,-0.11423143302388598,0.5927034816281026,-0.06830049321706973,-1.2599849345538,0.03968552342464985,1.2901949782029103,-0.1819052308664421,1.0646457824707032,59.364756370544434,1.5406560897827148,-26.881367454528807,0.6153820610046387,-0.2359624366760254,0.20692604064941406,1.0656753271947454,10.540094923125487,0.4102008369622182,-6.250475709063052,0.01498642264676369,-0.25220650918169985,0.20549548911224313,-1.4430322744983668,1.791262515172836,17.305477631638343
1688472814.903,-0.11423459054266896,0.5927502500161543,-0.06838959729320561,-1.2600009134794348,0.03977516301143348,1.290141778494731,-0.18193006155662708,-0.11423143302388598,0.5927034816281026,-0.06830049321706973,-1.2599849345538,0.03968552342464985,1.2901949782029103,-0.1819052308664421,1.0633015327453614,59.3701333694458,1.5397757148742675,-26.87784595489502,0.6189035606384278,-0.23763119506835936,0.20458977890014649,1.0648002676886377,10.537953899721794,0.40940965623420045,-6.252889926450805,0.01526647484334609,-0.2517707559905993,0.20559382259705244,-1.4285170622999914,1.7928126255767294,17.307364143167273
1688472815.003,-0.11423459054266896,0.5927502500161543,-0.06838959729320561,-1.2600009134794348,0.03977516301143348,1.2901415987258182,-0.18193006155662708,-0.11423143302388598,0.5927034816281026,-0.06830049321706973,-1.2599849345538,0.03968552342464985,1.2901949782029103,-0.1819052308664421,1.0673342819213867,59.37954311752319,1.5388953399658203,-26.834707584381103,0.6136213111877441,-0.23863245010375977,0.20559103393554687,1.067689492100952,10.53875276024431,0.40891720066066883,-6.2535962255535456,0.01446950366065012,-0.25194339832898344,0.20536338824904934,-1.4331510582886815,1.7859696252449413,17.304302989495703
1688472815.138,-0.11423471042497198,0.5927502500161543,-0.06838947741090261,-1.2600009134794348,0.03977516301143348,1.2901416586124281,-0.18193000156093403,-0.11423143302388598,0.5927034816281026,-0.06830049321706973,-1.2599849345538,0.03968552342464985,1.2901949782029103,-0.1819052308664421,1.0619572830200195,59.375510368347165,1.5406560897827148,-26.865520706176756,0.6162624359130859,-0.2372974433898926,0.20525728225708006,1.0648320425517963,10.53899410690731,0.40763344439503846,-6.253483996559693,0.014160640366199032,-0.2520994927382164,0.20524943951126248,-1.4294297348914422,1.7920577184528241,17.30976407946905
1688472815.205,-0.11423459054266896,0.5927502500161543,-0.06838947741090261,-1.2600009134794348,0.03977525900454234,1.2901415987258182,-0.18193000156093403,-0.11423143302388598,0.5927034816281026,-0.06830049321706973,-1.2599849345538,0.03968552342464985,1.2901949782029103,-0.1819052308664421,1.065990032196045,59.36878911972046,1.5397757148742675,-26.871683330535888,0.6136213111877441,-0.2372974433898926,0.20425602722167968,1.064292120729229,10.538966045351668,0.4082961486948399,-6.251466325408575,0.015198093379633983,-0.2523916373895244,0.20542528015771022,-1.440461338169468,1.7896188523201193,17.307759811425207
1688472815.305,-0.11423459054266896,0.5927502500161543,-0.06838959729320561,-1.2600009134794348,0.03977525900454234,1.2901416586124281,-0.18193006155662708,-0.11423143302388598,0.5927034816281026,-0.06830049321706973,-1.2599849345538,0.03968552342464985,1.2901949782029103,-0.1819052308664421,1.0619572830200195,59.366100620269776,1.5468187141418457,-26.85407583236694,0.6162624359130859,-0.23863245010375977,0.2049235305786133,1.0651205463552291,10.536707977579885,0.4093431424239856,-6.255148961879731,0.01582870160240866,-0.2521603961373453,0.20505038948486998,-1.4198393223950114,1.7934120967109628,17.30862817385861
1688472815.405,-0.11423459054266896,0.5927502500161543,-0.06838959729320561,-1.2600009134794348,0.03977516301143348,1.290141778494731,-0.18193006155662708,-0.11423143302388598,0.5927034816281026,-0.06830049321706973,-1.2599849345538,0.03968552342464985,1.2901949782029103,-0.1819052308664421,1.0713670310974122,59.37685461807251,1.544177589416504,-26.847913208007814,0.6100998115539551,-0.24130246353149415,0.2049235305786133,1.0682069317667613,10.535554053297071,0.41185376674780205,-6.253876792448173,0.015899323405219587,-0.25269914161750073,0.20552554152933164,-1.423063742398939,1.7936594055800814,17.305725599432396
1688472815.504,-0.11423471042497198,0.5927502500161543,-0.06838959729320561,-1.2600009134794348,0.03977525900454234,1.290141778494731,-0.18193000156093403,-0.11423143302388598,0.5927034816281026,-0.06830049321706973,-1.2599849345538,0.03968552342464985,1.2901949782029103,-0.1819052308664421,1.0619572830200195,59.37282186889649,1.5432972145080566,-26.865520706176756,0.6153820610046387,-0.2372974433898926,0.20625853729248048,1.0691240489913103,10.540153784941943,0.4109240790861557,-6.2549909520956675,0.015379910153428298,-0.2525391255068235,0.20568297734924643,-1.426933861988188,1.7903070965449457,17.310764390972295
1688472815.604,-0.11423471042497198,0.5927502500161543,-0.06838947741090261,-1.2600009134794348,0.03977525900454234,1.290141778494731,-0.18193000156093403,-0.11423143302388598,0.5927034816281026,-0.06830049321706973,-1.2599849345538,0.03968552342464985,1.2901949782029103,-0.1819052308664421,1.0686785316467284,59.36341212081909,1.5476990890502929,-26.879606704711914,0.6136213111877441,-0.23929995346069335,0.20525728225708006,1.0668739903045257,10.536826547928634,0.40955388143941046,-6.253210970331151,0.014064900668210693,-0.2519904290169597,0.20573136287724594,-1.4232833887506586,1.7876961917302674,17.306465985162152
1688472815.704,-0.11423459054266896,0.5927502500161543,-0.06838947741090261,-1.2600009734751274,0.03977525900454234,1.2901415987258182,-0.18193006155662708,-0.11423143302388598,0.5927034816281026,-0.06830049321706973,-1.2599849345538,0.03968552342464985,1.2901949782029103,-0.1819052308664421,1.0606130332946777,59.375510368347165,1.5485794639587402,-26.86199920654297,0.6171428108215332,-0.23963370513916016,0.20392227554321288,1.06363720105536,10.532356094000567,0.40967844915121066,-6.255660407188186,0.013993323599812313,-0.25202175806370597,0.20569593893737242,-1.407042743109711,1.794887133690376,17.305269513227294
1688472815.804,-0.11423459054266896,0.5927502500161543,-0.06838947741090261,-1.2600009734751274,0.03977516301143348,1.290141778494731,-0.18193006155662708,-0.11423143302388598,0.5927034816281026,-0.06830049321706973,-1.2599849345538,0.03968552342464985,1.2901949782029103,-0.1819052308664421,1.0713670310974122,59.382231616973876,1.5476990890502929,-26.853195457458497,0.6145016860961914,-0.23963370513916016,0.20592478561401367,1.06462397214842,10.538981049630934,0.41036796154788796,-6.256267701412373,0.013817465729689523,-0.25249973675121984,0.20557176997914814,-1.421420103102106,1.7933160345825738,17.31276362998643
1688472815.903,-0.11423471042497198,0.5927502500161543,-0.06838959729320561,-1.2600009134794348,0.03977525900454234,1.2901415987258182,-0.18193000156093403,-0.11423143302388598,0.5927034816281026,-0.06830049321706973,-1.2599849345538,0.03968552342464985,1.2901949782029103,-0.1819052308664421,1.0740555305480957,59.36206787109375,1.551220588684082,-26.86464033126831,0.6180231857299805,-0.23763119506835936,0.2049235305786133,1.065786914308517,10.53591220399322,0.4096713204428821,-6.251281984993208,0.013347588053870318,-0.2524023960239884,0.2056595420249503,-1.4308239492667545,1.7892639292290786,17.303509819713803
1688472816.004,-0.11423459054266896,0.5927502500161543,-0.06838947741090261,-1.2600009134794348,0.03977506719285755,1.290141778494731,-0.18193006155662708,-0.11423143302388598,0.5927034816281026,-0.06830049321706973,-1.2599849345538,0.03968552342464985,1.2901949782029103,-0.1819052308664421,1.0579245338439942,59.37282186889649,1.541536464691162,-26.896333827972413,0.6180231857299805,-0.23696369171142578,0.20625853729248048,1.069225195040408,10.533287633467246,0.4105140486048718,-6.25138489105592,0.013871489772870102,-0.25220102838662967,0.2052698660259414,-1.420253149005961,1.7922765574645676,17.302457684978137
1688472816.110,-0.11423471042497198,0.5927502500161543,-0.06838947741090261,-1.2600009134794348,0.03977525900454234,1.2901415987258182,-0.18193006155662708,-0.11423143302388598,0.5927034816281026,-0.06830049321706973,-1.2599849345538,0.03968552342464985,1.2901949782029103,-0.1819052308664421,1.0700227813720704,59.375510368347165,1.5432972145080566,-26.857597332000733,0.6083390617370605,-0.24163621520996093,0.20559103393554687,1.0625848387583132,10.540220426834313,0.40841697805587895,-6.255924972021756,0.01244081432388098,-0.25274829909162466,0.20569735978524362,-1.422332354472044,1.7856146191402262,17.31405173431737
1688472816.210,-0.11423471042497198,0.5927502500161543,-0.06838959729320561,-1.2600009134794348,0.03977525900454234,1.290141778494731,-0.18193000156093403,-0.11423143302388598,0.5927034816281026,-0.06830049321706973,-1.2599849345538,0.03968552342464985,1.2901949782029103,-0.1819052308664421,1.0700227813720704,59.36744486999512,1.5459383392333985,-26.87080295562744,0.6145016860961914,-0.23763119506835936,0.20458977890014649,1.0685798491462333,10.534964549198314,0.40976576566542644,-6.25237455585771,0.013329080119676852,-0.2530245036435743,0.2057012747515276,-1.4234371155806784,1.7982327919765448,17.30604987430369
1688472816.310,-0.11423471042497198,0.5927502500161543,-0.06838959729320561,-1.2600009134794348,0.03977525900454234,1.290141778494731,-0.18193000156093403,-0.11423143302388598,0.5927034816281026,-0.06830049321706973,-1.2599849345538,0.03968552342464985,1.2901949782029103,-0.1819052308664421,1.0633015327453614,59.38492011642456,1.5424168395996094,-26.898974952697753,0.6118605613708497,-0.2372974433898926,0.2049235305786133,1.0702694047081942,10.536087602984274,0.4113591244281555,-6.252077710160587,0.013045435090354815,-0.25260521027512073,0.20573077723243954,-1.4239774079934941,1.7902918801286072,17.30802772057936
1688472816.409,-0.11423459054266896,0.5927502500161543,-0.06838959729320561,-1.2600008535928247,0.03977506719285755,1.2901415987258182,-0.18193006155662708,-0.11423143302388598,0.5927034816281026,-0.06830049321706973,-1.2599849345538,0.03968552342464985,1.2901949782029103,-0.1819052308664421,1.0673342819213867,59.36744486999512,1.5371345901489257,-26.867281455993652,0.6145016860961914,-0.23863245010375977,0.20592478561401367,1.0665110128563577,10.543201727295976,0.4090963193345648,-6.257332304445468,0.012673939712678097,-0.2525016101791474,0.20612943087063318,-1.424240949714383,1.7916579931707066,17.31741004420268
1688472816.509,-0.11423459054266896,0.5927502500161543,-0.06838959729320561,-1.2600009134794348,0.03977506719285755,1.2901415987258182,-0.18193000156093403,-0.11423143302388598,0.5927034816281026,-0.06830049321706973,-1.2599849345538,0.03968552342464985,1.2901949782029103,-0.1819052308664421,1.0740555305480957,59.359379371643065,1.5450579643249511,-26.846152458190918,0.6145016860961914,-0.23963370513916016,0.2049235305786133,1.066767008768333,10.534434474402392,0.4091905984359405,-6.24942868382889,0.013721400565988504,-0.2526267203308229,0.20552603671634323,-1.435231127292581,1.791558315010113,17.299010038221514
1688472816.609,-0.11423459054266896,0.5927501901295443,-0.06838959729320561,-1.2600009134794348,0.03977506719285755,1.290141778494731,-0.18193006155662708,-0.11423143302388598,0.5927034816281026,-0.06830049321706973,-1.2599849345538,0.03968552342464985,1.2901949782029103,-0.1819052308664421,1.0538917846679687,59.37685461807251,1.5380149650573731,-26.869922580718995,0.6109801864624024,-0.23696369171142578,0.20525728225708006,1.0689542107956294,10.535435032511852,0.41029692251685856,-6.248182112289278,0.014227025061374956,-0.25257004492355817,0.20560143488369642,-1.441344276888533,1.7869279360841903,17.300897566100993
1688472816.709,-0.11423471042497198,0.5927502500161543,-0.06838947741090261,-1.2600009734751274,0.03977525900454234,1.290141778494731,-0.18193006155662708,-0.11423143302388598,0.5927034816281026,-0.06830049321706973,-1.2599849345538,0.03968552342464985,1.2901949782029103,-0.1819052308664421,1.0646457824707032,59.366100620269776,1.5424168395996094,-26.879606704711914,0.6136213111877441,-0.23629618835449218,0.20525728225708006,1.0653533914195155,10.539255459790267,0.4094565557425913,-6.254455428518229,0.012456472876843561,-0.25223209363690513,0.20512569228194782,-1.427027612880882,1.7852811262034862,17.311785406249655
1688472816.842,-0.11423471042497198,0.5927502500161543,-0.06838947741090261,-1.2600009134794348,0.03977516301143348,1.290141778494731,-0.18193000156093403,-0.11423143302388598,0.5927034816281026,-0.06830049321706973,-1.2599849345538,0.03968552342464985,1.2901949782029103,-0.1819052308664421,1.0740555305480957,59.34728112411499,1.5503402137756348,-26.848793582916258,0.6083390617370605,-0.24030120849609374,0.20458977890014649,1.0700135472407943,10.532286070661616,0.4103164867155084,-6.254773962737152,0.011880438115902656,-0.2519187857389673,0.20536613014095348,-1.4297571568849585,1.7855086145062133,17.307350425095784
1688472816.910,-0.11423459054266896,0.5927502500161543,-0.06838959729320561,-1.2600009134794348,0.03977516301143348,1.290141778494731,-0.18193000156093403,-0.11423143302388598,0.5927034816281026,-0.06830049321706973,-1.2599849345538,0.03968552342464985,1.2901949782029103,-0.1819052308664421,1.0606130332946777,59.39298561477661,1.5424168395996094,-26.848793582916258,0.6127409362792968,-0.23996745681762696,0.20525728225708006,1.0679533515877244,10.535551157929447,0.4097166587733051,-6.2524454459498,0.013197769053390866,-0.25263140439537735,0.20529183269262996,-1.4278927416253973,1.7883139976743037,17.30664429205086
1688472817.010,-0.11423459054266896,0.5927502500161543,-0.06838959729320561,-1.2600009134794348,0.03977525900454234,1.2901415987258182,-0.18193006155662708,-0.11423143302388598,0.5927034816281026,-0.06830049321706973,-1.2599849345538,0.03968552342464985,1.2901949782029103,-0.1819052308664421,1.0606130332946777,59.366100620269776,1.544177589416504,-26.8681618309021,0.6153820610046387,-0.23796494674682617,0.20559103393554687,1.0640590142482411,10.541680843978419,0.40992317538835893,-6.254070464974994,0.011735528394074487,-0.25261650959345333,0.20509709274875676,-1.4334507409543364,1.7878327893918324,17.311798269886054
1688472817.110,-0.11423459054266896,0.5927501901295443,-0.06838947741090261,-1.2600009134794348,0.03977525900454234,1.2901415987258182,-0.18193006155662708,-0.11423143302388598,0.5927034816281026,-0.06830049321706973,-1.2599849345538,0.03968552342464985,1.2901949782029103,-0.1819052308664421,1.0740555305480957,59.34996962356568,1.5459383392333985,-26.881367454528807,0.6118605613708497,-0.23629618835449218,0.20592478561401367,1.0676262618822494,10.533238218143667,0.4119416445312982,-6.25567850031522,0.01258737287240742,-0.2526606904699547,0.20535594379655364,-1.4032989562137717,1.7936430171998687,17.30883006937174
1688472817.209,-0.11423459054266896,0.5927503099027643,-0.06838959729320561,-1.2600009134794348,0.03977525900454234,1.2901416586124281,-0.18193000156093403,-0.11423143302388598,0.5927034816281026,-0.06830049321706973,-1.2599849345538,0.03968552342464985,1.2901949782029103,-0.1819052308664421,1.0673342819213867,59.39029711532593,1.5468187141418457,-26.871683330535888,0.6145016860961914,-0.24063496017456054,0.2049235305786133,1.0667564094794688,10.535013708164088,0.41014356966960763,-6.257270618422608,0.01299390549382675,-0.2524970709028853,0.20527476327995842,-1.4058688284218872,1.7954259305601747,17.310947134247755
1688472817.309,-0.11423459054266896,0.5927502500161543,-0.06838947741090261,-1.2600009134794348,0.03977525900454234,1.290141778494731,-0.18193000156093403,-0.11423143302388598,0.5927034816281026,-0.06830049321706973,-1.2599849345538,0.03968552342464985,1.2901949782029103,-0.1819052308664421,1.0700227813720704,59.37685461807251,1.5476990890502929,-26.857597332000733,0.6127409362792968,-0.23929995346069335,0.20525728225708006,1.0613975815575323,10.543048997055791,0.4085452851799486,-6.258220623500419,0.012820293464455262,-0.25246930706034215,0.20546758081963243,-1.4206208794590236,1.7836368950330153,17.318868637181684
1688472817.409,-0.11423471042497198,0.5927502500161543,-0.06838959729320561,-1.2600009734751274,0.03977516301143348,1.290141778494731,-0.18193000156093403,-0.11423143302388598,0.5927034816281026,-0.06830049321706973,-1.2599849345538,0.03968552342464985,1.2901949782029103,-0.1819052308664421,1.072711280822754,59.359379371643065,1.5476990890502929,-26.880487079620362,0.6100998115539551,-0.23863245010375977,0.20458977890014649,1.0712698736778,10.531302844452652,0.4108692894975785,-6.2509212198662905,0.013091526008216265,-0.2525050705773897,0.20502940752327126,-1.4186569733125194,1.7958547078868805,17.29752420140334
1688472817.509,-0.11423459054266896,0.5927502500161543,-0.06838959729320561,-1.2600009134794348,0.03977516301143348,1.2901415987258182,-0.18193000156093403,-0.11423143302388598,0.5927034816281026,-0.06830049321706973,-1.2599849345538,0.03968552342464985,1.2901949782029103,-0.1819052308664421,1.0579245338439942,59.387608615875244,1.5380149650573731,-26.895453453063965,0.6109801864624024,-0.23863245010375977,0.20559103393554687,1.0623848764367079,10.533045152012773,0.4087919386588079,-6.25464549674726,0.012150041523781411,-0.25247254143540193,0.20481526862277571,-1.4085250766745039,1.7934504871389003,17.30957499138931
1688472817.608,-0.11423459054266896,0.5927502500161543,-0.06838947741090261,-1.2600009134794348,0.03977525900454234,1.2901416586124281,-0.18193000156093403,-0.11423143302388598,0.5927034816281026,-0.06830049321706973,-1.2599849345538,0.03968552342464985,1.2901949782029103,-0.1819052308664421,1.0646457824707032,59.371477619171145,1.5432972145080566,-26.8681618309021,0.6083390617370605,-0.23963370513916016,0.20625853729248048,1.0621846515231408,10.540332364979932,0.407140554065479,-6.258393014251775,0.011920703267567188,-0.25223791535689233,0.2051554548025186,-1.4139455923802742,1.7874015030013237,17.315105651248757
1688472817.741,-0.11423471042497198,0.5927502500161543,-0.06838959729320561,-1.2600009134794348,0.03977525900454234,1.290141778494731,-0.18193006155662708,-0.11423143302388598,0.5927034816281026,-0.06830049321706973,-1.2599849345538,0.03968552342464985,1.2901949782029103,-0.1819052308664421,1.0565802841186522,59.38088736724853,1.5380149650573731,-26.894573078155517,0.6100998115539551,-0.23929995346069335,0.20725979232788086,1.0631555112755162,10.537549896281366,0.4089304744044951,-6.256665999761112,0.013200546239925181,-0.2522685403860525,0.20527260198807645,-1.4134957184612882,1.7871656117885975,17.312207295405585
1688472817.810,-0.11423471042497198,0.5927502500161543,-0.06838959729320561,-1.2600009134794348,0.03977525900454234,1.290141778494731,-0.18193000156093403,-0.11423143302388598,0.5927034816281026,-0.06830049321706973,-1.2599849345538,0.03968552342464985,1.2901949782029103,-0.1819052308664421,1.0565802841186522,59.382231616973876,1.5371345901489257,-26.891931953430177,0.6118605613708497,-0.23629618835449218,0.20392227554321288,1.0666231500897057,10.537673226295196,0.40967731569332383,-6.2515077954653115,0.013205132506837466,-0.2524311856291278,0.2056716194211629,-1.4347792764528882,1.7874287179179116,17.309092986133397
1688472817.910,-0.11423459054266896,0.5927502500161543,-0.06838959729320561,-1.2600009134794348,0.03977516301143348,1.290141778494731,-0.18193012144323706,-0.11423143302388598,0.5927034816281026,-0.06830049321706973,-1.2599849345538,0.03968552342464985,1.2901949782029103,-0.1819052308664421,1.0713670310974122,59.35534662246704,1.5476990890502929,-26.865520706176756,0.6171428108215332,-0.23963370513916016,0.20392227554321288,1.0645634954111476,10.536044940119053,0.4088678195310426,-6.255330622787533,0.012113801749078107,-0.2526226036262958,0.20523128725665013,-1.4131099278078811,1.7891507288067285,17.309229775936608
1688472818.010,-0.11423459054266896,0.5927502500161543,-0.06838959729320561,-1.2600008535928247,0.03977525900454234,1.2901415987258182,-0.18193006155662708,-0.11423143302388598,0.5927034816281026,-0.06830049321706973,-1.2599849345538,0.03968552342464985,1.2901949782029103,-0.1819052308664421,1.0753997802734374,59.37416611862183,1.5459383392333985,-26.848793582916258,0.6171428108215332,-0.24030120849609374,0.20525728225708006,1.0710203656143555,10.52224870811056,0.4105355716580306,-6.2532279890144515,0.013538716652075674,-0.25246591096084214,0.2051635163835578,-1.392280473611994,1.8026622430411983,17.295114084847768
1688472818.109,-0.11423459054266896,0.5927502500161543,-0.06838959729320561,-1.2600009134794348,0.03977525900454234,1.290141778494731,-0.18193006155662708,-0.11423143302388598,0.5927034816281026,-0.06830049321706973,-1.2599849345538,0.03968552342464985,1.2901949782029103,-0.1819052308664421,1.059268783569336,59.41852635955811,1.5371345901489257,-26.863759956359864,0.6109801864624024,-0.23896620178222655,0.20525728225708006,1.0677131952825145,10.538455688116679,0.41154096673425467,-6.253462138465491,0.012046792039996175,-0.25252519791949524,0.2050917113178179,-1.4321106004351196,1.7909227148484645,17.309647657348705
1688472818.209,-0.11423459054266896,0.5927502500161543,-0.06838947741090261,-1.2600009134794348,0.03977525900454234,1.2901415987258182,-0.18193000156093403,-0.11423143302388598,0.5927034816281026,-0.06830049321706973,-1.2599849345538,0.03968552342464985,1.2901949782029103,-0.1819052308664421,1.0673342819213867,59.364756370544434,1.5380149650573731,-26.87432445526123,0.6100998115539551,-0.23829869842529297,0.20425602722167968,1.0635441521798732,10.548466484784488,0.41100972490385934,-6.258856929432463,0.012567414781490722,-0.25227573782179735,0.20515736916788863,-1.4331232486658994,1.7876685447536849,17.32692268079346
1688472818.309,-0.11423471042497198,0.5927502500161543,-0.06838959729320561,-1.2600009134794348,0.03977525900454234,1.290141778494731,-0.18193012144323706,-0.11423143302388598,0.5927034816281026,-0.06830049321706973,-1.2599849345538,0.03968552342464985,1.2901949782029103,-0.1819052308664421,1.072711280822754,59.320396129608156,1.5494598388671874,-26.86464033126831,0.6118605613708497,-0.2346274299621582,0.2049235305786133,1.0700500231239995,10.525251762564935,0.4115141329543707,-6.251028378635585,0.012111517243241578,-0.25231086707042066,0.2054540073996406,-1.404491486668966,1.7984972369933843,17.297975488291296
1688472818.409,-0.11423459054266896,0.5927502500161543,-0.06838959729320561,-1.2600009134794348,0.03977525900454234,1.290141778494731,-0.18193006155662708,-0.11423143302388598,0.5927034816281026,-0.06830049321706973,-1.2599849345538,0.03968552342464985,1.2901949782029103,-0.1819052308664421,1.0646457824707032,59.39701836395264,1.5468187141418457,-26.85495620727539,0.6162624359130859,-0.23963370513916016,0.2049235305786133,1.0667450651499957,10.521479510022765,0.4115145836915595,-6.2548050808756,0.013482036454324652,-0.2524018075567104,0.20505999269204536,-1.384152628550396,1.7926478133672537,17.29860845796539
1688472818.542,-0.11423459054266896,0.5927502500161543,-0.06838947741090261,-1.2600009134794348,0.03977525900454234,1.2901416586124281,-0.18193000156093403,-0.11423143302388598,0.5927034816281026,-0.06830049321706973,-1.2599849345538,0.03968552342464985,1.2901949782029103,-0.1819052308664421,1.0686785316467284,59.41449361038208,1.5459383392333985,-26.878726329803467,0.6127409362792968,-0.23996745681762696,0.20659228897094725,1.0601830024824657,10.54895073066955,0.40891493496470505,-6.2589457310840775,0.01214426407238893,-0.25269172338662216,0.20544175251288788,-1.434519241834122,1.780234201036781,17.328571626537716
1688472818.609,-0.11423459054266896,0.5927502500161543,-0.06838959729320561,-1.2600009734751274,0.03977525900454234,1.2901415987258182,-0.18193006155662708,-0.11423143302388598,0.5927034816281026,-0.06830049321706973,-1.2599849345538,0.03968552342464985,1.2901949782029103,-0.1819052308664421,1.0807767791748046,59.32711737823487,1.554742088317871,-26.87080295562744,0.6136213111877441,-0.23763119506835936,0.2049235305786133,1.0686107047971223,10.536493747675554,0.4131357469847494,-6.252704771510228,0.012714860204487446,-0.25254378236584657,0.2055496377526816,-1.4195398580941276,1.7891465091005259,17.302892013559894
1688472818.710,-0.11423459054266896,0.5927502500161543,-0.06838959729320561,-1.2600009134794348,0.03977525900454234,1.2901415987258182,-0.18193000156093403,-0.11423143302388598,0.5927034816281026,-0.06830049321706973,-1.2599849345538,0.03968552342464985,1.2901949782029103,-0.1819052308664421,1.0552360343933105,59.364756370544434,1.5406560897827148,-26.887530078887938,0.6118605613708497,-0.23696369171142578,0.2049235305786133,1.0710380371980652,10.523128340056308,0.41457714334312185,-6.252450843191954,0.0119421675580485,-0.2521601357662974,0.20515343235503253,-1.3932741712099794,1.8028320101631,17.296441808913027
1688472818.809,-0.11423471042497198,0.5927502500161543,-0.06838959729320561,-1.2600008535928247,0.03977525900454234,1.2901415987258182,-0.18193000156093403,-0.11423143302388598,0.5927034816281026,-0.06830049321706973,-1.2599849345538,0.03968552342464985,1.2901949782029103,-0.1819052308664421,1.0498590354919433,59.40911661148071,1.5380149650573731,-26.863759956359864,0.6092194366455078,-0.23896620178222655,0.20592478561401367,1.0618698392181343,10.541852145934586,0.4071482483888895,-6.258647951116227,0.009842737475549854,-0.25189597476209385,0.2051268245472391,-1.419467909659331,1.7808937250795658,17.31666396963334
1688472818.908,-0.11423471042497198,0.5927502500161543,-0.06838959729320561,-1.2600008535928247,0.03977506719285755,1.290141778494731,-0.18193012144323706,-0.11423143302388598,0.5927034816281026,-0.06830049321706973,-1.2599849345538,0.03968552342464985,1.2901949782029103,-0.1819052308664421,1.08480952835083,59.359379371643065,1.5529813385009765,-26.855836582183837,0.6118605613708497,-0.23829869842529297,0.2032547721862793,1.0648227797686398,10.540963433787951,0.41022502547425027,-6.2527966546983045,0.010733299969105988,-0.2523248212907645,0.20452304778625494,-1.4365201000116508,1.7841726344125997,17.309698816240555
1688472819.008,-0.11423471042497198,0.5927502500161543,-0.06838947741090261,-1.2600008535928247,0.03977525900454234,1.290141778494731,-0.18193000156093403,-0.11423143302388598,0.5927034816281026,-0.06830049321706973,-1.2599849345538,0.03968552342464985,1.2901949782029103,-0.1819052308664421,1.0633015327453614,59.35669087219238,1.5468187141418457,-26.87784595489502,0.6127409362792968,-0.2372974433898926,0.20592478561401367,1.0688613085519914,10.527310121625263,0.41314317874664386,-6.245685311094585,0.010738088557098402,-0.2525605072352911,0.20476183391296346,-1.4312833242813299,1.7935082085559797,17.28948448294114
1688472819.108,-0.11423459054266896,0.5927502500161543,-0.06838959729320561,-1.2600009134794348,0.03977525900454234,1.290141778494731,-0.18193000156093403,-0.11423143302388598,0.5927034816281026,-0.06830049321706973,-1.2599849345538,0.03968552342464985,1.2901949782029103,-0.1819052308664421,1.0377607879638673,59.40642811203003,1.5336130905151366,-26.89281232833862,0.6092194366455078,-0.2359624366760254,0.20559103393554687,1.0622852799457692,10.544536313967729,0.4094994127391995,-6.257988606928864,0.010042699118687095,-0.2519340067499441,0.205032520574428,-1.4249772552196212,1.7831030817667106,17.31994291235288
1688472819.208,-0.11423459054266896,0.5927502500161543,-0.06838959729320561,-1.2600009734751274,0.03977525900454234,1.290141778494731,-0.18193012144323706,-0.11423143302388598,0.5927034816281026,-0.06830049321706973,-1.2599849345538,0.03968552342464985,1.2901949782029103,-0.1819052308664421,1.0700227813720704,59.359379371643065,1.5476990890502929,-26.836468334198,0.6118605613708497,-0.23829869842529297,0.2032547721862793,1.056529499285582,10.549270754091989,0.4074718541788025,-6.257933537380871,0.009628279734445709,-0.2520052584660468,0.2042624843126033,-1.4393746053171068,1.7725589664618646,17.318091851057744
1688472819.307,-0.11423459054266896,0.5927502500161543,-0.06838959729320561,-1.2600009134794348,0.03977525900454234,1.290141778494731,-0.181930181329847,-0.11423143302388598,0.5927034816281026,-0.06830049321706973,-1.2599849345538,0.03968552342464985,1.2901949782029103,-0.1819052308664421,1.0713670310974122,59.3378713760376,1.5573832130432128,-26.818860836029053,0.6153820610046387,-0.24030120849609374,0.20525728225708006,1.0722914500041822,10.523838856561447,0.4125889144198477,-6.245587376510878,0.010940835903515304,-0.2520171141057095,0.2049805182988932,-1.4268933823930918,1.796594168735219,17.281675858902805
1688472819.440,-0.11423459054266896,0.5927502500161543,-0.06838947741090261,-1.2600009134794348,0.03977516301143348,1.290141778494731,-0.18193012144323706,-0.11423143302388598,0.5927034816281026,-0.06830049321706973,-1.2599849345538,0.03968552342464985,1.2901949782029103,-0.1819052308664421,1.0834652786254884,59.35669087219238,1.5591439628601074,-26.841750583648682,0.6118605613708497,-0.23863245010375977,0.20525728225708006,1.0628145646365024,10.54660681086845,0.4115964804206622,-6.257607673968214,0.011458086907409439,-0.2514967117746384,0.20474658219741537,-1.4333518120438944,1.783389130219661,17.318515028731227
1688472819.508,-0.11423459054266896,0.5927502500161543,-0.06838959729320561,-1.2600009134794348,0.03977525900454234,1.290141778494731,-0.18193006155662708,-0.11423143302388598,0.5927034816281026,-0.06830049321706973,-1.2599849345538,0.03968552342464985,1.2901949782029103,-0.1819052308664421,1.065990032196045,59.37685461807251,1.541536464691162,-26.867281455993652,0.6048175621032714,-0.23863245010375977,0.20425602722167968,1.0547175017974495,10.549814996113625,0.4076343953259817,-6.261312717074203,0.011034402075871346,-0.25172977360423204,0.20526866469002064,-1.4295557945457422,1.7796831585579573,17.329117706565036
1688472819.621,-0.11420666723813246,0.5927482726671949,-0.06838468375502893,-1.260088278553137,0.03977487555570567,1.2901236822665478,-0.18190357640339425,-0.11423143302388598,0.5927034816281026,-0.06830049321706973,-1.2599849345538,0.03968552342464985,1.2901949782029103,-0.1819052308664421,1.1587432632446288,59.23436414718628,1.6595067024230956,-26.973806819915772,0.6409129333496094,-0.19023845672607423,0.1815609130859375,1.0077483354798478,10.375114347947425,0.38225528993599933,-6.179151133720451,0.011118497050729668,-0.2254914464130004,0.1891935255044701,-1.323415835376802,1.6852043646212072,17.01438658759864
1688472819.724,-0.11423261308462646,0.5927604965169436,-0.06838480363733193,-1.2602451520187987,0.03977487555570567,1.2901145742658464,-0.18190237801669656,-0.11426529525612303,0.5927939407738375,-0.06830890115593714,-1.2600355662539797,0.039700859249263025,1.2900547096230486,-0.18195450869280755,1.4464127044677735,59.11203742218017,1.6463010787963868,-26.63310173034668,0.6162624359130859,-0.12549063110351563,0.17688838958740236,1.0793036047260267,10.788991582017157,0.38004211125909,-6.319471806936329,0.00896415533050179,-0.19922003381205872,0.17450858302812128,-1.8824527118191967,1.6845854825660358,17.47223647580947
1688472819.804,-0.11584742748782127,0.5971472621458606,-0.06856648444939982,-1.2620403889607537,0.04035970571745169,1.2831395755679273,-0.1843361942800421,-0.11612407756903421,0.5977594687093879,-0.06877043387313668,-1.2628148664521381,0.04054268087948831,1.2823550177220926,-0.1846594913834219,4.483072834014893,47.79479898452759,3.569920253753662,-21.760226612091063,0.5977745628356933,0.1835634231567383,0.3457667388916016,1.7326411217131574,8.10332878424012,0.8084771203901688,-5.068246883498691,-0.02795918680944486,0.1273025909179362,0.3027148104039895,-0.6572853727127318,3.3041461961270002,12.92969504838845
1688472819.913,-0.12656569884600707,0.6258654198397322,-0.0712815105616544,-1.2784086829340624,0.045299219629386156,1.2388847092575554,-0.19992527400965918,-0.1271644856859405,0.6272526775394817,-0.07151174979904903,-1.2793227750189082,0.04554275770116325,1.2366219911215466,-0.20072598429445962,3.9951101837158203,51.48476448059082,3.2116076660156248,-22.793786754608153,0.5053351974487305,0.32507413482666014,0.3314154167175293,1.5212312346039265,8.537717517608076,0.9584518389822452,-4.832558172430192,-0.05690962667241305,0.2529813893638182,0.33213013790175727,-2.318467550577681,2.719473259771855,12.800921138074553
1688472820.118,-0.15921480216386794,0.7132916587149057,-0.07941112942640248,-1.3270558876005698,0.060073276238681805,1.1042563833921444,-0.24722922681444043,-0.15965653248668116,0.7140515269537513,-0.07957947378327064,-1.327905737899825,0.06025804072121573,1.1020291730925653,-0.24800985587433452,0.7568125953674316,64.28336611557008,2.061838035583496,-24.4691402053833,0.37768083572387695,0.35444428253173826,0.38982196044921874,0.7028688118099001,11.035853071404718,0.41618613622404643,-5.8075427641434265,-0.2145905923985446,0.21298092790878065,0.38140937023506183,-2.8483129612896425,1.1008372335748593,16.91627799646519
1688472820.123,-0.16019193587207095,0.7158423212810137,-0.07965255165885228,-1.328484467191346,0.06048994375246524,1.100299312152748,-0.24862574852476518,-0.16045708036812534,0.7161901006002968,-0.07977824855985682,-1.329102738145673,0.06062059986434381,1.098713038655376,-0.2491748487555735,0.8643525733947753,64.13549864578248,2.412227249145508,-24.542211322784425,0.4454697036743164,0.12549063110351563,0.3778069000244141,1.0081062667588165,11.13909964975382,0.535696668713673,-5.753659264261665,-0.18996603312037424,0.23293277898240808,0.380498610287045,-3.382389616267956,1.632667011128108,17.11000582563615
1688472820.224,-0.17507897970843664,0.755505012417472,-0.08348169124582494,-1.3511417228571596,0.06729736697481521,1.0386984787450428,-0.27028729494314696,-0.17524268586045635,0.7556881830848504,-0.0834494910883207,-1.3512105643226753,0.06731683450837166,1.037466164253107,-0.27069151945402076,-2.403518508911133,75.14087114715576,0.6954961776733398,-28.03994083404541,0.2456245994567871,0.09144795989990234,0.3711318664550781,0.4027408464184053,12.915843181005908,0.1865568574955455,-6.352051028774158,-0.28229582509784845,0.15845536425867504,0.3744016334251993,-3.8699693454557917,0.47696046524167907,20.110845573766486
1688472820.324,-0.18239630783125713,0.7750270151200376,-0.08527956461669826,-1.361877491141097,0.07057212842486509,1.0084050546089127,-0.2809028015331415,-0.1823129311450325,0.7745755483389187,-0.08520502184347782,-1.361782181011708,0.07051886917924864,1.0081788668771372,-0.2809804548394792,-1.0834652786254884,73.01830083084107,1.4895943450927733,-27.00902181625366,0.2914040946960449,0.14384697341918945,0.3778069000244141,0.9981421753167738,12.43520081128841,0.4563454743699157,-6.260036347377939,-0.32475944184215205,0.29156534454320554,0.3728589020199039,-2.9876066884193504,1.5481595669934975,19.27332727931677
1688472820.425,-0.18295045837724544,0.7761706098238158,-0.08547652535003505,-1.3628471947645078,0.07091967095189283,1.0052543419554827,-0.2821109313131752,-0.1830234284116098,0.7764735618937154,-0.08538143719439252,-1.362844535209977,0.07084064541042225,1.0052357519082042,-0.282014402060986,0.9033358154296875,63.73625647735596,2.362045879364014,-23.238376083374025,0.41289583206176755,0.19924975204467774,0.28969645690917967,1.075069884260697,10.407922072629024,0.7294522098618736,-5.140278301404176,-0.13832353965277006,0.2272998792857657,0.3202630106614045,-2.893768001337646,1.620809659750097,16.159677972915137
1688472820.499,-0.18286752753067384,0.7758382273575707,-0.08547598615237927,-1.362853246802772,0.07092273889165199,1.005238582723168,-0.2821113507376111,-0.1830234284116098,0.7764735618937154,-0.08538143719439252,-1.362844535209977,0.07084064541042225,1.0052357519082042,-0.282014402060986,1.2797257385253906,63.91369744110107,2.5601302337646485,-23.037650604248046,0.46483795166015623,0.1618695640563965,0.28969645690917967,1.0290037720821608,10.600575534538184,0.7198122419313457,-5.111193007584964,-0.09486210086113891,0.19380733113379578,0.2935797425476274,-3.328238346948511,1.391646634727831,16.479870812921515
1688472820.598,-0.1829973766454468,0.7763050728255495,-0.08547712465246696,-1.3628923153435797,0.07092523157088967,1.0052286957602048,-0.28211141062422107,-0.1830234284116098,0.7764735618937154,-0.08538143719439252,-1.362844535209977,0.07084064541042225,1.0052357519082042,-0.282014402060986,1.2810699882507324,64.28471036529541,2.319787883758545,-23.697931785583496,0.41377620697021483,0.3214028663635254,0.28469018173217775,1.2336617554893343,10.638892730534268,0.6180485458914969,-5.383498678139177,-0.10442433556669818,0.21895975620677727,0.2868668602362788,-2.4447822480303096,1.917958948810716,16.590163501192166
1688472820.699,-0.18304573295586873,0.7765038911346258,-0.08547706465677392,-1.3628921954612767,0.07092686135934519,1.0052230631463763,-0.28211153050652404,-0.1830234284116098,0.7764735618937154,-0.08538143719439252,-1.362844535209977,0.07084064541042225,1.0052357519082042,-0.282014402060986,1.1896610069274902,64.04946666336059,2.3682085037231446,-23.359867820739744,0.45251270294189455,0.20425602722167968,0.2826876716613769,1.250769542789078,10.620806014148993,0.6277994202508577,-5.207683794924864,-0.10775792376494747,0.19553240189703885,0.2840040674258639,-3.0427644119182196,1.7972725909243525,16.528193639883014
1688472820.837,-0.18302853557225032,0.7765234254050295,-0.085476705118948,-1.3628927947637084,0.07092782024323624,1.0052216249950725,-0.28211153050652404,-0.1830234284116098,0.7764735618937154,-0.08538143719439252,-1.362844535209977,0.07084064541042225,1.0052357519082042,-0.282014402060986,1.0619572830200195,64.16641638946533,2.421911373138428,-23.16794609069824,0.4454697036743164,0.21093106079101562,0.27901640319824217,1.0143819780670835,10.640293437745722,0.6009311821687136,-5.218493282104802,-0.1065822237341523,0.2032649051291323,0.28142290651608426,-3.0218470274941907,1.4143821107413312,16.5634444390958
1688472820.906,-0.18302589903424907,0.7765230658672035,-0.08547712465246696,-1.3628918959191438,0.07092897058974622,1.005220486494985,-0.28211153050652404,-0.1830234284116098,0.7764735618937154,-0.08538143719439252,-1.362844535209977,0.07084064541042225,1.0052357519082042,-0.282014402060986,0.8898933181762695,64.05215516281127,2.2590420150756834,-23.085190849304198,0.4172977066040039,0.20992980575561523,0.2803514099121094,1.0190378574986239,10.575250850101616,0.6454963178458204,-5.22752813722243,-0.10412411806219535,0.20901939755259777,0.2805032162313441,-2.8434177724030283,1.4654799982236768,16.4642523502978
1688472821.009,-0.18302104538268232,0.7765233055227265,-0.08547664523233804,-1.3628929145369286,0.0709298334805284,1.0052196476461133,-0.28211153050652404,-0.1830234284116098,0.7764735618937154,-0.08538143719439252,-1.362844535209977,0.07084064541042225,1.0052357519082042,-0.282014402060986,1.2488079948425292,64.18658013534547,2.4650497436523438,-23.233974208831786,0.43930707931518553,0.22561613464355468,0.277681396484375,1.1256214736907888,10.6104169469235,0.6622873278194206,-5.2471518113846525,-0.09896013649067478,0.21767267221896022,0.2795862972851677,-2.880735503178742,1.6282632214023396,16.502258609511184
1688472821.109,-0.18302086572285248,0.7765235452873326,-0.085476944883554,-1.362893993150406,0.0709305045596258,1.0052189884570715,-0.28211153050652404,-0.1830234284116098,0.7764735618937154,-0.08538143719439252,-1.362844535209977,0.07084064541042225,1.0052357519082042,-0.282014402060986,1.0928750267028808,64.19867838287354,2.340916881561279,-23.521856803894043,0.4172977066040039,0.24030120849609374,0.2803514099121094,1.1245760866575043,10.660634965353882,0.6829718147922688,-5.27289940714427,-0.0946354796255217,0.22259965722147343,0.278871479750957,-2.8739435281639834,1.6296531107174896,16.57708802601296
1688472821.210,-0.18301990688259462,0.7765231257538137,-0.08547712465246696,-1.3628935137302773,0.07093098400157133,1.0052183892637225,-0.28211153050652404,-0.1830234284116098,0.7764735618937154,-0.08538143719439252,-1.362844535209977,0.07084064541042225,1.0052357519082042,-0.282014402060986,0.9718925514221192,63.95536918258667,2.253759765625,-23.38099681854248,0.42169958114624023,0.23829869842529297,0.279350154876709,1.1309068198404315,10.619331082084106,0.6749829943714118,-5.273405224245716,-0.09565890198994195,0.2221473285308801,0.2786120892351375,-2.7933442451433543,1.6472357374940696,16.51477428771863
1688472821.312,-0.18301918791602587,0.7765229459849006,-0.085476944883554,-1.3628920756880567,0.07093165508066872,1.0052179698392867,-0.28211153050652404,-0.1830234284116098,0.7764735618937154,-0.08538143719439252,-1.362844535209977,0.07084064541042225,1.0052357519082042,-0.282014402060986,1.2219230003356933,63.94058243560791,2.3752515029907224,-23.086071224212645,0.42610145568847657,0.23062240982055665,0.2770138931274414,1.1136954393644767,10.548337600078886,0.6320748189814677,-5.204783506633968,-0.10260731260185221,0.22372465643434886,0.27792884097282927,-2.918622577167786,1.595067270785069,16.384531940616426
1688472821.412,-0.1830190680337229,0.7765233055227265,-0.08547682500125099,-1.3628933339613643,0.07093213452261424,1.0052174305325476,-0.28211153050652404,-0.1830234284116098,0.7764735618937154,-0.08538143719439252,-1.362844535209977,0.07084064541042225,1.0052357519082042,-0.282014402060986,1.1681530113220215,64.30756261062622,2.397260875701904,-23.37747531890869,0.42874258041381835,0.24397247695922852,0.2786826515197754,1.1568936033866988,10.593161078503732,0.6713790356143833,-5.223683575507393,-0.09504341328102694,0.22790816946865508,0.2778105241378829,-2.9589034784767465,1.6574127766615123,16.449061659043835
1688472821.513,-0.18301936768493884,0.7765233055227265,-0.08547706465677392,-1.3628937534948833,0.07093270978313569,1.0052172507636346,-0.2821113507376111,-0.1830234284116098,0.7764735618937154,-0.08538143719439252,-1.362844535209977,0.07084064541042225,1.0052357519082042,-0.282014402060986,1.091530776977539,64.2779891166687,2.3373953819274904,-23.426776313781737,0.42610145568847657,0.24831124877929686,0.2763463897705078,1.108549843483017,10.706396313850604,0.6504869899891895,-5.295081973451218,-0.1015010650520041,0.23314889874791514,0.27700475542510117,-2.9191029691834696,1.5858736417517114,16.627136780248946
1688472821.647,-0.18301918791602587,0.7765228860982907,-0.085476944883554,-1.3628932141881445,0.07093318905054828,1.005216831339199,-0.282111650279744,-0.1830234284116098,0.7764735618937154,-0.08538143719439252,-1.362844535209977,0.07084064541042225,1.0052357519082042,-0.282014402060986,1.1237927703857422,63.935205436706546,2.354122505187988,-23.272710704803465,0.42081920623779295,0.25098126220703126,0.2826876716613769,1.1162510953292033,10.662524978617517,0.6469000929447071,-5.267856059722591,-0.10412562097303735,0.23560774585899197,0.27713744419050296,-2.9373813243840803,1.594157739318061,16.5491428714266
1688472821.715,-0.18301912792033284,0.7765228262116808,-0.08547706465677392,-1.3628931541924514,0.07093347668080902,1.005216411914763,-0.28211141062422107,-0.1830234284116098,0.7764735618937154,-0.08538143719439252,-1.362844535209977,0.07084064541042225,1.0052357519082042,-0.282014402060986,1.1170715217590332,64.00510642242432,2.3435580062866213,-23.271830329895018,0.4199388313293457,0.2533175239562988,0.277681396484375,1.1137913699006705,10.585321443496415,0.6438488546612817,-5.223495137547186,-0.10795736402433098,0.23834944432201205,0.2766898255681531,-2.9495685347985736,1.5866848565197542,16.417641450513727
1688472821.815,-0.18301918791602587,0.7765230658672035,-0.08547706465677392,-1.3628935137302773,0.07093395612275454,1.0052161122635472,-0.28211153050652404,-0.1830234284116098,0.7764735618937154,-0.08538143719439252,-1.362844535209977,0.07084064541042225,1.0052357519082042,-0.282014402060986,1.1063175239562988,64.1946456336975,2.3347542572021482,-23.36779119491577,0.4172977066040039,0.2559875373840332,0.276012638092041,1.1039444933425766,10.62237944762346,0.6353937235552347,-5.250157622484199,-0.10818350879964148,0.24223846266874277,0.27613020063034727,-2.9288259755656325,1.5740602806331543,16.473226165753143
1688472821.915,-0.18301918791602587,0.7765230059805937,-0.08547712465246696,-1.3628933339613643,0.07093433957159122,1.005215992381244,-0.282111650279744,-0.1830234284116098,0.7764735618937154,-0.08538143719439252,-1.362844535209977,0.07084064541042225,1.0052357519082042,-0.282014402060986,1.0995962753295898,64.15028539276123,2.330352382659912,-23.311447200775145,0.41817808151245117,0.2566550407409668,0.27501138305664063,1.0920225483674142,10.65218902683617,0.6279427290146027,-5.266165485873809,-0.10985155910021188,0.24450936720455732,0.27465675714481486,-2.9300625211091096,1.5513918900755232,16.51709379838365
1688472822.017,-0.18301930768924582,0.7765230059805937,-0.08547712465246696,-1.3628933339613643,0.07093472302042787,1.0052156928391112,-0.28211153050652404,-0.1830234284116098,0.7764735618937154,-0.08538143719439252,-1.362844535209977,0.07084064541042225,1.0052357519082042,-0.282014402060986,1.1063175239562988,64.08576140594482,2.3321131324768065,-23.305284576416014,0.4225799560546875,0.25932505416870116,0.27401012802124025,1.1053339597980658,10.640749421838684,0.6346037723823543,-5.252003696734992,-0.1081320697697671,0.244078141512718,0.27487529738415944,-2.958991647494421,1.562643111598981,16.493534051930517
1688472822.118,-0.18301918791602587,0.7765230658672035,-0.08547712465246696,-1.3628933339613643,0.07093481901353674,1.0052155729568082,-0.282111650279744,-0.1830234284116098,0.7764735618937154,-0.08538143719439252,-1.362844535209977,0.07084064541042225,1.0052357519082042,-0.282014402060986,1.1063175239562988,64.11130215072632,2.3277112579345705,-23.339619197845458,0.42081920623779295,0.25999255752563477,0.2753451347351074,1.0999723753431097,10.634247962063773,0.6291138980084576,-5.25175033843026,-0.10834601466996488,0.24472548214620637,0.2757176981088039,-2.945838696019246,1.5612020305541656,16.48276357326587
1688472822.219,-0.18301930768924582,0.7765230059805937,-0.08547712465246696,-1.3628934538436674,0.07093520246237338,1.0052155729568082,-0.28211153050652404,-0.1830234284116098,0.7764735618937154,-0.08538143719439252,-1.362844535209977,0.07084064541042225,1.0052357519082042,-0.282014402060986,1.098252025604248,64.11533489990235,2.323309383392334,-23.325533199310303,0.4225799560546875,0.25865755081176756,0.27501138305664063,1.092857088484616,10.635911262463432,0.6234907040689655,-5.257663198608705,-0.11011937649976139,0.24498482180832637,0.2750154203935203,-2.9289583536664776,1.5532084108666995,16.48946358064689
1688472822.319,-0.18301930768924582,0.7765230059805937,-0.08547706465677392,-1.3628932141881445,0.07093549009263413,1.0052151535323723,-0.28211153050652404,-0.1830234284116098,0.7764735618937154,-0.08538143719439252,-1.362844535209977,0.07084064541042225,1.0052357519082042,-0.282014402060986,1.0955635261535646,64.10054815292358,2.3215486335754396,-23.307925701141357,0.41905845642089845,0.2566550407409668,0.2753451347351074,1.0933616265777215,10.629406639320392,0.6232784439548043,-5.247897129101698,-0.10836947561549193,0.24409059743608102,0.2744163033782827,-2.951640107003572,1.5475428497141284,16.478027959181105
1688472822.420,-0.18301918791602587,0.7765230059805937,-0.08547724442568688,-1.3628933339613643,0.0709356819043189,1.0052150336500694,-0.28211153050652404,-0.1830234284116098,0.7764735618937154,-0.08538143719439252,-1.362844535209977,0.07084064541042225,1.0052357519082042,-0.282014402060986,1.091530776977539,64.10861365127563,2.3189075088500974,-23.32641357421875,0.4164173316955566,0.2606600608825684,0.27234136962890626,1.0938620346981847,10.628373399758033,0.6223622247291113,-5.247131402835852,-0.10877341587826955,0.244975604320958,0.27447317586051245,-2.9531646926843043,1.5537080909777319,16.47394067560749
1688472822.557,-0.18301918791602587,0.7765230658672035,-0.08547724442568688,-1.3628934538436674,0.07093606535315558,1.0052148538811563,-0.28211141062422107,-0.1830234284116098,0.7764735618937154,-0.08538143719439252,-1.362844535209977,0.07084064541042225,1.0052357519082042,-0.282014402060986,1.1063175239562988,64.0817286567688,2.3347542572021482,-23.322011699676512,0.42610145568847657,0.2583237991333008,0.27234136962890626,1.0921217996623558,10.623097846300961,0.6200697154033339,-5.244083274668,-0.10896013889793729,0.24523302575343864,0.27323301867254907,-2.950026690907297,1.5489015448630312,16.46476262626743
1688472822.626,-0.18301912792033284,0.7765230658672035,-0.08547724442568688,-1.3628932740747541,0.0709361611717315,1.0052147341079365,-0.28211153050652404,-0.1830234284116098,0.7764735618937154,-0.08538143719439252,-1.362844535209977,0.07084064541042225,1.0052357519082042,-0.282014402060986,1.0928750267028808,64.08307290649414,2.3180271339416505,-23.30704532623291,0.4199388313293457,0.26032630920410155,0.27234136962890626,1.0931360301053623,10.626962866783382,0.6196462460593223,-5.246977344360717,-0.10888755453860176,0.24471715545164086,0.27354929879763856,-2.95046855737914,1.5457384202724842,16.472813366616077
1688472822.727,-0.18301912792033284,0.7765230658672035,-0.08547724442568688,-1.3628933339613643,0.07093635298341631,1.0052145543390234,-0.282111650279744,-0.1830234284116098,0.7764735618937154,-0.08538143719439252,-1.362844535209977,0.07084064541042225,1.0052357519082042,-0.282014402060986,1.0834652786254884,64.08979415512086,2.3145056343078614,-23.331695823669435,0.42169958114624023,0.26166131591796876,0.2696713562011719,1.0921903827728134,10.619607129307154,0.6220537046100066,-5.246818974220952,-0.10917543315247179,0.24593340273219239,0.27300948375162526,-2.9374475555282094,1.5466459430135935,16.460711267423928
1688472822.826,-0.18301918791602587,0.7765230658672035,-0.08547724442568688,-1.3628933339613643,0.07093664061367702,1.0052142546878076,-0.28211141062422107,-0.1830234284116098,0.7764735618937154,-0.08538143719439252,-1.362844535209977,0.07084064541042225,1.0052357519082042,-0.282014402060986,1.0955635261535646,64.1462526435852,2.3145056343078614,-23.311447200775145,0.4164173316955566,0.2556537857055664,0.27200761795043943,1.0867536628627548,10.633683508212687,0.6174426952295433,-5.247984875986346,-0.10944631467418527,0.2442998034034196,0.2720491058264337,-2.9617204598101985,1.5372518550026053,16.485038395457064
1688472822.927,-0.18301912792033284,0.7765230059805937,-0.08547724442568688,-1.3628933339613643,0.0709368322508289,1.0052142546878076,-0.28211153050652404,-0.1830234284116098,0.7764735618937154,-0.08538143719439252,-1.362844535209977,0.07084064541042225,1.0052357519082042,-0.282014402060986,1.0821210289001464,64.09113840484619,2.3206682586669922,-23.307925701141357,0.41905845642089845,0.25865755081176756,0.27300887298583987,1.0905140667453694,10.636103308763916,0.6175443497898562,-5.247740791679208,-0.10820304840700336,0.2435973172404055,0.27241089714974964,-2.9658337102936043,1.5356385916564612,16.490336258624215
1688472822.997,-0.18301912792033284,0.7765231257538137,-0.08547712465246696,-1.3628933339613643,0.0709370240625137,1.0052142546878076,-0.28211153050652404,-0.1830234284116098,0.7764735618937154,-0.08538143719439252,-1.362844535209977,0.07084064541042225,1.0052357519082042,-0.282014402060986,1.1009405250549316,64.11533489990235,2.3285916328430174,-23.309686450958253,0.424340705871582,0.2556537857055664,0.27200761795043943,1.0901700958834422,10.637887975547887,0.6161804762352294,-5.249860671089246,-0.10824431020747685,0.2429890953651434,0.2727998677644732,-2.958108247714778,1.5374730425978387,16.492220376192254
1688472823.096,-0.18301918791602587,0.7765230658672035,-0.08547712465246696,-1.3628932740747541,0.07093721587419849,1.0052140150322846,-0.282111650279744,-0.1830234284116098,0.7764735618937154,-0.08538143719439252,-1.362844535209977,0.07084064541042225,1.0052357519082042,-0.282014402060986,1.0942192764282226,64.08576140594482,2.3127448844909666,-23.317609825134276,0.41201545715332033,0.2583237991333008,0.2713401145935059,1.091268453158895,10.621403655983077,0.6159575692385787,-5.242716699167272,-0.10972162513954564,0.2423954137431269,0.2720413946525386,-2.947825158972137,1.534330271686834,16.467779241115256
1688472823.228,-0.18301918791602587,0.7765229459849006,-0.08547724442568688,-1.3628932141881445,0.07093740751135036,1.0052138352633717,-0.28211153050652404,-0.1830234284116098,0.7764735618937154,-0.08538143719439252,-1.362844535209977,0.07084064541042225,1.0052357519082042,-0.282014402060986,1.0861537780761719,64.10323665237426,2.3083430099487305,-23.30000232696533,0.4155369567871094,0.25365127563476564,0.27100636291503905,1.0888672159148396,10.635397409750427,0.6134047139948741,-5.249009788669349,-0.10907035159912659,0.24264635288854075,0.2720511882846091,-2.9558875283143187,1.535376239836162,16.48481743091724
1688472823.297,-0.18301918791602587,0.7765230658672035,-0.08547712465246696,-1.3628933339613643,0.07093769514161109,1.0052137153810685,-0.282111650279744,-0.1830234284116098,0.7764735618937154,-0.08538143719439252,-1.362844535209977,0.07084064541042225,1.0052357519082042,-0.282014402060986,1.0888422775268554,64.11264640045167,2.3127448844909666,-23.305284576416014,0.41377620697021483,0.2556537857055664,0.27000510787963866,1.089016778838075,10.63566540293982,0.6133123901553874,-5.250092473522228,-0.10929655843690553,0.24247891231761293,0.2717549706933783,-2.956318020327911,1.5368833876489902,16.495286749348267
