Edkamb/ConfLiftingaaS/DTProject/experiments/first_experiment/joint_position_data.csv
timestamp,actual_q_0,actual_q_1,actual_q_2,actual_q_3,actual_q_4,actual_q_5,actual_q_6,target_q_0,target_q_1,target_q_2,target_q_3,target_q_4,target_q_5,target_q_6,measured_tq_0,measured_tq_1,measured_tq_2,measured_tq_3,measured_tq_4,measured_tq_5,measured_tq_6,external_tq_0,external_tq_1,external_tq_2,external_tq_3,external_tq_4,external_tq_5,external_tq_6,force_X,force_Y,force_Z
1688472630.801,-0.11422470357970566,0.5927394043220163,-0.06837479679206562,-1.2600121787070915,0.03977036946464287,1.2901298541871151,-0.18192508802275736,-0.11423143302388598,0.5927034816281026,-0.06830049321706973,-1.2599849345538,0.03968552342464985,1.2901949782029103,-0.1819052308664421,1.052547534942627,59.38895286560059,1.5353738403320312,-26.83910945892334,0.6092194366455078,-0.23696369171142578,0.20425602722167968,1.055282011179683,10.536501443822448,0.4051848949147929,-6.251144564042134,0.008949430530664298,-0.24889974237394308,0.20327619458811538,-1.435622343252131,1.7678516034114375,17.29591004147999
1688472630.928,-0.11422470357970566,0.5927393443263232,-0.06837479679206562,-1.2600121787070915,0.03977036946464287,1.2901298541871151,-0.18192508802275736,-0.11423143302388598,0.5927034816281026,-0.06830049321706973,-1.2599849345538,0.03968552342464985,1.2901949782029103,-0.1819052308664421,1.059268783569336,59.38357586669922,1.5406560897827148,-26.86464033126831,0.6145016860961914,-0.2346274299621582,0.20425602722167968,1.0638265825419118,10.536775878702846,0.4082762181042267,-6.248774408302744,0.011790081698960092,-0.2486415542489589,0.20336825989487517,-1.441425249167277,1.7778411826279192,17.287665166620396
1688472631.004,-0.11422470357970566,0.5927394043220163,-0.06837479679206562,-1.2600121787070915,0.03977046528321881,1.2901298541871151,-0.18192508802275736,-0.11423143302388598,0.5927034816281026,-0.06830049321706973,-1.2599849345538,0.03968552342464985,1.2901949782029103,-0.1819052308664421,1.0565802841186522,59.366100620269776,1.534493465423584,-26.881367454528807,0.606578311920166,-0.234961181640625,0.20392227554321288,1.0690106747495944,10.535698761841429,0.41365564638703606,-6.246104675535799,0.014079136402819319,-0.24874187238861067,0.2040028615206771,-1.456156674610518,1.7880306645571316,17.288165336981734
1688472631.105,-0.11422470357970566,0.5927394043220163,-0.06837479679206562,-1.2600121787070915,0.03977036946464287,1.2901298541871151,-0.18192520790506037,-0.11423143302388598,0.5927034816281026,-0.06830049321706973,-1.2599849345538,0.03968552342464985,1.2901949782029103,-0.1819052308664421,1.0646457824707032,59.37282186889649,1.531852340698242,-26.855836582183837,0.6039371871948243,-0.2356286849975586,0.2035885238647461,1.0677293962029244,10.539692515925996,0.412619039829409,-6.2528512766598165,0.012820329616897063,-0.24874652398510624,0.20369834523712482,-1.4454111727920023,1.7861362658534148,17.30513389449646
1688472631.204,-0.11422476346631562,0.5927393443263232,-0.06837479679206562,-1.2600121787070915,0.03977046528321881,1.2901298541871151,-0.18192520790506037,-0.11423143302388598,0.5927034816281026,-0.06830049321706973,-1.2599849345538,0.03968552342464985,1.2901949782029103,-0.1819052308664421,1.059268783569336,59.366100620269776,1.531852340698242,-26.847032833099366,0.6039371871948243,-0.2359624366760254,0.20425602722167968,1.0658620021453689,10.534450116202777,0.41087416731802295,-6.249551298191173,0.011755750174539623,-0.24874408394677555,0.2036802732781885,-1.4386995714645097,1.785116316100483,17.292068834705443
1688472631.304,-0.11422470357970566,0.5927392844397132,-0.06837479679206562,-1.2600121787070915,0.03977036946464287,1.2901298541871151,-0.18192508802275736,-0.11423143302388598,0.5927034816281026,-0.06830049321706973,-1.2599849345538,0.03968552342464985,1.2901949782029103,-0.1819052308664421,1.0579245338439942,59.37819886779785,1.5380149650573731,-26.87784595489502,0.6083390617370605,-0.23162366485595703,0.2019197654724121,1.062099043025077,10.537646814862695,0.4106046652550328,-6.248189852533242,0.011145699602838018,-0.2483498480125236,0.2032382615790464,-1.4520846699646208,1.7765031089355126,17.29154523535025
1688472631.406,-0.11422470357970566,0.5927392844397132,-0.06837479679206562,-1.2600121787070915,0.03977036946464287,1.2901298541871151,-0.18192520790506037,-0.11423143302388598,0.5927034816281026,-0.06830049321706973,-1.2599849345538,0.03968552342464985,1.2901949782029103,-0.1819052308664421,1.059268783569336,59.38492011642456,1.5432972145080566,-26.88400857925415,0.6074586868286133,-0.23329242324829103,0.20058475875854492,1.0627339214169687,10.541014763737142,0.4079278853975957,-6.254493909062011,0.009899955628956132,-0.24820879046127614,0.2035607946818429,-1.4356697369151907,1.7801543333722356,17.302677458732067
1688472631.538,-0.11422476346631562,0.5927393443263232,-0.06837485667867557,-1.2600121787070915,0.03977046528321881,1.2901298541871151,-0.18192508802275736,-0.11423143302388598,0.5927034816281026,-0.06830049321706973,-1.2599849345538,0.03968552342464985,1.2901949782029103,-0.1819052308664421,1.0794325294494629,59.37416611862183,1.5582635879516602,-26.850554332733154,0.6189035606384278,-0.23629618835449218,0.20458977890014649,1.0652533353063962,10.5376013630892,0.40722317228645755,-6.254787262460815,0.010074724974933988,-0.2487846940410881,0.2030636510466775,-1.425210485017215,1.7846019494922545,17.30187684382518
1688472631.606,-0.11422470357970566,0.5927394043220163,-0.06837479679206562,-1.2600121787070915,0.03977036946464287,1.2901298541871151,-0.18192526779167031,-0.11423143302388598,0.5927034816281026,-0.06830049321706973,-1.2599849345538,0.03968552342464985,1.2901949782029103,-0.1819052308664421,1.0673342819213867,59.38895286560059,1.5573832130432128,-26.8514347076416,0.6197839355468749,-0.2336261749267578,0.2029210205078125,1.0676654305512083,10.540119458017315,0.4113154298864851,-6.250723239607019,0.011451844726143655,-0.24851873803275665,0.20325411099823948,-1.4485711699396917,1.785660377255506,17.297428645164977
1688472631.707,-0.11422476346631562,0.5927393443263232,-0.06837485667867557,-1.2600121787070915,0.03977046528321881,1.2901298541871151,-0.18192520790506037,-0.11423143302388598,0.5927034816281026,-0.06830049321706973,-1.2599849345538,0.03968552342464985,1.2901949782029103,-0.1819052308664421,1.0646457824707032,59.3540023727417,1.5485794639587402,-26.856716957092285,0.6162624359130859,-0.2342936782836914,0.2035885238647461,1.065691826946988,10.540094869089081,0.41174380416634127,-6.2479452650369645,0.011204229049907215,-0.24863669981491238,0.20340832560735464,-1.459172100868191,1.7813865815248515,17.293632407506255
1688472631.806,-0.11422470357970566,0.5927392844397132,-0.06837479679206562,-1.2600121787070915,0.03977046528321881,1.2901298541871151,-0.18192508802275736,-0.11423143302388598,0.5927034816281026,-0.06830049321706973,-1.2599849345538,0.03968552342464985,1.2901949782029103,-0.1819052308664421,1.0552360343933105,59.3701333694458,1.5309719657897949,-26.853195457458497,0.6100998115539551,-0.2346274299621582,0.20458977890014649,1.0622312560199565,10.53272199530645,0.4068227400630594,-6.256249145090723,0.010558545385489414,-0.24794833961643187,0.20356816540985,-1.4084085645344846,1.7834180106705082,17.298607546324448
1688472631.910,-0.11422470357970566,0.5927394043220163,-0.06837479679206562,-1.2600121787070915,0.03977046528321881,1.2901298541871151,-0.18192508802275736,-0.11423143302388598,0.5927034816281026,-0.06830049321706973,-1.2599849345538,0.03968552342464985,1.2901949782029103,-0.1819052308664421,1.072711280822754,59.387608615875244,1.5591439628601074,-26.847913208007814,0.6197839355468749,-0.2342936782836914,0.2049235305786133,1.0604401639656327,10.536636098690526,0.404176100309748,-6.251015447804164,0.009153232526509385,-0.24837147998036074,0.20361774354547602,-1.4376923329363898,1.7756980142257168,17.294635034695716
1688472632.010,-0.11422470357970566,0.5927392844397132,-0.06837485667867557,-1.2600121787070915,0.03977036946464287,1.2901298541871151,-0.18192508802275736,-0.11423143302388598,0.5927034816281026,-0.06830049321706973,-1.2599849345538,0.03968552342464985,1.2901949782029103,-0.1819052308664421,1.0700227813720704,59.37416611862183,1.560904712677002,-26.887530078887938,0.6197839355468749,-0.2339599266052246,0.20392227554321288,1.0650056256286873,10.5406411997708,0.4089014640980658,-6.247495262653362,0.011528260154038522,-0.2486998825333507,0.20333817926574238,-1.4619026808244246,1.7792870880978735,17.297943755029902
1688472632.109,-0.11422470357970566,0.5927392844397132,-0.06837479679206562,-1.2600121787070915,0.03977036946464287,1.290129914073725,-0.18192508802275736,-0.11423143302388598,0.5927034816281026,-0.06830049321706973,-1.2599849345538,0.03968552342464985,1.2901949782029103,-0.1819052308664421,1.0686785316467284,59.37954311752319,1.551220588684082,-26.884888954162598,0.6171428108215332,-0.2339599266052246,0.20392227554321288,1.0654824811177934,10.541557282686385,0.41129275179461855,-6.24980190626491,0.012262373946291663,-0.24882826467620678,0.20329648784372129,-1.4534877887641602,1.7784141221917873,17.29969939068756
1688472632.211,-0.11422476346631562,0.5927394043220163,-0.06837479679206562,-1.2600121787070915,0.03977036946464287,1.2901298541871151,-0.18192508802275736,-0.11423143302388598,0.5927034816281026,-0.06830049321706973,-1.2599849345538,0.03968552342464985,1.2901949782029103,-0.1819052308664421,1.0417935371398925,59.382231616973876,1.5230485916137695,-26.85407583236694,0.6021764373779297,-0.2336261749267578,0.20525728225708006,1.0611880122346262,10.54688571073837,0.4101517569956623,-6.253356070047419,0.010312799448491169,-0.24892625777816585,0.20391154638547987,-1.4539145161187697,1.7759632346901433,17.306945415163007
1688472632.310,-0.11422470357970566,0.5927393443263232,-0.06837479679206562,-1.2600121787070915,0.03977036946464287,1.2901298541871151,-0.18192508802275736,-0.11423143302388598,0.5927034816281026,-0.06830049321706973,-1.2599849345538,0.03968552342464985,1.2901949782029103,-0.1819052308664421,1.0512032852172852,59.34459262466431,1.5274504661560058,-26.855836582183837,0.606578311920166,-0.23262491989135742,0.2019197654724121,1.0579435873567868,10.541491878712954,0.4079452378322408,-6.247260087506179,0.010521585757156799,-0.24893050821010598,0.20367357281257792,-1.459334192687672,1.7729741652600486,17.29037860906191
1688472632.445,-0.11422476346631562,0.5927393443263232,-0.06837485667867557,-1.2600121787070915,0.03977036946464287,1.2901298541871151,-0.18192520790506037,-0.11423143302388598,0.5927034816281026,-0.06830049321706973,-1.2599849345538,0.03968552342464985,1.2901949782029103,-0.1819052308664421,1.0579245338439942,59.3956741142273,1.5406560897827148,-26.840870208740235,0.606578311920166,-0.234961181640625,0.2032547721862793,1.060761759855202,10.55187036554035,0.40752472286695757,-6.253415252444189,0.009982685468299467,-0.24849353594716697,0.20340016158740387,-1.4719870748222565,1.7653189209269282,17.31149385540486
1688472632.513,-0.11422470357970566,0.5927393443263232,-0.06837485667867557,-1.2600121787070915,0.03977036946464287,1.2901298541871151,-0.18192508802275736,-0.11423143302388598,0.5927034816281026,-0.06830049321706973,-1.2599849345538,0.03968552342464985,1.2901949782029103,-0.1819052308664421,1.0431377868652343,59.41987060928345,1.5336130905151366,-26.85407583236694,0.6074586868286133,-0.2356286849975586,0.2025872688293457,1.0578820460941647,10.549688120776848,0.4076205708272162,-6.256213436632567,0.01018363803371347,-0.24795148565586983,0.20345568176186463,-1.450435430114276,1.7700983000376382,17.31094221494068
1688472632.612,-0.11422476346631562,0.5927393443263232,-0.06837479679206562,-1.2600121787070915,0.03977046528321881,1.2901298541871151,-0.18192520790506037,-0.11423143302388598,0.5927034816281026,-0.06830049321706973,-1.2599849345538,0.03968552342464985,1.2901949782029103,-0.1819052308664421,1.072711280822754,59.366100620269776,1.5450579643249511,-26.83206645965576,0.6109801864624024,-0.23629618835449218,0.20392227554321288,1.0589278054009337,10.55401988181646,0.4073382160054001,-6.249693000551442,0.011860536910302831,-0.248327846023622,0.20367550336517354,-1.486626995200966,1.7660244989832965,17.30552718775144
1688472632.712,-0.11422470357970566,0.5927393443263232,-0.06837479679206562,-1.2600121787070915,0.03977036946464287,1.2901298541871151,-0.18192520790506037,-0.11423143302388598,0.5927034816281026,-0.06830049321706973,-1.2599849345538,0.03968552342464985,1.2901949782029103,-0.1819052308664421,1.0538917846679687,59.33518287658691,1.5362542152404786,-26.837348709106443,0.6100998115539551,-0.2356286849975586,0.2035885238647461,1.0710208081640802,10.537135313638087,0.41393440571083984,-6.241337341529857,0.01323290929727448,-0.24863353793980508,0.20365367274634882,-1.4786911781254646,1.7870808910360423,17.28204361245495
1688472632.811,-0.11422470357970566,0.5927393443263232,-0.06837479679206562,-1.2600121787070915,0.03977036946464287,1.290129914073725,-0.18192520790506037,-0.11423143302388598,0.5927034816281026,-0.06830049321706973,-1.2599849345538,0.03968552342464985,1.2901949782029103,-0.1819052308664421,1.039105037689209,59.37819886779785,1.5309719657897949,-26.87080295562744,0.6083390617370605,-0.234961181640625,0.2049235305786133,1.0621151356730796,10.534063688771301,0.41049230009585724,-6.246640636478777,0.01250977193442945,-0.24872736933896233,0.20325590027730672,-1.4488295599200272,1.7768832551738383,17.28757134268944
1688472632.911,-0.11422470357970566,0.5927393443263232,-0.06837491656528553,-1.2600121787070915,0.03977046528321881,1.2901298541871151,-0.18192508802275736,-0.11423143302388598,0.5927034816281026,-0.06830049321706973,-1.2599849345538,0.03968552342464985,1.2901949782029103,-0.1819052308664421,1.0646457824707032,59.40105111312866,1.5432972145080566,-26.846152458190918,0.6100998115539551,-0.2352949333190918,0.2032547721862793,1.0606943690622548,10.548451084317387,0.40855976824362505,-6.256879106217856,0.011766579011937752,-0.24833647700815784,0.20347616330334162,-1.4446232205507366,1.775341274404331,17.311952522363107
1688472633.011,-0.11422476346631562,0.5927394043220163,-0.06837497656097857,-1.2600121787070915,0.03977036946464287,1.2901298541871151,-0.18192508802275736,-0.11423143302388598,0.5927034816281026,-0.06830049321706973,-1.2599849345538,0.03968552342464985,1.2901949782029103,-0.1819052308664421,1.0606130332946777,59.3540023727417,1.5362542152404786,-26.841750583648682,0.6021764373779297,-0.2359624366760254,0.20225351715087891,1.0651411156310615,10.542668130394679,0.4106240088101413,-6.25417794278023,0.011736095925552806,-0.24896903918271585,0.20319027030036646,-1.440399018615484,1.7827930589053114,17.305272908781614
1688472633.110,-0.11422470357970566,0.5927393443263232,-0.06837479679206562,-1.2600121787070915,0.03977046528321881,1.2901298541871151,-0.18192508802275736,-0.11423143302388598,0.5927034816281026,-0.06830049321706973,-1.2599849345538,0.03968552342464985,1.2901949782029103,-0.1819052308664421,1.0606130332946777,59.36341212081909,1.534493465423584,-26.866401081085204,0.606578311920166,-0.2339599266052246,0.2029210205078125,1.065290990293861,10.52748548437253,0.40937310009740424,-6.245266413606235,0.009915965298480116,-0.2486856731673685,0.2032646465909968,-1.4378787165302385,1.7835871739362028,17.280527690890008
1688472633.244,-0.11422470357970566,0.5927393443263232,-0.06837479679206562,-1.2600122385937014,0.03977036946464287,1.2901298541871151,-0.18192508802275736,-0.11423143302388598,0.5927034816281026,-0.06830049321706973,-1.2599849345538,0.03968552342464985,1.2901949782029103,-0.1819052308664421,1.0565802841186522,59.4118051109314,1.5476990890502929,-26.879606704711914,0.6145016860961914,-0.234961181640625,0.2032547721862793,1.0625728476510699,10.547583414236751,0.40673600565960066,-6.256752095933805,0.009806897610910907,-0.24814341329672457,0.2035726232156237,-1.437782733746081,1.7751331667615577,17.30660042670088
1688472633.312,-0.11422476346631562,0.5927394043220163,-0.06837485667867557,-1.2600121787070915,0.03977036946464287,1.2901298541871151,-0.18192520790506037,-0.11423143302388598,0.5927034816281026,-0.06830049321706973,-1.2599849345538,0.03968552342464985,1.2901949782029103,-0.1819052308664421,1.0861537780761719,59.35669087219238,1.5732299613952636,-26.827664585113524,0.6233054351806641,-0.234961181640625,0.2029210205078125,1.0571542540067844,10.553755597779285,0.4055418467119356,-6.2559478165357945,0.00988983638627404,-0.24855582713877722,0.2037285941745003,-1.4605604865733768,1.767399910761508,17.314746297409304
1688472633.411,-0.11422476346631562,0.5927393443263232,-0.06837479679206562,-1.2600121787070915,0.03977036946464287,1.2901298541871151,-0.18192520790506037,-0.11423143302388598,0.5927034816281026,-0.06830049321706973,-1.2599849345538,0.03968552342464985,1.2901949782029103,-0.1819052308664421,1.1063175239562988,59.31770763015747,1.5829140853881836,-26.825903835296632,0.6277073097229003,-0.2346274299621582,0.2019197654724121,1.0712149124721773,10.524613846448677,0.4118169507647327,-6.240836894057541,0.012377047469424002,-0.24874398936460848,0.20368333046208312,-1.449102010551916,1.791804477149696,17.272318776984456
1688472633.511,-0.11422476346631562,0.5927393443263232,-0.06837479679206562,-1.2600121787070915,0.03977046528321881,1.2901298541871151,-0.18192508802275736,-0.11423143302388598,0.5927034816281026,-0.06830049321706973,-1.2599849345538,0.03968552342464985,1.2901949782029103,-0.1819052308664421,1.065990032196045,59.3862643661499,1.5529813385009765,-26.887530078887938,0.6206643104553222,-0.2339599266052246,0.20458977890014649,1.0702596158546591,10.518477415508977,0.4123617074843633,-6.239749696854782,0.011565077952043874,-0.24892200534655695,0.20403157053873688,-1.4378358261794992,1.7930174134693047,17.26661776775761
1688472633.610,-0.11422470357970566,0.5927393443263232,-0.06837479679206562,-1.2600121787070915,0.03977065709490361,1.2901298541871151,-0.18192520790506037,-0.11423143302388598,0.5927034816281026,-0.06830049321706973,-1.2599849345538,0.03968552342464985,1.2901949782029103,-0.1819052308664421,1.0673342819213867,59.417182109832765,1.5450579643249511,-26.887530078887938,0.6092194366455078,-0.2359624366760254,0.2035885238647461,1.0579031604271325,10.537825236527013,0.40676550046656934,-6.254781794702989,0.01119792072352261,-0.24916188328840883,0.20405633109987031,-1.4249625526866945,1.7749429103520664,17.30285121305305
1688472633.710,-0.11422470357970566,0.5927394043220163,-0.06837479679206562,-1.2600121787070915,0.03977046528321881,1.2901298541871151,-0.18192520790506037,-0.11423143302388598,0.5927034816281026,-0.06830049321706973,-1.2599849345538,0.03968552342464985,1.2901949782029103,-0.1819052308664421,1.0834652786254884,59.40911661148071,1.5521009635925294,-26.846152458190918,0.6145016860961914,-0.23696369171142578,0.20592478561401367,1.0674047717986097,10.55467416563696,0.40961432843189105,-6.257503072193122,0.010653455620839481,-0.24918952932805788,0.20384053132386343,-1.4631891553226213,1.7826623823787062,17.32094147539301
1688472633.812,-0.11422470357970566,0.5927394043220163,-0.06837479679206562,-1.2600121787070915,0.03977046528321881,1.2901298541871151,-0.18192520790506037,-0.11423143302388598,0.5927034816281026,-0.06830049321706973,-1.2599849345538,0.03968552342464985,1.2901949782029103,-0.1819052308664421,1.0552360343933105,59.371477619171145,1.5397757148742675,-26.85847770690918,0.6100998115539551,-0.2342936782836914,0.20058475875854492,1.0647710633296283,10.54922451239423,0.40980762974822016,-6.25162661669331,0.011801255180242273,-0.2491932404023865,0.20349289057633352,-1.46644479380913,1.7783981790521808,17.30680495807961
1688472633.912,-0.11422470357970566,0.5927394043220163,-0.06837479679206562,-1.2600121787070915,0.03977036946464287,1.290129914073725,-0.18192520790506037,-0.11423143302388598,0.5927034816281026,-0.06830049321706973,-1.2599849345538,0.03968552342464985,1.2901949782029103,-0.1819052308664421,1.059268783569336,59.33383862686157,1.5432972145080566,-26.862879581451416,0.6109801864624024,-0.2336261749267578,0.20559103393554687,1.0584421742130503,10.543785134395872,0.407793069256222,-6.249536895249196,0.011132017509094642,-0.2487964381839708,0.20396520128312018,-1.454697080604846,1.7685879276230987,17.29544116322124
1688472634.011,-0.11422470357970566,0.5927393443263232,-0.06837485667867557,-1.2600121787070915,0.03977036946464287,1.2901298541871151,-0.18192520790506037,-0.11423143302388598,0.5927034816281026,-0.06830049321706973,-1.2599849345538,0.03968552342464985,1.2901949782029103,-0.1819052308664421,1.0633015327453614,59.32442887878418,1.5450579643249511,-26.84527208328247,0.6118605613708497,-0.2339599266052246,0.2015860137939453,1.0622147765585819,10.520362928303289,0.4095359862795326,-6.244373909072198,0.010586066569634362,-0.24840206803920778,0.20362561630426906,-1.419746592957919,1.7809182764154514,17.269102914183872
1688472634.144,-0.11422476346631562,0.5927393443263232,-0.06837479679206562,-1.2600121787070915,0.03977036946464287,1.2901298541871151,-0.18192520790506037,-0.11423143302388598,0.5927034816281026,-0.06830049321706973,-1.2599849345538,0.03968552342464985,1.2901949782029103,-0.1819052308664421,1.0538917846679687,59.3862643661499,1.5380149650573731,-26.88400857925415,0.606578311920166,-0.2346274299621582,0.20525728225708006,1.0633646726797312,10.566893244597368,0.41118202825046535,-6.257182563752574,0.010961298767517912,-0.24896084297140542,0.2038686342025261,-1.4889266382556847,1.7736958342813711,17.32722451476454
1688472634.211,-0.11422476346631562,0.5927393443263232,-0.06837485667867557,-1.2600121787070915,0.03977036946464287,1.2901298541871151,-0.18192520790506037,-0.11423143302388598,0.5927034816281026,-0.06830049321706973,-1.2599849345538,0.03968552342464985,1.2901949782029103,-0.1819052308664421,1.0619572830200195,59.4440671043396,1.5388953399658203,-26.885769329071046,0.606578311920166,-0.23629618835449218,0.20392227554321288,1.0644057308604795,10.559757197300105,0.4118806197639884,-6.25172472665167,0.010908037388410436,-0.2487150210428828,0.20400580314874842,-1.4950791308536318,1.7756715853749714,17.31628559536314
1688472634.311,-0.11422470357970566,0.5927393443263232,-0.06837479679206562,-1.2600121787070915,0.03977046528321881,1.2901298541871151,-0.18192520790506037,-0.11423143302388598,0.5927034816281026,-0.06830049321706973,-1.2599849345538,0.03968552342464985,1.2901949782029103,-0.1819052308664421,1.065990032196045,59.34459262466431,1.5468187141418457,-26.866401081085204,0.6092194366455078,-0.2356286849975586,0.2025872688293457,1.064301874269708,10.557056640143724,0.41124050166924203,-6.256613135403983,0.012501124658723422,-0.24867438725091023,0.20440263057651986,-1.4674470013509535,1.7793153167009736,17.31865898355171
1688472634.410,-0.11422476346631562,0.5927394043220163,-0.06837479679206562,-1.2600121787070915,0.03977036946464287,1.2901298541871151,-0.18192520790506037,-0.11423143302388598,0.5927034816281026,-0.06830049321706973,-1.2599849345538,0.03968552342464985,1.2901949782029103,-0.1819052308664421,1.0753997802734374,59.34728112411499,1.5503402137756348,-26.859358081817625,0.6136213111877441,-0.2336261749267578,0.20425602722167968,1.0713725825117566,10.528510693055534,0.4145963846451588,-6.248854296946964,0.012491969721478896,-0.2483658258867798,0.20399762236469954,-1.4281076447986691,1.7965292460830622,17.286045897089007
1688472634.510,-0.11422470357970566,0.5927394043220163,-0.06837491656528553,-1.2600121787070915,0.03977036946464287,1.2901298541871151,-0.18192508802275736,-0.11423143302388598,0.5927034816281026,-0.06830049321706973,-1.2599849345538,0.03968552342464985,1.2901949782029103,-0.1819052308664421,1.045826286315918,59.3956741142273,1.5336130905151366,-26.846152458190918,0.6074586868286133,-0.23629618835449218,0.2032547721862793,1.065272745169628,10.534105812723466,0.4117625491193595,-6.250715153622297,0.01264108746284118,-0.24875286967641252,0.20393840729401574,-1.441744572592211,1.7834226366896855,17.2982872299337
1688472634.612,-0.11422476346631562,0.5927394043220163,-0.06837479679206562,-1.2600121787070915,0.03977046528321881,1.2901298541871151,-0.18192520790506037,-0.11423143302388598,0.5927034816281026,-0.06830049321706973,-1.2599849345538,0.03968552342464985,1.2901949782029103,-0.1819052308664421,1.0767440299987794,59.36341212081909,1.5459383392333985,-26.873444080352783,0.6136213111877441,-0.2342936782836914,0.20392227554321288,1.061596415114137,10.539153577872995,0.40859690218922073,-6.250057535808153,0.01294467071203076,-0.2489201808235455,0.20363477171500133,-1.4477133686519807,1.7764047621252521,17.296603645427147
1688472634.711,-0.11422470357970566,0.5927393443263232,-0.06837485667867557,-1.2600121787070915,0.03977036946464287,1.2901300339560282,-0.18192520790506037,-0.11423143302388598,0.5927034816281026,-0.06830049321706973,-1.2599849345538,0.03968552342464985,1.2901949782029103,-0.1819052308664421,1.0753997802734374,59.37819886779785,1.544177589416504,-26.891931953430177,0.6145016860961914,-0.2336261749267578,0.2032547721862793,1.0755734968665407,10.535366999833867,0.4129426163586969,-6.249606828110251,0.012809854451883202,-0.24897279754016577,0.20343044754520118,-1.4414283300189248,1.799345169991876,17.293446523756568
1688472634.812,-0.11422470357970566,0.5927394043220163,-0.06837485667867557,-1.2600121787070915,0.03977046528321881,1.2901298541871151,-0.18192520790506037,-0.11423143302388598,0.5927034816281026,-0.06830049321706973,-1.2599849345538,0.03968552342464985,1.2901949782029103,-0.1819052308664421,1.0444820365905763,59.38357586669922,1.5371345901489257,-26.862879581451416,0.6153820610046387,-0.2352949333190918,0.20392227554321288,1.066135591062269,10.54408668267588,0.4089644195905151,-6.25623865246659,0.01222767268632682,-0.24868316546018124,0.20388910326598814,-1.4364141829927175,1.7856933845576557,17.308615968413093
1688472634.946,-0.11422476346631562,0.5927392844397132,-0.06837491656528553,-1.2600121787070915,0.03977046528321881,1.2901298541871151,-0.18192526779167031,-0.11423143302388598,0.5927034816281026,-0.06830049321706973,-1.2599849345538,0.03968552342464985,1.2901949782029103,-0.1819052308664421,1.0888422775268554,59.37954311752319,1.554742088317871,-26.848793582916258,0.6145016860961914,-0.23696369171142578,0.20425602722167968,1.0698384040685127,10.538740850189834,0.40887932262391147,-6.246670514178565,0.011150368983564463,-0.24848709066889862,0.2041108194727737,-1.461344189851832,1.7879214460039625,17.29034788558038
1688472635.014,-0.11422476346631562,0.5927392844397132,-0.06837479679206562,-1.2600121787070915,0.03977036946464287,1.2901298541871151,-0.18192520790506037,-0.11423143302388598,0.5927034816281026,-0.06830049321706973,-1.2599849345538,0.03968552342464985,1.2901949782029103,-0.1819052308664421,1.0552360343933105,59.387608615875244,1.5450579643249511,-26.87520483016968,0.6109801864624024,-0.2346274299621582,0.2035885238647461,1.069528413713895,10.540962177914201,0.41139217329449895,-6.249339526055465,0.011884974259912279,-0.24847972846188465,0.20379820614476132,-1.456524583261318,1.7881394546645362,17.29595216115848
1688472635.114,-0.11422470357970566,0.5927392844397132,-0.06837479679206562,-1.2600121787070915,0.03977046528321881,1.2901298541871151,-0.18192508802275736,-0.11423143302388598,0.5927034816281026,-0.06830049321706973,-1.2599849345538,0.03968552342464985,1.2901949782029103,-0.1819052308664421,1.0834652786254884,59.35803512191772,1.5529813385009765,-26.873444080352783,0.6171428108215332,-0.2346274299621582,0.2032547721862793,1.0637805956291535,10.545135515430358,0.40852434671381144,-6.249830471430372,0.011347227696837254,-0.24846428399907722,0.20420111461506266,-1.4643641711322382,1.7782455088479745,17.2995372536134
1688472635.213,-0.11422476346631562,0.5927394043220163,-0.06837479679206562,-1.2600121787070915,0.03977036946464287,1.2901298541871151,-0.18192520790506037,-0.11423143302388598,0.5927034816281026,-0.06830049321706973,-1.2599849345538,0.03968552342464985,1.2901949782029103,-0.1819052308664421,1.0740555305480957,59.36206787109375,1.5521009635925294,-26.827664585113524,0.6189035606384278,-0.2359624366760254,0.2049235305786133,1.0735129853475671,10.527216509314115,0.4117128128669994,-6.244883782843742,0.01191631646768098,-0.2490259221856545,0.20386790619185594,-1.4394313828812875,1.797177037464454,17.28066679827844
1688472635.314,-0.11422470357970566,0.5927393443263232,-0.06837479679206562,-1.2600121787070915,0.03977036946464287,1.2901298541871151,-0.18192508802275736,-0.11423143302388598,0.5927034816281026,-0.06830049321706973,-1.2599849345538,0.03968552342464985,1.2901949782029103,-0.1819052308664421,1.0498590354919433,59.394329864501955,1.5362542152404786,-26.869922580718995,0.6100998115539551,-0.2342936782836914,0.2035885238647461,1.0646601797420805,10.545774582427024,0.40839760285455057,-6.251750869286526,0.011872274554811942,-0.24876555837160697,0.20383449054218208,-1.454572055291663,1.7795291165492837,17.300907407340045
1688472635.415,-0.11422470357970566,0.5927393443263232,-0.06837479679206562,-1.2600121787070915,0.03977036946464287,1.2901298541871151,-0.18192508802275736,-0.11423143302388598,0.5927034816281026,-0.06830049321706973,-1.2599849345538,0.03968552342464985,1.2901949782029103,-0.1819052308664421,1.0753997802734374,59.3540023727417,1.544177589416504,-26.863759956359864,0.6162624359130859,-0.2336261749267578,0.20425602722167968,1.0659926737103729,10.53736341377175,0.40830537275898043,-6.249237541323364,0.011357198384079182,-0.24856494383685795,0.20399209860345022,-1.44730853718691,1.7839349140003362,17.293233059019492
1688472635.514,-0.11422470357970566,0.5927393443263232,-0.06837479679206562,-1.2600121787070915,0.03977036946464287,1.2901298541871151,-0.18192508802275736,-0.11423143302388598,0.5927034816281026,-0.06830049321706973,-1.2599849345538,0.03968552342464985,1.2901949782029103,-0.1819052308664421,1.0485147857666015,59.39970686340332,1.5362542152404786,-26.87080295562744,0.6127409362792968,-0.2342936782836914,0.2035885238647461,1.07112050788326,10.53758079083275,0.41318809546397167,-6.251750692336737,0.013416216735183693,-0.24850162802440778,0.20366519695864505,-1.4463442954451895,1.7939556414421463,17.303376026288113
1688472635.615,-0.11422470357970566,0.5927393443263232,-0.06837485667867557,-1.2600121787070915,0.03977036946464287,1.2901298541871151,-0.18192520790506037,-0.11423143302388598,0.5927034816281026,-0.06830049321706973,-1.2599849345538,0.03968552342464985,1.2901949782029103,-0.1819052308664421,1.0444820365905763,59.37954311752319,1.541536464691162,-26.82942533493042,0.6109801864624024,-0.2372974433898926,0.20692604064941406,1.055298900897836,10.554765327575545,0.40620225814789845,-6.2526581282605935,0.011194036732808929,-0.24915260822653898,0.2035633325929635,-1.4751301037782032,1.7619566167457346,17.312102745304795
1688472635.715,-0.11422470357970566,0.5927393443263232,-0.06837479679206562,-1.2600121787070915,0.03977036946464287,1.2901298541871151,-0.18192526779167031,-0.11423143302388598,0.5927034816281026,-0.06830049321706973,-1.2599849345538,0.03968552342464985,1.2901949782029103,-0.1819052308664421,1.0753997802734374,59.32442887878418,1.5556224632263183,-26.840870208740235,0.6180231857299805,-0.23696369171142578,0.20225351715087891,1.0662636741198972,10.533407228934392,0.40861656388722656,-6.248571202183685,0.012157644742904934,-0.2486617664473907,0.20365864141536932,-1.4399627318699897,1.7849121585785614,17.2896570342263
1688472635.853,-0.11422470357970566,0.5927393443263232,-0.06837479679206562,-1.2600121787070915,0.03977036946464287,1.2901298541871151,-0.18192508802275736,-0.11423143302388598,0.5927034816281026,-0.06830049321706973,-1.2599849345538,0.03968552342464985,1.2901949782029103,-0.1819052308664421,1.039105037689209,59.37685461807251,1.5274504661560058,-26.888410453796386,0.6039371871948243,-0.2352949333190918,0.20458977890014649,1.0618460776620466,10.543506110517514,0.4068238238128638,-6.253074075667601,0.011145569194984183,-0.24915586675372864,0.20414842905319575,-1.459828058064361,1.7751119335432373,17.309686445192852
1688472635.922,-0.11422470357970566,0.5927393443263232,-0.06837485667867557,-1.2600121787070915,0.03977036946464287,1.2901298541871151,-0.18192520790506037,-0.11423143302388598,0.5927034816281026,-0.06830049321706973,-1.2599849345538,0.03968552342464985,1.2901949782029103,-0.1819052308664421,1.0807767791748046,59.38895286560059,1.541536464691162,-26.850554332733154,0.6127409362792968,-0.234961181640625,0.2032547721862793,1.0602889874173145,10.540701795380661,0.40575592134073013,-6.251246716893407,0.010786125271671526,-0.24864247966791653,0.20368796715997442,-1.4471388218192935,1.7761256121936444,17.295431848347583
1688472636.022,-0.11422476346631562,0.5927393443263232,-0.06837479679206562,-1.2600121787070915,0.03977036946464287,1.2901297941914223,-0.18192508802275736,-0.11423143302388598,0.5927034816281026,-0.06830049321706973,-1.2599849345538,0.03968552342464985,1.2901949782029103,-0.1819052308664421,1.0606130332946777,59.37954311752319,1.5388953399658203,-26.87520483016968,0.6118605613708497,-0.234961181640625,0.2032547721862793,1.071653413439141,10.542949720047503,0.41289928819437133,-6.25201713595777,0.012554989399127645,-0.248879607253652,0.2033721602501084,-1.4505840804050676,1.7918170529267539,17.30225556873904
1688472636.122,-0.11422470357970566,0.5927394043220163,-0.06837485667867557,-1.2600121787070915,0.03977036946464287,1.2901298541871151,-0.18192508802275736,-0.11423143302388598,0.5927034816281026,-0.06830049321706973,-1.2599849345538,0.03968552342464985,1.2901949782029103,-0.1819052308664421,1.0485147857666015,59.3956741142273,1.541536464691162,-26.883128204345702,0.6127409362792968,-0.23629618835449218,0.20425602722167968,1.0607479355694471,10.546235346571484,0.4089252175495609,-6.2556430851309255,0.011480425508935813,-0.24908840913598418,0.20393584475911478,-1.443022071481242,1.776621847198759,17.310159594649885
1688472636.223,-0.11422476346631562,0.5927393443263232,-0.06837497656097857,-1.2600121787070915,0.03977046528321881,1.2901298541871151,-0.18192526779167031,-0.11423143302388598,0.5927034816281026,-0.06830049321706973,-1.2599849345538,0.03968552342464985,1.2901949782029103,-0.1819052308664421,1.072711280822754,59.359379371643065,1.5459383392333985,-26.824143085479736,0.6109801864624024,-0.2346274299621582,0.2012522621154785,1.0670202752518578,10.550764663769328,0.4089168776513139,-6.254380699337439,0.009733517390055362,-0.2486301432309867,0.2035796047612826,-1.460214704092836,1.7830197274242803,17.31056209290724
1688472636.323,-0.11422470357970566,0.5927393443263232,-0.06837479679206562,-1.2600121787070915,0.03977046528321881,1.2901298541871151,-0.18192508802275736,-0.11423143302388598,0.5927034816281026,-0.06830049321706973,-1.2599849345538,0.03968552342464985,1.2901949782029103,-0.1819052308664421,1.059268783569336,59.343248374938966,1.5459383392333985,-26.8681618309021,0.6171428108215332,-0.2352949333190918,0.20392227554321288,1.066330803722411,10.534385594672017,0.4116006780557081,-6.2466036638787745,0.010834685035174305,-0.24901671435135697,0.20376785368674258,-1.4497977207892754,1.7845206365742006,17.28831375225077
1688472636.423,-0.11422470357970566,0.5927393443263232,-0.06837497656097857,-1.2600121787070915,0.03977036946464287,1.2901298541871151,-0.18192508802275736,-0.11423143302388598,0.5927034816281026,-0.06830049321706973,-1.2599849345538,0.03968552342464985,1.2901949782029103,-0.1819052308664421,1.0498590354919433,59.3540023727417,1.5371345901489257,-26.880487079620362,0.6136213111877441,-0.2342936782836914,0.2035885238647461,1.0577752732252295,10.530248223704977,0.4051726876353585,-6.247082832541478,0.011375755389127235,-0.24881180479020668,0.20390537457903574,-1.4367593241288925,1.772268135505177,17.285361570429874
1688472636.523,-0.11422476346631562,0.5927393443263232,-0.06837479679206562,-1.2600121787070915,0.03977046528321881,1.2901298541871151,-0.18192508802275736,-0.11423143302388598,0.5927034816281026,-0.06830049321706973,-1.2599849345538,0.03968552342464985,1.2901949782029103,-0.1819052308664421,1.0700227813720704,59.39970686340332,1.5371345901489257,-26.90073570251465,0.6127409362792968,-0.23229116821289061,0.2029210205078125,1.0653294269173363,10.538688722341792,0.4093352451450394,-6.257407542595075,0.012511654591729732,-0.24806765261916336,0.20356006573344912,-1.4191533184003826,1.7866999732574669,17.305075317774463
1688472636.623,-0.11422476346631562,0.5927393443263232,-0.06837479679206562,-1.2600121787070915,0.03977046528321881,1.2901298541871151,-0.18192508802275736,-0.11423143302388598,0.5927034816281026,-0.06830049321706973,-1.2599849345538,0.03968552342464985,1.2901949782029103,-0.1819052308664421,1.0431377868652343,59.39298561477661,1.5300915908813477,-26.836468334198,0.6109801864624024,-0.23662994003295898,0.20392227554321288,1.0596247294082912,10.537696349805849,0.40444295317654916,-6.247247720142175,0.011008049673646327,-0.24860532764933208,0.2038575012492342,-1.4550094677791243,1.7719403720123854,17.290542363656968
1688472636.724,-0.11422470357970566,0.5927393443263232,-0.06837479679206562,-1.2600121787070915,0.03977046528321881,1.2901298541871151,-0.18192508802275736,-0.11423143302388598,0.5927034816281026,-0.06830049321706973,-1.2599849345538,0.03968552342464985,1.2901949782029103,-0.1819052308664421,1.0606130332946777,59.38357586669922,1.541536464691162,-26.869042205810548,0.6109801864624024,-0.2346274299621582,0.2035885238647461,1.0695258524132096,10.542472202875874,0.4105628336385364,-6.251327775410977,0.012699586027125427,-0.24827498361144565,0.20339089624565843,-1.452330207213008,1.7871087051679844,17.300170463501278
1688472636.823,-0.11422470357970566,0.5927394043220163,-0.06837479679206562,-1.2600121787070915,0.03977036946464287,1.2901298541871151,-0.18192520790506037,-0.11423143302388598,0.5927034816281026,-0.06830049321706973,-1.2599849345538,0.03968552342464985,1.2901949782029103,-0.1819052308664421,1.0431377868652343,59.35534662246704,1.5089625930786132,-26.888410453796386,0.5977745628356933,-0.23262491989135742,0.20592478561401367,1.0649233760958983,10.536670489739794,0.4094142056427185,-6.247759410314605,0.012004926259330879,-0.2485475986111038,0.20383366397748032,-1.4514394794755312,1.7815518809726736,17.290619956625783
1688472636.924,-0.11422470357970566,0.5927393443263232,-0.06837497656097857,-1.2600121787070915,0.03977036946464287,1.2901298541871151,-0.18192520790506037,-0.11423143302388598,0.5927034816281026,-0.06830049321706973,-1.2599849345538,0.03968552342464985,1.2901949782029103,-0.1819052308664421,1.0606130332946777,59.371477619171145,1.531852340698242,-26.847032833099366,0.6074586868286133,-0.2372974433898926,0.20392227554321288,1.0619592093853596,10.53377389701858,0.40278992212437736,-6.252254067946323,0.009735388480447815,-0.24856185489348004,0.20406038637840074,-1.4255972571644981,1.7803124863507398,17.294725923404958
1688472637.025,-0.11422470357970566,0.5927394043220163,-0.06837485667867557,-1.2600121787070915,0.03977046528321881,1.2901298541871151,-0.18192520790506037,-0.11423143302388598,0.5927034816281026,-0.06830049321706973,-1.2599849345538,0.03968552342464985,1.2901949782029103,-0.1819052308664421,1.08480952835083,59.3862643661499,1.5767514610290527,-26.83558795928955,0.6321091842651367,-0.2356286849975586,0.2035885238647461,1.069365101062814,10.537296395010047,0.4077456109418111,-6.243259969041251,0.013691569360724715,-0.24928159644403225,0.2040908504779775,-1.4701075680824012,1.785178681106682,17.286169155635168
1688472637.124,-0.11422470357970566,0.5927393443263232,-0.06837479679206562,-1.2600121787070915,0.03977046528321881,1.2901298541871151,-0.18192526779167031,-0.11423143302388598,0.5927034816281026,-0.06830049321706973,-1.2599849345538,0.03968552342464985,1.2901949782029103,-0.1819052308664421,1.0673342819213867,59.36206787109375,1.5635458374023437,-26.847913208007814,0.6259465599060059,-0.2359624366760254,0.20392227554321288,1.0719454597743996,10.53899299864906,0.41441722462950803,-6.241284508442094,0.0159720921965419,-0.24944529253088077,0.20368032391600824,-1.4827033334759399,1.7876311235711864,17.285239515694922
1688472637.224,-0.11422470357970566,0.5927394043220163,-0.06837485667867557,-1.2600121787070915,0.03977036946464287,1.2901298541871151,-0.18192508802275736,-0.11423143302388598,0.5927034816281026,-0.06830049321706973,-1.2599849345538,0.03968552342464985,1.2901949782029103,-0.1819052308664421,1.0579245338439942,59.3701333694458,1.5195270919799804,-26.885769329071046,0.5995353126525879,-0.23028865814208985,0.20458977890014649,1.0702408657200218,10.536698900457733,0.4163029955295995,-6.249552377935045,0.01573440864105775,-0.24849972504511741,0.203710269767335,-1.445791015137425,1.7914190186683676,17.29354661313352
1688472637.324,-0.11422476346631562,0.5927394043220163,-0.06837479679206562,-1.2600121787070915,0.03977036946464287,1.2901298541871151,-0.18192520790506037,-0.11423143302388598,0.5927034816281026,-0.06830049321706973,-1.2599849345538,0.03968552342464985,1.2901949782029103,-0.1819052308664421,1.0310395393371583,59.36341212081909,1.487833595275879,-26.847913208007814,0.5872100639343262,-0.2356286849975586,0.2032547721862793,1.06341352836646,10.536910156277138,0.4082995736111029,-6.2546329373425955,0.012002245277663755,-0.24787292612276476,0.20373319193741518,-1.4270066199784188,1.781470047797039,17.298086942747307
1688472637.424,-0.11422470357970566,0.5927394043220163,-0.06837491656528553,-1.2600121787070915,0.03977036946464287,1.2901298541871151,-0.18192520790506037,-0.11423143302388598,0.5927034816281026,-0.06830049321706973,-1.2599849345538,0.03968552342464985,1.2901949782029103,-0.1819052308664421,1.0606130332946777,59.37819886779785,1.5168859672546386,-26.85495620727539,0.5968941879272461,-0.234961181640625,0.2025872688293457,1.061284968456781,10.532182371932144,0.4019120587029155,-6.249327682579022,0.00853634407333117,-0.24810203846690396,0.20321566457796453,-1.4333650500367967,1.7765417175107567,17.288268121780657
1688472637.557,-0.11422470357970566,0.5927394043220163,-0.06837479679206562,-1.2600121787070915,0.03977036946464287,1.2901298541871151,-0.18192526779167031,-0.11423143302388598,0.5927034816281026,-0.06830049321706973,-1.2599849345538,0.03968552342464985,1.2901949782029103,-0.1819052308664421,1.0753997802734374,59.39029711532593,1.5582635879516602,-26.87784595489502,0.6180231857299805,-0.23229116821289061,0.20392227554321288,1.0668687822946983,10.541318687513083,0.4042108371941141,-6.244594211929654,0.008947602011966635,-0.2479472937141429,0.2037200785586584,-1.4370643228488658,1.7899518659791953,17.288240470003387
1688472637.625,-0.11422470357970566,0.5927394043220163,-0.06837479679206562,-1.2600121787070915,0.03977036946464287,1.2901298541871151,-0.18192520790506037,-0.11423143302388598,0.5927034816281026,-0.06830049321706973,-1.2599849345538,0.03968552342464985,1.2901949782029103,-0.1819052308664421,1.0673342819213867,59.348625373840335,1.5362542152404786,-26.88400857925415,0.606578311920166,-0.23329242324829103,0.2032547721862793,1.0633476407997224,10.544653245824534,0.4083081854331454,-6.254148072853826,0.012658422290680673,-0.24802802657110543,0.20358345216112694,-1.4466744808594778,1.779078904732474,17.30458273517277
1688472637.725,-0.11422470357970566,0.5927393443263232,-0.06837479679206562,-1.2600121787070915,0.03977046528321881,1.2901298541871151,-0.18192520790506037,-0.11423143302388598,0.5927034816281026,-0.06830049321706973,-1.2599849345538,0.03968552342464985,1.2901949782029103,-0.1819052308664421,1.0700227813720704,59.35669087219238,1.5168859672546386,-26.840870208740235,0.5977745628356933,-0.234961181640625,0.2035885238647461,1.0666998031117154,10.530602064618705,0.4042698261222759,-6.247893477931371,0.010139519964252823,-0.24838626595521635,0.20387281640335841,-1.4356232498341275,1.7859112754571307,17.28578194440208
1688472637.795,-0.11422470357970566,0.5927392844397132,-0.06837479679206562,-1.2600121787070915,0.03977046528321881,1.2901298541871151,-0.18192508802275736,-0.11423143302388598,0.5927034816281026,-0.06830049321706973,-1.2599849345538,0.03968552342464985,1.2901949782029103,-0.1819052308664421,1.0794325294494629,59.35669087219238,1.5538617134094237,-26.824143085479736,0.6197839355468749,-0.2339599266052246,0.2029210205078125,1.067997315702246,10.538647589388495,0.4029255522117662,-6.253207597975937,0.008857800753378314,-0.24816876848506148,0.20364609462478347,-1.4348745191689418,1.7874182990135423,17.298785846163483
1688472637.894,-0.11422470357970566,0.5927394043220163,-0.06837479679206562,-1.2600121787070915,0.03977046528321881,1.2901297941914223,-0.18192508802275736,-0.11423143302388598,0.5927034816281026,-0.06830049321706973,-1.2599849345538,0.03968552342464985,1.2901949782029103,-0.1819052308664421,1.0834652786254884,59.37685461807251,1.5776318359375,-26.843511333465575,0.6259465599060059,-0.2352949333190918,0.20458977890014649,1.0706758439925879,10.538597064389041,0.40570770485979457,-6.246775176502416,0.00965926584649119,-0.248484242377096,0.20394187087027085,-1.4602226196635437,1.7885387618903743,17.290221541117877
1688472638.026,-0.11422470357970566,0.5927393443263232,-0.06837485667867557,-1.2600121787070915,0.03977046528321881,1.2901298541871151,-0.18192526779167031,-0.11423143302388598,0.5927034816281026,-0.06830049321706973,-1.2599849345538,0.03968552342464985,1.2901949782029103,-0.1819052308664421,1.0807767791748046,59.366100620269776,1.5600243377685548,-26.862879581451416,0.6206643104553222,-0.2356286849975586,0.20225351715087891,1.067387137509914,10.53619796693,0.4095203114363589,-6.249348918034153,0.011669117604972416,-0.24829193470794775,0.2033731083401054,-1.4444304809749264,1.7856747070526553,17.29203097023688
1688472638.126,-0.11422470357970566,0.5927393443263232,-0.06837479679206562,-1.2600121787070915,0.03977036946464287,1.2901298541871151,-0.18192508802275736,-0.11423143302388598,0.5927034816281026,-0.06830049321706973,-1.2599849345538,0.03968552342464985,1.2901949782029103,-0.1819052308664421,1.0498590354919433,59.3862643661499,1.5300915908813477,-26.860238456726073,0.6100998115539551,-0.2352949333190918,0.20425602722167968,1.064564239299229,10.537930859055933,0.40735513851002725,-6.250997684868099,0.011775802538504694,-0.247949410715784,0.2029008725619762,-1.442218001236826,1.7803731677730203,17.294896272527062
1688472638.226,-0.11422470357970566,0.5927393443263232,-0.06837479679206562,-1.2600121787070915,0.03977036946464287,1.2901298541871151,-0.18192520790506037,-0.11423143302388598,0.5927034816281026,-0.06830049321706973,-1.2599849345538,0.03968552342464985,1.2901949782029103,-0.1819052308664421,1.0606130332946777,59.359379371643065,1.5371345901489257,-26.8514347076416,0.6109801864624024,-0.2346274299621582,0.20392227554321288,1.0610237013426338,10.539479362825626,0.40341605934666136,-6.248468217070359,0.010193766183663275,-0.24814514539152338,0.20300918988407568,-1.4550402376813034,1.7724357928530765,17.29257392013527
1688472638.295,-0.11422470357970566,0.5927394043220163,-0.06837479679206562,-1.2600121787070915,0.03977046528321881,1.2901298541871151,-0.18192508802275736,-0.11423143302388598,0.5927034816281026,-0.06830049321706973,-1.2599849345538,0.03968552342464985,1.2901949782029103,-0.1819052308664421,1.059268783569336,59.37416611862183,1.5397757148742675,-26.857597332000733,0.6109801864624024,-0.234961181640625,0.2029210205078125,1.0632333034991155,10.544866143815508,0.4067309314999922,-6.24736366119639,0.011388422867038367,-0.24839657793938696,0.2030854282498253,-1.4730128957484443,1.7736658250381039,17.295608062963147
1688472638.429,-0.11422476346631562,0.5927392844397132,-0.06837485667867557,-1.2600121787070915,0.03977046528321881,1.290129914073725,-0.18192508802275736,-0.11423143302388598,0.5927034816281026,-0.06830049321706973,-1.2599849345538,0.03968552342464985,1.2901949782029103,-0.1819052308664421,1.0579245338439942,59.38492011642456,1.5397757148742675,-26.841750583648682,0.6109801864624024,-0.23763119506835936,0.2049235305786133,1.0657849674810445,10.532271352402637,0.40665227574233087,-6.246809538818883,0.011664354125412831,-0.24818753663102572,0.20328271274738685,-1.446690578683634,1.781721060227997,17.284281352697274
1688472638.496,-0.11422476346631562,0.5927394043220163,-0.06837479679206562,-1.2600121787070915,0.03977036946464287,1.2901298541871151,-0.18192520790506037,-0.11423143302388598,0.5927034816281026,-0.06830049321706973,-1.2599849345538,0.03968552342464985,1.2901949782029103,-0.1819052308664421,1.0565802841186522,59.371477619171145,1.5300915908813477,-26.86111883163452,0.6092194366455078,-0.2356286849975586,0.20225351715087891,1.0663202300822698,10.533221950348134,0.40544615210281393,-6.250630574004845,0.011134784312706727,-0.24834160700465835,0.203004591391163,-1.4313376784923868,1.7846155962983208,17.2916886007288
1688472638.598,-0.11422476346631562,0.5927394043220163,-0.06837485667867557,-1.2600121787070915,0.03977065709490361,1.2901297941914223,-0.18192508802275736,-0.11423143302388598,0.5927034816281026,-0.06830049321706973,-1.2599849345538,0.03968552342464985,1.2901949782029103,-0.1819052308664421,1.059268783569336,59.38357586669922,1.5239289665222169,-26.847032833099366,0.606578311920166,-0.234961181640625,0.20091851043701173,1.0605960384752684,10.53756548340245,0.4014352723640877,-6.247900817797397,0.01022362944322228,-0.2485006455283718,0.20333735462803337,-1.451891702726363,1.7724007121178285,17.29105481522715
1688472638.699,-0.11422470357970566,0.5927394043220163,-0.06837485667867557,-1.2600121787070915,0.03977036946464287,1.2901298541871151,-0.18192526779167031,-0.11423143302388598,0.5927034816281026,-0.06830049321706973,-1.2599849345538,0.03968552342464985,1.2901949782029103,-0.1819052308664421,1.0780882797241211,59.35803512191772,1.561785087585449,-26.825903835296632,0.6277073097229003,-0.2352949333190918,0.20225351715087891,1.0665695485008693,10.537815210744887,0.40345031759818994,-6.2409941818763786,0.010601611245627285,-0.24885461423480898,0.20364087724193086,-1.4815554913876083,1.779567394295619,17.280695696764205
1688472638.797,-0.11422470357970566,0.5927393443263232,-0.06837479679206562,-1.2600121787070915,0.03977046528321881,1.2901298541871151,-0.18192508802275736,-0.11423143302388598,0.5927034816281026,-0.06830049321706973,-1.2599849345538,0.03968552342464985,1.2901949782029103,-0.1819052308664421,1.0673342819213867,59.364756370544434,1.5573832130432128,-26.89017120361328,0.6145016860961914,-0.23329242324829103,0.2035885238647461,1.0695195038882412,10.53521670772951,0.4121276148445906,-6.247527377271257,0.014122892284221606,-0.24853798624184736,0.20367532516311676,-1.449480962035146,1.7889260246154044,17.289401373240672
1688472638.897,-0.11422470357970566,0.5927393443263232,-0.06837479679206562,-1.2600121787070915,0.03977046528321881,1.2901298541871151,-0.18192508802275736,-0.11423143302388598,0.5927034816281026,-0.06830049321706973,-1.2599849345538,0.03968552342464985,1.2901949782029103,-0.1819052308664421,1.0471705360412598,59.37685461807251,1.514244842529297,-26.846152458190918,0.5960138130187989,-0.2359624366760254,0.2025872688293457,1.0662466627618317,10.537598434001588,0.4092858937154201,-6.250418541970758,0.010939225339956586,-0.24841999715445934,0.20324586827508606,-1.4433093271455575,1.783929791992445,17.294844151900143
1688472638.997,-0.11422476346631562,0.5927394043220163,-0.06837479679206562,-1.2600121787070915,0.03977046528321881,1.2901298541871151,-0.18192520790506037,-0.11423143302388598,0.5927034816281026,-0.06830049321706973,-1.2599849345538,0.03968552342464985,1.2901949782029103,-0.1819052308664421,1.0673342819213867,59.37685461807251,1.5406560897827148,-26.836468334198,0.6171428108215332,-0.2356286849975586,0.20458977890014649,1.064847613782137,10.536883692062101,0.4055379511314583,-6.248487375642687,0.00959952746842288,-0.24851187886631682,0.20330525929167673,-1.4484904606517661,1.780396861588028,17.29153396786706
1688472639.097,-0.11422470357970566,0.5927393443263232,-0.06837479679206562,-1.2600121787070915,0.03977036946464287,1.290129914073725,-0.18192520790506037,-0.11423143302388598,0.5927034816281026,-0.06830049321706973,-1.2599849345538,0.03968552342464985,1.2901949782029103,-0.1819052308664421,1.072711280822754,59.37282186889649,1.5573832130432128,-26.880487079620362,0.6233054351806641,-0.23295867156982422,0.2012522621154785,1.0687468569339647,10.538787175889498,0.41079502117944405,-6.249269189414756,0.012875179937553351,-0.24808997629192983,0.20324096489663765,-1.4517665341434283,1.7864664613768289,17.293469270597317
1688472639.231,-0.11422476346631562,0.5927394043220163,-0.06837485667867557,-1.2600121787070915,0.03977046528321881,1.2901298541871151,-0.18192508802275736,-0.11423143302388598,0.5927034816281026,-0.06830049321706973,-1.2599849345538,0.03968552342464985,1.2901949782029103,-0.1819052308664421,1.0673342819213867,59.36072362136841,1.5388953399658203,-26.856716957092285,0.6136213111877441,-0.2352949333190918,0.2012522621154785,1.0661878005581533,10.538618157139595,0.40961429363919644,-6.251491819027056,0.014111358312159764,-0.24831528326597818,0.2035526454012825,-1.4429195611672239,1.7823370849731845,17.297639785989656
1688472639.297,-0.11422470357970566,0.5927393443263232,-0.06837485667867557,-1.2600121787070915,0.03977046528321881,1.290129914073725,-0.18192520790506037,-0.11423143302388598,0.5927034816281026,-0.06830049321706973,-1.2599849345538,0.03968552342464985,1.2901949782029103,-0.1819052308664421,1.0673342819213867,59.38357586669922,1.5362542152404786,-26.86464033126831,0.6153820610046387,-0.2346274299621582,0.20392227554321288,1.0664247046086275,10.53537831280022,0.40556053855165786,-6.254844380964803,0.012479524594507683,-0.24817843846447937,0.20286302844982923,-1.4247071747572966,1.785417402429375,17.29995719898345
1688472639.397,-0.11422476346631562,0.5927393443263232,-0.06837485667867557,-1.2600122385937014,0.03977036946464287,1.290129914073725,-0.18192520790506037,-0.11423143302388598,0.5927034816281026,-0.06830049321706973,-1.2599849345538,0.03968552342464985,1.2901949782029103,-0.1819052308664421,1.0686785316467284,59.37685461807251,1.5468187141418457,-26.85407583236694,0.6162624359130859,-0.23629618835449218,0.2049235305786133,1.0631396360158616,10.540756593143744,0.40463126332783406,-6.249990673415082,0.010754891237843891,-0.24897970701902564,0.20360527188940553,-1.4515016276463601,1.7774565408512917,17.297572671718584
1688472639.497,-0.11422470357970566,0.5927392844397132,-0.06837479679206562,-1.2600121787070915,0.03977046528321881,1.2901298541871151,-0.18192520790506037,-0.11423143302388598,0.5927034816281026,-0.06830049321706973,-1.2599849345538,0.03968552342464985,1.2901949782029103,-0.1819052308664421,1.0767440299987794,59.38492011642456,1.5521009635925294,-26.89105157852173,0.6162624359130859,-0.23295867156982422,0.20392227554321288,1.0653035165204119,10.543046064518137,0.4061874057401198,-6.251673134061754,0.010937090093569427,-0.24837797128843975,0.20338904336939936,-1.4517090488300042,1.7806633565621195,17.30043931723442
1688472639.598,-0.11422476346631562,0.5927393443263232,-0.06837485667867557,-1.2600121787070915,0.03977036946464287,1.2901298541871151,-0.18192508802275736,-0.11423143302388598,0.5927034816281026,-0.06830049321706973,-1.2599849345538,0.03968552342464985,1.2901949782029103,-0.1819052308664421,1.0713670310974122,59.34996962356568,1.5521009635925294,-26.862879581451416,0.6136213111877441,-0.2339599266052246,0.2019197654724121,1.0628037650962798,10.541791685886732,0.4043058659906018,-6.248540340350923,0.011520044983893035,-0.24848071453478715,0.20327046725521275,-1.4561155090119542,1.7764432497761315,17.292363511838932
1688472639.696,-0.11422476346631562,0.5927394043220163,-0.06837479679206562,-1.2600121787070915,0.03977036946464287,1.2901298541871151,-0.18192520790506037,-0.11423143302388598,0.5927034816281026,-0.06830049321706973,-1.2599849345538,0.03968552342464985,1.2901949782029103,-0.1819052308664421,1.091530776977539,59.366100620269776,1.5635458374023437,-26.853195457458497,0.6241858100891113,-0.2339599266052246,0.2029210205078125,1.0658949764445191,10.52780020528319,0.4048700323577502,-6.248339561554438,0.01247001905188792,-0.2483344026977946,0.2037772074801505,-1.4271135403571873,1.7857046396350027,17.28441207377147
1688472639.796,-0.11422476346631562,0.5927393443263232,-0.06837479679206562,-1.2600121787070915,0.03977046528321881,1.2901298541871151,-0.18192508802275736,-0.11423143302388598,0.5927034816281026,-0.06830049321706973,-1.2599849345538,0.03968552342464985,1.2901949782029103,-0.1819052308664421,1.0633015327453614,59.40911661148071,1.5388953399658203,-26.8514347076416,0.6074586868286133,-0.23763119506835936,0.2035885238647461,1.0655352789915633,10.54281809988452,0.4078035613360502,-6.2499224207164215,0.013193446122465006,-0.24859798615017223,0.20373437664367788,-1.4581517706482232,1.78067389266896,17.298361313188177
1688472639.900,-0.11422470357970566,0.5927393443263232,-0.06837479679206562,-1.2600121787070915,0.03977046528321881,1.2901298541871151,-0.18192520790506037,-0.11423143302388598,0.5927034816281026,-0.06830049321706973,-1.2599849345538,0.03968552342464985,1.2901949782029103,-0.1819052308664421,1.0686785316467284,59.348625373840335,1.531852340698242,-26.883128204345702,0.6100998115539551,-0.23295867156982422,0.20559103393554687,1.0627002043446172,10.547115590031293,0.40732728641469707,-6.250283780030716,0.01241715478608138,-0.24880805007343687,0.20367674522309215,-1.4625721271525118,1.775168169004877,17.30283882294174
1688472640.001,-0.11422476346631562,0.5927393443263232,-0.06837479679206562,-1.2600121787070915,0.03977036946464287,1.2901298541871151,-0.18192520790506037,-0.11423143302388598,0.5927034816281026,-0.06830049321706973,-1.2599849345538,0.03968552342464985,1.2901949782029103,-0.1819052308664421,1.065990032196045,59.33921562576294,1.5380149650573731,-26.84527208328247,0.6074586868286133,-0.23195741653442384,0.2032547721862793,1.0670034860214876,10.525768733844904,0.4080703527985844,-6.242713341962885,0.012744180911324303,-0.24815179350285282,0.20346561789559287,-1.4447644704394613,1.7847727681262504,17.274500782840033
1688472640.136,-0.11422470357970566,0.5927394043220163,-0.06837485667867557,-1.2600121787070915,0.03977036946464287,1.2901298541871151,-0.18192508802275736,-0.11423143302388598,0.5927034816281026,-0.06830049321706973,-1.2599849345538,0.03968552342464985,1.2901949782029103,-0.1819052308664421,1.0794325294494629,59.375510368347165,1.5424168395996094,-26.86464033126831,0.6056979370117187,-0.2342936782836914,0.20225351715087891,1.0701145626526265,10.552496663786307,0.4079631604408839,-6.254036641261487,0.01180104277294238,-0.24850121470904796,0.20360259621510202,-1.4621296751457116,1.7867704153210668,17.307532816628193
1688472640.204,-0.11422476346631562,0.5927393443263232,-0.06837485667867557,-1.2600121787070915,0.03977046528321881,1.2901298541871151,-0.18192526779167031,-0.11423143302388598,0.5927034816281026,-0.06830049321706973,-1.2599849345538,0.03968552342464985,1.2901949782029103,-0.1819052308664421,1.0700227813720704,59.3956741142273,1.5406560897827148,-26.89105157852173,0.6109801864624024,-0.2342936782836914,0.2032547721862793,1.06295506443377,10.541158631247654,0.40472066950888996,-6.250785093321103,0.011038389989638419,-0.24875435247507544,0.20333282613120604,-1.4496408834181376,1.776976086680054,17.29855549361843
1688472640.304,-0.11422470357970566,0.5927393443263232,-0.06837479679206562,-1.2600121787070915,0.03977036946464287,1.2901298541871151,-0.18192520790506037,-0.11423143302388598,0.5927034816281026,-0.06830049321706973,-1.2599849345538,0.03968552342464985,1.2901949782029103,-0.1819052308664421,1.065990032196045,59.37685461807251,1.534493465423584,-26.87080295562744,0.6056979370117187,-0.23295867156982422,0.20425602722167968,1.069580512289071,10.542575881368467,0.40827574142555306,-6.251189348675904,0.011107673927533097,-0.24845367928476655,0.2034171436737921,-1.4528797927824848,1.7874974470444815,17.299633970500558
1688472640.404,-0.11422470357970566,0.5927392844397132,-0.06837479679206562,-1.2600121787070915,0.03977046528321881,1.2901298541871151,-0.18192520790506037,-0.11423143302388598,0.5927034816281026,-0.06830049321706973,-1.2599849345538,0.03968552342464985,1.2901949782029103,-0.1819052308664421,1.0471705360412598,59.36072362136841,1.5300915908813477,-26.84527208328247,0.6012960624694824,-0.234961181640625,0.20559103393554687,1.064534066295712,10.5423173341062,0.40641088803034564,-6.250442241230617,0.010013400883772276,-0.2486004536961766,0.20408099404685393,-1.454487665861976,1.780447156955001,17.298538815238217
1688472640.504,-0.11422470357970566,0.5927393443263232,-0.06837485667867557,-1.2600121787070915,0.03977036946464287,1.2901298541871151,-0.18192526779167031,-0.11423143302388598,0.5927034816281026,-0.06830049321706973,-1.2599849345538,0.03968552342464985,1.2901949782029103,-0.1819052308664421,1.0686785316467284,59.366100620269776,1.5353738403320312,-26.841750583648682,0.6074586868286133,-0.2359624366760254,0.2032547721862793,1.0667756928991436,10.533472952572312,0.4086272074238568,-6.243955156967564,0.011010469653072803,-0.24854290214568986,0.20364917895067464,-1.4584244709762724,1.7829098244214252,17.282694279837617
1688472640.604,-0.11422476346631562,0.5927394043220163,-0.06837491656528553,-1.2600121787070915,0.03977036946464287,1.2901298541871151,-0.18192520790506037,-0.11423143302388598,0.5927034816281026,-0.06830049321706973,-1.2599849345538,0.03968552342464985,1.2901949782029103,-0.1819052308664421,1.0619572830200195,59.36744486999512,1.534493465423584,-26.880487079620362,0.6092194366455078,-0.2352949333190918,0.2032547721862793,1.0670765029681166,10.532171462419871,0.40715787447755625,-6.247920003915917,0.0108373999130985,-0.2484828319258538,0.20367047419841153,-1.4395524099630501,1.786078721636337,17.287309759907757
1688472640.704,-0.11422470357970566,0.5927393443263232,-0.06837479679206562,-1.2600121787070915,0.03977036946464287,1.2901298541871151,-0.18192508802275736,-0.11423143302388598,0.5927034816281026,-0.06830049321706973,-1.2599849345538,0.03968552342464985,1.2901949782029103,-0.1819052308664421,1.065990032196045,59.38357586669922,1.5388953399658203,-26.86199920654297,0.6109801864624024,-0.2339599266052246,0.2029210205078125,1.0623510448161917,10.538192260997805,0.40624202755453065,-6.252546886307499,0.0098156323784611,-0.24841463503739902,0.20361215474740002,-1.435852066627453,1.7792697960689294,17.298183794311424
1688472640.803,-0.11422470357970566,0.5927393443263232,-0.06837485667867557,-1.2600121787070915,0.03977036946464287,1.2901298541871151,-0.18192526779167031,-0.11423143302388598,0.5927034816281026,-0.06830049321706973,-1.2599849345538,0.03968552342464985,1.2901949782029103,-0.1819052308664421,1.0673342819213867,59.371477619171145,1.5388953399658203,-26.844391708374022,0.6127409362792968,-0.2346274299621582,0.2049235305786133,1.0668303433257103,10.544599368579469,0.4062093945072507,-6.257771479743408,0.012138334248024726,-0.2483192005700905,0.20386752210564862,-1.4320051307134596,1.7867751259623694,17.31032968252803
1688472640.936,-0.11422470357970566,0.5927393443263232,-0.06837479679206562,-1.2600121787070915,0.03977036946464287,1.2901298541871151,-0.18192508802275736,-0.11423143302388598,0.5927034816281026,-0.06830049321706973,-1.2599849345538,0.03968552342464985,1.2901949782029103,-0.1819052308664421,1.0646457824707032,59.3540023727417,1.5450579643249511,-26.869922580718995,0.6109801864624024,-0.2356286849975586,0.20058475875854492,1.0601135756570041,10.531698526886478,0.4043965575497774,-6.2473271709809115,0.008793771571352128,-0.2491240386805888,0.20393757356023257,-1.4388820501373343,1.7757043363845073,17.287299844542805
1688472641.003,-0.11422476346631562,0.5927393443263232,-0.06837485667867557,-1.2600121787070915,0.03977036946464287,1.2901298541871151,-0.18192520790506037,-0.11423143302388598,0.5927034816281026,-0.06830049321706973,-1.2599849345538,0.03968552342464985,1.2901949782029103,-0.1819052308664421,1.0767440299987794,59.366100620269776,1.5432972145080566,-26.888410453796386,0.6118605613708497,-0.2336261749267578,0.2032547721862793,1.0656137240295325,10.535659378936916,0.40687450600791497,-6.248714301785029,0.010264077061122503,-0.24885805116672546,0.20391577426415178,-1.4444423751318742,1.7835035516934807,17.29177375614684
1688472641.103,-0.11422470357970566,0.5927393443263232,-0.06837485667867557,-1.2600121787070915,0.03977046528321881,1.2901298541871151,-0.18192508802275736,-0.11423143302388598,0.5927034816281026,-0.06830049321706973,-1.2599849345538,0.03968552342464985,1.2901949782029103,-0.1819052308664421,1.0700227813720704,59.371477619171145,1.5388953399658203,-26.87080295562744,0.6109801864624024,-0.2356286849975586,0.20458977890014649,1.0637757481864747,10.532091157849692,0.4046948080021892,-6.247204193831767,0.00979824649471549,-0.24860854127089205,0.20325795762259763,-1.441316099933548,1.7796251244470591,17.286374061261206
1688472641.203,-0.11422470357970566,0.5927393443263232,-0.06837479679206562,-1.2600121787070915,0.03977036946464287,1.2901298541871151,-0.18192520790506037,-0.11423143302388598,0.5927034816281026,-0.06830049321706973,-1.2599849345538,0.03968552342464985,1.2901949782029103,-0.1819052308664421,1.0606130332946777,59.37685461807251,1.5397757148742675,-26.849673957824706,0.6153820610046387,-0.23763119506835936,0.20525728225708006,1.0663989623211108,10.533907545082174,0.40472089187782173,-6.2464053232375125,0.010781919475760415,-0.24876025561771947,0.20328054836890724,-1.4490747631767549,1.7822822762522028,17.28691930861163
1688472641.303,-0.11422470357970566,0.5927394043220163,-0.06837479679206562,-1.2600121787070915,0.03977036946464287,1.2901298541871151,-0.18192520790506037,-0.11423143302388598,0.5927034816281026,-0.06830049321706973,-1.2599849345538,0.03968552342464985,1.2901949782029103,-0.1819052308664421,1.0512032852172852,59.38492011642456,1.5362542152404786,-26.883128204345702,0.6092194366455078,-0.23329242324829103,0.20392227554321288,1.0630356865952821,10.542802914554894,0.4064318469726702,-6.246766926523062,0.01087276386851732,-0.24914919446100003,0.20364569476019645,-1.4692066933496204,1.7749637816399042,17.29481842265817
1688472641.403,-0.11422470357970566,0.5927394043220163,-0.06837491656528553,-1.2600121787070915,0.03977046528321881,1.2901298541871151,-0.18192526779167031,-0.11423143302388598,0.5927034816281026,-0.06830049321706973,-1.2599849345538,0.03968552342464985,1.2901949782029103,-0.1819052308664421,1.0471705360412598,59.36206787109375,1.531852340698242,-26.869922580718995,0.6021764373779297,-0.23229116821289061,0.2025872688293457,1.0636292383937467,10.54085067712073,0.4060605943580037,-6.249569967264531,0.009794297375693012,-0.24887365197675507,0.20409809080101082,-1.453758339633426,1.779175607408075,17.296776298239543
1688472641.502,-0.11422470357970566,0.5927393443263232,-0.06837479679206562,-1.2600121787070915,0.03977046528321881,1.2901298541871151,-0.18192520790506037,-0.11423143302388598,0.5927034816281026,-0.06830049321706973,-1.2599849345538,0.03968552342464985,1.2901949782029103,-0.1819052308664421,1.0673342819213867,59.36878911972046,1.531852340698242,-26.865520706176756,0.6127409362792968,-0.23662994003295898,0.2049235305786133,1.0666218438605648,10.527229615931775,0.4065612950886112,-6.248078794667475,0.009718693185169701,-0.2483446314109003,0.20413575441573495,-1.4267693197794016,1.7882662657521369,17.28354188689269
1688472641.602,-0.11422476346631562,0.5927393443263232,-0.06837497656097857,-1.2600121787070915,0.03977046528321881,1.290129914073725,-0.18192508802275736,-0.11423143302388598,0.5927034816281026,-0.06830049321706973,-1.2599849345538,0.03968552342464985,1.2901949782029103,-0.1819052308664421,1.0565802841186522,59.394329864501955,1.5388953399658203,-26.86199920654297,0.6109801864624024,-0.2342936782836914,0.20392227554321288,1.0692828285840452,10.541401936259373,0.40866311426248014,-6.246027927213968,0.0118861555189856,-0.24948339132893643,0.20406973141389878,-1.4668872083921642,1.7804621994031602,17.29104870974813
1688472641.702,-0.11422470357970566,0.5927394043220163,-0.06837479679206562,-1.2600121787070915,0.03977036946464287,1.2901298541871151,-0.18192520790506037,-0.11423143302388598,0.5927034816281026,-0.06830049321706973,-1.2599849345538,0.03968552342464985,1.2901949782029103,-0.1819052308664421,1.0753997802734374,59.3862643661499,1.5582635879516602,-26.820621585845945,0.6189035606384278,-0.23696369171142578,0.2035885238647461,1.0670400006206455,10.548496015590212,0.40903076812037903,-6.24642358815384,0.012666356865363906,-0.2493304973131048,0.20354285729445062,-1.4851391912364753,1.7786825352459412,17.299042210953427
1688472641.836,-0.11422470357970566,0.5927393443263232,-0.06837479679206562,-1.2600121787070915,0.03977046528321881,1.2901298541871151,-0.18192526779167031,-0.11423143302388598,0.5927034816281026,-0.06830049321706973,-1.2599849345538,0.03968552342464985,1.2901949782029103,-0.1819052308664421,1.0538917846679687,59.37819886779785,1.544177589416504,-26.831186084747316,0.6162624359130859,-0.2352949333190918,0.2035885238647461,1.0609547238757768,10.53453808821267,0.4048671775534687,-6.249941835326465,0.011162718742355476,-0.2487524702304153,0.20434826335189993,-1.4400271215092182,1.7827751119343973,17.289541647356167
1688472641.903,-0.11422470357970566,0.5927393443263232,-0.06837491656528553,-1.2600121787070915,0.03977046528321881,1.2901298541871151,-0.18192520790506037,-0.11423143302388598,0.5927034816281026,-0.06830049321706973,-1.2599849345538,0.03968552342464985,1.2901949782029103,-0.1819052308664421,1.0512032852172852,59.38357586669922,1.5371345901489257,-26.86111883163452,0.6092194366455078,-0.2372974433898926,0.2029210205078125,1.0659845562511898,10.539320569304431,0.40676203638186087,-6.257135342978177,0.011296331888472708,-0.24837451188018095,0.20404206424801768,-1.4212349873681807,1.7877719250684736,17.305647188145286
1688472642.003,-0.11422470357970566,0.5927393443263232,-0.06837485667867557,-1.2600121787070915,0.03977046528321881,1.2901298541871151,-0.18192520790506037,-0.11423143302388598,0.5927034816281026,-0.06830049321706973,-1.2599849345538,0.03968552342464985,1.2901949782029103,-0.1819052308664421,1.072711280822754,59.37685461807251,1.5424168395996094,-26.848793582916258,0.6092194366455078,-0.23696369171142578,0.20392227554321288,1.0630014922071043,10.542252361818845,0.40529373819172376,-6.251995340284214,0.010728671619732559,-0.24827578814499376,0.20362245884861413,-1.4476014351507194,1.7808141158524313,17.296173086186847
1688472642.103,-0.11422476346631562,0.5927392844397132,-0.06837491656528553,-1.2600121787070915,0.03977036946464287,1.2901297941914223,-0.18192508802275736,-0.11423143302388598,0.5927034816281026,-0.06830049321706973,-1.2599849345538,0.03968552342464985,1.2901949782029103,-0.1819052308664421,1.065990032196045,59.36341212081909,1.551220588684082,-26.8514347076416,0.6109801864624024,-0.23629618835449218,0.2049235305786133,1.070413345935335,10.537304972451832,0.4090627381445792,-6.250349222162898,0.010535880051580983,-0.24833188201939607,0.20362315615366006,-1.4433801786172764,1.79091808426106,17.294295643995426
1688472642.203,-0.11422470357970566,0.5927393443263232,-0.06837491656528553,-1.2600121787070915,0.03977036946464287,1.2901298541871151,-0.18192508802275736,-0.11423143302388598,0.5927034816281026,-0.06830049321706973,-1.2599849345538,0.03968552342464985,1.2901949782029103,-0.1819052308664421,1.0565802841186522,59.37819886779785,1.5371345901489257,-26.888410453796386,0.6083390617370605,-0.23262491989135742,0.20425602722167968,1.0657172337395038,10.538667747966908,0.4061219750393723,-6.253887342888731,0.00979358713475152,-0.24785545206273016,0.2038610963454828,-1.432904331404693,1.7852595511133091,17.299242168607513
1688472642.303,-0.11422470357970566,0.5927393443263232,-0.06837479679206562,-1.2600121787070915,0.03977036946464287,1.2901298541871151,-0.18192520790506037,-0.11423143302388598,0.5927034816281026,-0.06830049321706973,-1.2599849345538,0.03968552342464985,1.2901949782029103,-0.1819052308664421,1.0740555305480957,59.37416611862183,1.5406560897827148,-26.853195457458497,0.6118605613708497,-0.2359624366760254,0.2049235305786133,1.0611729317140877,10.541097823381754,0.4028038086638266,-6.256088879863746,0.00892909084137583,-0.2479997744895463,0.20386326671618066,-1.4293597727413845,1.778244746969431,17.304372444952
1688472642.402,-0.11422470357970566,0.5927393443263232,-0.06837479679206562,-1.2600121787070915,0.03977036946464287,1.2901298541871151,-0.18192520790506037,-0.11423143302388598,0.5927034816281026,-0.06830049321706973,-1.2599849345538,0.03968552342464985,1.2901949782029103,-0.1819052308664421,1.0753997802734374,59.36206787109375,1.5503402137756348,-26.837348709106443,0.6215446853637695,-0.23662994003295898,0.20425602722167968,1.0658485962723092,10.535007964364656,0.40479002165060657,-6.24804713645751,0.010325039146823053,-0.2487385329240955,0.20370921110709542,-1.4454216665904878,1.782851426964408,17.290016677272398
1688472642.502,-0.11422470357970566,0.5927392844397132,-0.06837479679206562,-1.2600121787070915,0.03977036946464287,1.2901298541871151,-0.18192520790506037,-0.11423143302388598,0.5927034816281026,-0.06830049321706973,-1.2599849345538,0.03968552342464985,1.2901949782029103,-0.1819052308664421,1.0700227813720704,59.39029711532593,1.5503402137756348,-26.8681618309021,0.6171428108215332,-0.2339599266052246,0.20425602722167968,1.064848187888114,10.540078009286647,0.405572385123901,-6.244115961442207,0.01292423273940774,-0.24896633749882857,0.2042661591034517,-1.473553679401338,1.777654892366774,17.28863660009922
1688472642.634,-0.11422476346631562,0.5927394043220163,-0.06837479679206562,-1.2600121787070915,0.03977036946464287,1.2901298541871151,-0.18192520790506037,-0.11423143302388598,0.5927034816281026,-0.06830049321706973,-1.2599849345538,0.03968552342464985,1.2901949782029103,-0.1819052308664421,1.0552360343933105,59.35669087219238,1.5292112159729003,-26.87080295562744,0.6048175621032714,-0.2336261749267578,0.2029210205078125,1.0648882410928395,10.539988948777902,0.40675360077997513,-6.248534410896253,0.012208334968348382,-0.24923181140880046,0.2037851906857147,-1.4522237213400595,1.7802714335487628,17.295370914704172
1688472642.702,-0.11422470357970566,0.5927393443263232,-0.06837479679206562,-1.2600121787070915,0.03977036946464287,1.2901298541871151,-0.18192508802275736,-0.11423143302388598,0.5927034816281026,-0.06830049321706973,-1.2599849345538,0.03968552342464985,1.2901949782029103,-0.1819052308664421,1.0619572830200195,59.36072362136841,1.5397757148742675,-26.857597332000733,0.6083390617370605,-0.23662994003295898,0.2032547721862793,1.0663384099373199,10.533739044183063,0.4056255540854268,-6.245178646067153,0.01157002329218821,-0.24910215060537488,0.20350462023240581,-1.45318885263556,1.782042493386574,17.28581979670687
1688472642.801,-0.11422476346631562,0.5927393443263232,-0.06837485667867557,-1.2600121787070915,0.03977046528321881,1.2901298541871151,-0.18192520790506037,-0.11423143302388598,0.5927034816281026,-0.06830049321706973,-1.2599849345538,0.03968552342464985,1.2901949782029103,-0.1819052308664421,1.0619572830200195,59.36206787109375,1.544177589416504,-26.826784210205076,0.6118605613708497,-0.23829869842529297,0.2025872688293457,1.0688596131201529,10.53861060076986,0.4070366564911299,-6.245729936311736,0.011822676631408699,-0.24877555129446705,0.2036596571542127,-1.464009772325734,1.7847009942240097,17.289510854861508
1688472642.901,-0.11422470357970566,0.5927393443263232,-0.06837485667867557,-1.2600121787070915,0.03977065709490361,1.2901297941914223,-0.18192520790506037,-0.11423143302388598,0.5927034816281026,-0.06830049321706973,-1.2599849345538,0.03968552342464985,1.2901949782029103,-0.1819052308664421,1.072711280822754,59.36072362136841,1.5397757148742675,-26.841750583648682,0.6197839355468749,-0.2352949333190918,0.20425602722167968,1.0671139018089493,10.538448648894635,0.4086901811990057,-6.246476549885049,0.012812079583886258,-0.24875511828248642,0.20392662953382973,-1.4592734157516996,1.7853604581644427,17.28684370939583
1688472643.001,-0.11422470357970566,0.5927393443263232,-0.06837479679206562,-1.2600122385937014,0.03977036946464287,1.2901298541871151,-0.18192520790506037,-0.11423143302388598,0.5927034816281026,-0.06830049321706973,-1.2599849345538,0.03968552342464985,1.2901949782029103,-0.1819052308664421,1.0633015327453614,59.35131387329101,1.5300915908813477,-26.867281455993652,0.6048175621032714,-0.23162366485595703,0.2049235305786133,1.0687916251124816,10.534755352357111,0.4074894501231377,-6.247636195799425,0.013019858855210323,-0.24823848589050151,0.20386842763261565,-1.4478668147918716,1.787481884160761,17.28836039653032
1688472643.101,-0.11422470357970566,0.5927393443263232,-0.06837479679206562,-1.2600121787070915,0.03977046528321881,1.2901298541871151,-0.18192508802275736,-0.11423143302388598,0.5927034816281026,-0.06830049321706973,-1.2599849345538,0.03968552342464985,1.2901949782029103,-0.1819052308664421,1.0673342819213867,59.39029711532593,1.534493465423584,-26.869042205810548,0.6039371871948243,-0.23629618835449218,0.20592478561401367,1.0684978016407858,10.53837381700239,0.4085931836914981,-6.251927290523151,0.010637031708211314,-0.2483036089714905,0.20355635212018935,-1.4396595351627248,1.7883497443422414,17.297294559891295
1688472643.200,-0.11422470357970566,0.5927394043220163,-0.06837479679206562,-1.2600121787070915,0.03977046528321881,1.2901298541871151,-0.18192508802275736,-0.11423143302388598,0.5927034816281026,-0.06830049321706973,-1.2599849345538,0.03968552342464985,1.2901949782029103,-0.1819052308664421,1.0767440299987794,59.371477619171145,1.5503402137756348,-26.82942533493042,0.6118605613708497,-0.23629618835449218,0.2032547721862793,1.0697278285177438,10.537907325128717,0.4062739735288732,-6.249717397510488,0.010088194983493412,-0.24861127153542428,0.20384756950714839,-1.4527268026915037,1.788130517285122,17.295190078822703
1688472643.300,-0.11422470357970566,0.5927393443263232,-0.06837479679206562,-1.2600121787070915,0.03977036946464287,1.2901298541871151,-0.18192520790506037,-0.11423143302388598,0.5927034816281026,-0.06830049321706973,-1.2599849345538,0.03968552342464985,1.2901949782029103,-0.1819052308664421,1.0713670310974122,59.366100620269776,1.5529813385009765,-26.865520706176756,0.6171428108215332,-0.234961181640625,0.2032547721862793,1.0716433950701139,10.537110505712198,0.40988211113581485,-6.2474577529156665,0.01218963936124787,-0.24889645596817941,0.20391840231749353,-1.4538553631163638,1.791618243582882,17.291284635044182
1688472643.399,-0.11422470357970566,0.5927393443263232,-0.06837479679206562,-1.2600121787070915,0.03977036946464287,1.2901298541871151,-0.18192520790506037,-0.11423143302388598,0.5927034816281026,-0.06830049321706973,-1.2599849345538,0.03968552342464985,1.2901949782029103,-0.1819052308664421,1.0686785316467284,59.37416611862183,1.5406560897827148,-26.888410453796386,0.6189035606384278,-0.234961181640625,0.2035885238647461,1.067184428836143,10.536710074648795,0.4076899707213154,-6.245646600623443,0.01385705291257295,-0.24872821232988312,0.20355712730351416,-1.4597284048108945,1.7825389933429014,17.288026987594392
1688472643.532,-0.11422476346631562,0.5927393443263232,-0.06837479679206562,-1.2600121787070915,0.03977036946464287,1.2901298541871151,-0.18192508802275736,-0.11423143302388598,0.5927034816281026,-0.06830049321706973,-1.2599849345538,0.03968552342464985,1.2901949782029103,-0.1819052308664421,1.0633015327453614,59.366100620269776,1.5371345901489257,-26.881367454528807,0.6092194366455078,-0.23295867156982422,0.20458977890014649,1.0682772282234732,10.534604171646478,0.4088472216209541,-6.246628965685715,0.012162870428094033,-0.248732611499192,0.20330861173447884,-1.4545156025385098,1.7852821982558857,17.29120026984403
1688472643.600,-0.11422470357970566,0.5927393443263232,-0.06837479679206562,-1.2600121787070915,0.03977036946464287,1.2901297941914223,-0.18192520790506037,-0.11423143302388598,0.5927034816281026,-0.06830049321706973,-1.2599849345538,0.03968552342464985,1.2901949782029103,-0.1819052308664421,1.0686785316467284,59.366100620269776,1.5380149650573731,-26.85847770690918,0.6092194366455078,-0.2356286849975586,0.20425602722167968,1.0656069353985134,10.537034776105152,0.40587498909258735,-6.246371932792892,0.010431944605966248,-0.24878355724795487,0.20317576946609484,-1.4569296549185058,1.7799542108404354,17.289224992077965
1688472643.699,-0.11422476346631562,0.5927393443263232,-0.06837479679206562,-1.2600121787070915,0.03977036946464287,1.2901298541871151,-0.18192508802275736,-0.11423143302388598,0.5927034816281026,-0.06830049321706973,-1.2599849345538,0.03968552342464985,1.2901949782029103,-0.1819052308664421,1.065990032196045,59.39029711532593,1.551220588684082,-26.84527208328247,0.6162624359130859,-0.23629618835449218,0.2025872688293457,1.065087173561911,10.542249985694218,0.40535404369967976,-6.2466344049034355,0.010959546136231388,-0.24887398666403784,0.20348276013967076,-1.4687974266233343,1.777600234497441,17.293601250688344
1688472643.799,-0.11422470357970566,0.5927394043220163,-0.06837479679206562,-1.2600121787070915,0.03977036946464287,1.2901297941914223,-0.18192520790506037,-0.11423143302388598,0.5927034816281026,-0.06830049321706973,-1.2599849345538,0.03968552342464985,1.2901949782029103,-0.1819052308664421,1.0686785316467284,59.359379371643065,1.544177589416504,-26.87784595489502,0.6145016860961914,-0.23229116821289061,0.2032547721862793,1.0622296814154093,10.537905247359795,0.40576975502113427,-6.246423230788598,0.010731361173832166,-0.24876039306982384,0.20369319269615993,-1.4581555369911967,1.7757862783279434,17.29310898096568
1688472643.903,-0.11422470357970566,0.5927394043220163,-0.06837497656097857,-1.2600121787070915,0.03977046528321881,1.2901298541871151,-0.18192508802275736,-0.11423143302388598,0.5927034816281026,-0.06830049321706973,-1.2599849345538,0.03968552342464985,1.2901949782029103,-0.1819052308664421,1.0633015327453614,59.36341212081909,1.5283308410644532,-26.843511333465575,0.603056812286377,-0.234961181640625,0.20225351715087891,1.0641134094251894,10.532391466047105,0.40497506700392105,-6.243714361043336,0.008889151118848113,-0.2486526946889552,0.2035687337287498,-1.4558058227697046,1.7785751455799421,17.281577773298
1688472644.003,-0.11422470357970566,0.5927393443263232,-0.06837479679206562,-1.2600121787070915,0.03977046528321881,1.2901298541871151,-0.18192520790506037,-0.11423143302388598,0.5927034816281026,-0.06830049321706973,-1.2599849345538,0.03968552342464985,1.2901949782029103,-0.1819052308664421,1.0512032852172852,59.38492011642456,1.531852340698242,-26.849673957824706,0.6021764373779297,-0.2356286849975586,0.20458977890014649,1.0607269682043134,10.53250592458552,0.40363380406863225,-6.2453350245211094,0.008236648178759801,-0.24881359968242656,0.20363662719216952,-1.4510307273987642,1.7739338700638876,17.28456767622286
1688472644.102,-0.11422470357970566,0.5927393443263232,-0.06837485667867557,-1.2600121787070915,0.03977036946464287,1.2901298541871151,-0.18192520790506037,-0.11423143302388598,0.5927034816281026,-0.06830049321706973,-1.2599849345538,0.03968552342464985,1.2901949782029103,-0.1819052308664421,1.0673342819213867,59.387608615875244,1.5397757148742675,-26.876085205078123,0.6127409362792968,-0.23295867156982422,0.2035885238647461,1.061314042605626,10.540133369648817,0.40529288899591276,-6.245170462620049,0.010393869037783053,-0.24852913910470734,0.2039269147649349,-1.4695477848740812,1.77259888104808,17.28913368053108
1688472644.202,-0.11422470357970566,0.5927392844397132,-0.06837479679206562,-1.2600121787070915,0.03977046528321881,1.2901298541871151,-0.18192520790506037,-0.11423143302388598,0.5927034816281026,-0.06830049321706973,-1.2599849345538,0.03968552342464985,1.2901949782029103,-0.1819052308664421,1.065990032196045,59.366100620269776,1.534493465423584,-26.847913208007814,0.6100998115539551,-0.234961181640625,0.20392227554321288,1.066849776341864,10.542089410827742,0.40685361619029586,-6.251064353571474,0.010964522100046305,-0.24834816620736877,0.2038796912179942,-1.4520876524988864,1.7839695313532737,17.298795865424278
1688472644.302,-0.11422470357970566,0.5927394043220163,-0.06837479679206562,-1.2600121787070915,0.03977036946464287,1.2901298541871151,-0.18192520790506037,-0.11423143302388598,0.5927034816281026,-0.06830049321706973,-1.2599849345538,0.03968552342464985,1.2901949782029103,-0.1819052308664421,1.0565802841186522,59.37416611862183,1.5362542152404786,-26.83822908401489,0.6136213111877441,-0.23662994003295898,0.2029210205078125,1.0677524802714111,10.537579957723024,0.406615128608284,-6.24785332700147,0.012899519693490683,-0.24889268726136032,0.2038040275494519,-1.4524215617109428,1.7837710092742673,17.288045857690058
1688472644.403,-0.11422470357970566,0.5927393443263232,-0.06837485667867557,-1.2600121787070915,0.03977036946464287,1.2901297941914223,-0.18192508802275736,-0.11423143302388598,0.5927034816281026,-0.06830049321706973,-1.2599849345538,0.03968552342464985,1.2901949782029103,-0.1819052308664421,1.0552360343933105,59.382231616973876,1.531852340698242,-26.844391708374022,0.6012960624694824,-0.2342936782836914,0.2032547721862793,1.065828606677735,10.537843163206958,0.4064099094669918,-6.246522540521635,0.013159860961980413,-0.2487194310893393,0.20311691701093726,-1.458715712652926,1.7796567159939132,17.290047918126472
1688472644.503,-0.11422476346631562,0.5927393443263232,-0.06837485667867557,-1.2600121787070915,0.03977046528321881,1.290129914073725,-0.18192526779167031,-0.11423143302388598,0.5927034816281026,-0.06830049321706973,-1.2599849345538,0.03968552342464985,1.2901949782029103,-0.1819052308664421,1.065990032196045,59.36206787109375,1.5388953399658203,-26.8681618309021,0.6118605613708497,-0.234961181640625,0.2025872688293457,1.0674499857128397,10.535831533830756,0.40453187370958,-6.249877790298694,0.011466320620526094,-0.248490666086583,0.2038535228608886,-1.4408705426083148,1.786037036276501,17.292775319480903
1688472644.602,-0.11422476346631562,0.5927393443263232,-0.06837479679206562,-1.2600121787070915,0.03977036946464287,1.2901298541871151,-0.18192508802275736,-0.11423143302388598,0.5927034816281026,-0.06830049321706973,-1.2599849345538,0.03968552342464985,1.2901949782029103,-0.1819052308664421,1.0794325294494629,59.36072362136841,1.554742088317871,-26.871683330535888,0.6241858100891113,-0.23295867156982422,0.2035885238647461,1.0684067765693694,10.526646451964119,0.4068591318547479,-6.248078296985451,0.014075092405860211,-0.24827278214560727,0.2036984921657624,-1.425840172959974,1.7898411482054186,17.283204195953903
1688472644.702,-0.11422476346631562,0.5927392844397132,-0.06837479679206562,-1.2600121787070915,0.03977046528321881,1.2901298541871151,-0.18192508802275736,-0.11423143302388598,0.5927034816281026,-0.06830049321706973,-1.2599849345538,0.03968552342464985,1.2901949782029103,-0.1819052308664421,1.0794325294494629,59.3956741142273,1.5476990890502929,-26.866401081085204,0.6171428108215332,-0.2342936782836914,0.20458977890014649,1.0699603421796182,10.53947899898942,0.40779759938491167,-6.253557973191164,0.01392771434717385,-0.24810207605246543,0.20361422758226305,-1.4366312359250364,1.790511878474713,17.30016276648487
1688472644.802,-0.11422470357970566,0.5927393443263232,-0.06837479679206562,-1.2600121787070915,0.03977036946464287,1.2901298541871151,-0.18192508802275736,-0.11423143302388598,0.5927034816281026,-0.06830049321706973,-1.2599849345538,0.03968552342464985,1.2901949782029103,-0.1819052308664421,1.059268783569336,59.382231616973876,1.531852340698242,-26.859358081817625,0.6100998115539551,-0.2356286849975586,0.2032547721862793,1.0646275623359904,10.54074686388459,0.40487182259595744,-6.247985446666754,0.012390452303073186,-0.24846571050737298,0.20344781689909852,-1.4603574258127279,1.7778777983622063,17.293632922204974
1688472644.902,-0.11422476346631562,0.5927393443263232,-0.06837491656528553,-1.2600121787070915,0.03977046528321881,1.2901298541871151,-0.18192508802275736,-0.11423143302388598,0.5927034816281026,-0.06830049321706973,-1.2599849345538,0.03968552342464985,1.2901949782029103,-0.1819052308664421,1.0753997802734374,59.371477619171145,1.541536464691162,-26.89017120361328,0.6136213111877441,-0.23229116821289061,0.2035885238647461,1.068809802967555,10.539968731982038,0.4063467429115942,-6.247181375983795,0.012746256503589336,-0.24923083743606533,0.2037610154560654,-1.4610616236923737,1.7849760518354691,17.293617633636188
1688472645.001,-0.11422470357970566,0.5927394043220163,-0.06837479679206562,-1.2600121787070915,0.03977036946464287,1.2901298541871151,-0.18192508802275736,-0.11423143302388598,0.5927034816281026,-0.06830049321706973,-1.2599849345538,0.03968552342464985,1.2901949782029103,-0.1819052308664421,1.065990032196045,59.35803512191772,1.5380149650573731,-26.859358081817625,0.6109801864624024,-0.23629618835449218,0.20525728225708006,1.0668079876409948,10.537138701256353,0.404843942139636,-6.248781065150499,0.010853517136329354,-0.24847401660365687,0.2038337107000398,-1.4483832687436988,1.7839871867609105,17.292081372132568
1688472645.101,-0.11422470357970566,0.5927393443263232,-0.06837485667867557,-1.2600121787070915,0.03977036946464287,1.2901298541871151,-0.18192508802275736,-0.11423143302388598,0.5927034816281026,-0.06830049321706973,-1.2599849345538,0.03968552342464985,1.2901949782029103,-0.1819052308664421,1.0700227813720704,59.36744486999512,1.5406560897827148,-26.849673957824706,0.6109801864624024,-0.234961181640625,0.2025872688293457,1.066743604765139,10.534448420090639,0.40502461126325084,-6.248490532032472,0.011002866303612706,-0.24878237205740417,0.20408047549610395,-1.4424710766675224,1.7852962073735807,17.290372739927793
1688472645.271,-0.11422476346631562,0.5927394043220163,-0.06837485667867557,-1.2600121787070915,0.03977046528321881,1.2901298541871151,-0.18192508802275736,-0.11423143302388598,0.5927034816281026,-0.06830049321706973,-1.2599849345538,0.03968552342464985,1.2901949782029103,-0.1819052308664421,1.0700227813720704,59.375510368347165,1.534493465423584,-26.871683330535888,0.6109801864624024,-0.2342936782836914,0.20425602722167968,1.0677811608465968,10.545155237328492,0.4058255563916904,-6.250111325006628,0.012179104511630715,-0.2484958803779515,0.20423231577859818,-1.4633089892596478,1.7816374960488017,17.284981746117626
1688472645.294,-0.11422470357970566,0.5927393443263232,-0.06837479679206562,-1.2600121787070915,0.03977036946464287,1.2901298541871151,-0.18192508802275736,-0.11423143302388598,0.5927034816281026,-0.06830049321706973,-1.2599849345538,0.03968552342464985,1.2901949782029103,-0.1819052308664421,1.052547534942627,59.3701333694458,1.5327327156066894,-26.841750583648682,0.6145016860961914,-0.2359624366760254,0.20525728225708006,1.0666216820213215,10.535768366176267,0.40689928708597656,-6.248051149493751,0.012246185111944252,-0.24846255250145033,0.20397135339613418,-1.448165880193272,1.7842788756555097,17.29012687059353
1688472645.409,-0.11422470357970566,0.5927394043220163,-0.06837479679206562,-1.2600121787070915,0.03977036946464287,1.290129914073725,-0.18192508802275736,-0.11423143302388598,0.5927034816281026,-0.06830049321706973,-1.2599849345538,0.03968552342464985,1.2901949782029103,-0.1819052308664421,1.0753997802734374,59.37416611862183,1.541536464691162,-26.853195457458497,0.6127409362792968,-0.2352949333190918,0.2019197654724121,1.0666041036789058,10.536226518865178,0.40552504159102576,-6.248260158223009,0.012431197208294598,-0.24866333837379062,0.20414900057282281,-1.4481473815519468,1.784217284526389,17.291159388008303
1688472645.508,-0.11422470357970566,0.5927393443263232,-0.06837479679206562,-1.2600121787070915,0.03977046528321881,1.2901297941914223,-0.18192520790506037,-0.11423143302388598,0.5927034816281026,-0.06830049321706973,-1.2599849345538,0.03968552342464985,1.2901949782029103,-0.1819052308664421,1.0579245338439942,59.38357586669922,1.5380149650573731,-26.85495620727539,0.6100998115539551,-0.2342936782836914,0.20458977890014649,1.0668483471012862,10.533795181992764,0.406740752739972,-6.2422784388586585,0.011583187751977801,-0.2489036219239927,0.20389220201025307,-1.4652780859621974,1.781839520783664,17.281241249084
1688472645.608,-0.11422476346631562,0.5927394043220163,-0.06837485667867557,-1.2600121787070915,0.03977036946464287,1.2901298541871151,-0.18192508802275736,-0.11423143302388598,0.5927034816281026,-0.06830049321706973,-1.2599849345538,0.03968552342464985,1.2901949782029103,-0.1819052308664421,1.065990032196045,59.38357586669922,1.541536464691162,-26.883128204345702,0.6100998115539551,-0.23329242324829103,0.20392227554321288,1.0664471691948032,10.538284966455103,0.4070314493003806,-6.249758559042397,0.010237195169240924,-0.2483517699159424,0.20416436462723336,-1.447749373543639,1.784707204756271,17.294093149981375
1688472645.708,-0.11422470357970566,0.5927394043220163,-0.06837479679206562,-1.2600121787070915,0.03977046528321881,1.2901298541871151,-0.18192520790506037,-0.11423143302388598,0.5927034816281026,-0.06830049321706973,-1.2599849345538,0.03968552342464985,1.2901949782029103,-0.1819052308664421,1.0673342819213867,59.36341212081909,1.5406560897827148,-26.86199920654297,0.6100998115539551,-0.23329242324829103,0.20559103393554687,1.0655483643028894,10.538582250515883,0.4066699014907984,-6.2516213228762645,0.011929913465417543,-0.24803021791562516,0.20417285273254385,-1.4416589625834166,1.7840000096026711,17.296383707997013
1688472645.808,-0.11422476346631562,0.5927393443263232,-0.06837479679206562,-1.2600121787070915,0.03977046528321881,1.2901298541871151,-0.18192520790506037,-0.11423143302388598,0.5927034816281026,-0.06830049321706973,-1.2599849345538,0.03968552342464985,1.2901949782029103,-0.1819052308664421,1.0740555305480957,59.38088736724853,1.5362542152404786,-26.826784210205076,0.6092194366455078,-0.2352949333190918,0.20392227554321288,1.0684661466371508,10.539339940714905,0.40775948697685016,-6.247997971334622,0.012575203558886831,-0.24827980335616007,0.20433982367361886,-1.4578868885899259,1.786322989893689,17.292283936522736
1688472645.907,-0.11422470357970566,0.5927392844397132,-0.06837479679206562,-1.2600121787070915,0.03977036946464287,1.2901298541871151,-0.18192520790506037,-0.11423143302388598,0.5927034816281026,-0.06830049321706973,-1.2599849345538,0.03968552342464985,1.2901949782029103,-0.1819052308664421,1.0552360343933105,59.364756370544434,1.5274504661560058,-26.85231508255005,0.6074586868286133,-0.234961181640625,0.20392227554321288,1.0643791529405897,10.543637236996073,0.4056407934780846,-6.249853481766657,0.012187414959960573,-0.24802393841581555,0.20438907699934222,-1.461122099985945,1.7792175452084464,17.297461630281497
1688472646.007,-0.11422470357970566,0.5927393443263232,-0.06837479679206562,-1.2600121787070915,0.03977036946464287,1.290129914073725,-0.18192526779167031,-0.11423143302388598,0.5927034816281026,-0.06830049321706973,-1.2599849345538,0.03968552342464985,1.2901949782029103,-0.1819052308664421,1.0606130332946777,59.336527126312255,1.5327327156066894,-26.873444080352783,0.6127409362792968,-0.23329242324829103,0.2025872688293457,1.067706519796967,10.538716775493373,0.40681466402170335,-6.250709168041478,0.012515461646537617,-0.24792854327952546,0.20426552853243468,-1.4386367479081992,1.7862090288563806,17.291351231611603
1688472646.108,-0.11422470357970566,0.5927392844397132,-0.06837497656097857,-1.2600121787070915,0.03977036946464287,1.2901298541871151,-0.18192520790506037,-0.11423143302388598,0.5927034816281026,-0.06830049321706973,-1.2599849345538,0.03968552342464985,1.2901949782029103,-0.1819052308664421,1.0713670310974122,59.359379371643065,1.541536464691162,-26.85407583236694,0.6162624359130859,-0.2339599266052246,0.20425602722167968,1.0667843995403459,10.530164016958885,0.4044137123917235,-6.248482039610589,0.012951624926585355,-0.24795530349246878,0.20405887300020106,-1.433144099258847,1.7864083953945746,17.285514042533336
1688472646.208,-0.11422476346631562,0.5927392844397132,-0.06837485667867557,-1.2600121787070915,0.03977036946464287,1.2901298541871151,-0.18192526779167031,-0.11423143302388598,0.5927034816281026,-0.06830049321706973,-1.2599849345538,0.03968552342464985,1.2901949782029103,-0.1819052308664421,1.0579245338439942,59.37954311752319,1.5371345901489257,-26.82942533493042,0.6162624359130859,-0.2372974433898926,0.2032547721862793,1.064157641014458,10.536666756742619,0.40479141914880823,-6.251693171847578,0.010766129279702146,-0.24796751375525006,0.2042129466385735,-1.4363428591818643,1.7825288393458305,17.294835561609823
1688472646.308,-0.11422470357970566,0.5927394043220163,-0.06837479679206562,-1.2600121787070915,0.03977036946464287,1.2901298541871151,-0.18192508802275736,-0.11423143302388598,0.5927034816281026,-0.06830049321706973,-1.2599849345538,0.03968552342464985,1.2901949782029103,-0.1819052308664421,1.065990032196045,59.37282186889649,1.5397757148742675,-26.88664970397949,0.6100998115539551,-0.23329242324829103,0.20392227554321288,1.0648560516288812,10.537062196078823,0.4055557645546718,-6.250377465510644,0.012396085270397839,-0.24852383721975757,0.20368438801238914,-1.4418163357916771,1.7817551234080078,17.294554691252635
1688472646.407,-0.11422470357970566,0.5927392844397132,-0.06837479679206562,-1.2600121787070915,0.03977036946464287,1.2901298541871151,-0.18192526779167031,-0.11423143302388598,0.5927034816281026,-0.06830049321706973,-1.2599849345538,0.03968552342464985,1.2901949782029103,-0.1819052308664421,1.0633015327453614,59.34593687438965,1.5371345901489257,-26.87696557998657,0.6145016860961914,-0.2342936782836914,0.2032547721862793,1.0665793203423262,10.529065221491429,0.4055867338859876,-6.246896286519684,0.012847103008444237,-0.24821743864227916,0.20345123536768647,-1.4361741741522778,1.784849413053544,17.283041464701927
1688472646.507,-0.11422470357970566,0.5927393443263232,-0.06837485667867557,-1.2600121787070915,0.03977046528321881,1.2901298541871151,-0.18192508802275736,-0.11423143302388598,0.5927034816281026,-0.06830049321706973,-1.2599849345538,0.03968552342464985,1.2901949782029103,-0.1819052308664421,1.0606130332946777,59.37416611862183,1.5380149650573731,-26.885769329071046,0.6145016860961914,-0.234961181640625,0.20225351715087891,1.066081494726685,10.534102167436245,0.40685943360117555,-6.251850075814042,0.012541003735996802,-0.24791570947317307,0.20348505245688692,-1.4251176937412853,1.781654543121402,17.291341470416054
1688472646.607,-0.11422470357970566,0.5927394043220163,-0.06837479679206562,-1.2600121787070915,0.03977036946464287,1.2901300339560282,-0.18192508802275736,-0.11423143302388598,0.5927034816281026,-0.06830049321706973,-1.2599849345538,0.03968552342464985,1.2901949782029103,-0.1819052308664421,1.072711280822754,59.3862643661499,1.5380149650573731,-26.85495620727539,0.6083390617370605,-0.2336261749267578,0.2032547721862793,1.0637275782015512,10.533628466870411,0.4048618150406109,-6.245852004339524,0.010567971568422721,-0.24829766651414453,0.2038560697369481,-1.4511601480326382,1.778964351141778,17.28487444190189
1688472646.707,-0.11422470357970566,0.5927394043220163,-0.06837479679206562,-1.2600121787070915,0.03977036946464287,1.2901298541871151,-0.18192508802275736,-0.11423143302388598,0.5927034816281026,-0.06830049321706973,-1.2599849345538,0.03968552342464985,1.2901949782029103,-0.1819052308664421,1.0646457824707032,59.37819886779785,1.5380149650573731,-26.859358081817625,0.606578311920166,-0.23295867156982422,0.20392227554321288,1.0635607510676384,10.531924116741454,0.4053314928159354,-6.242461392899596,0.012715374202804018,-0.24821433838595391,0.20430422615382593,-1.4607191104832964,1.7778114313296707,17.278634389482317
