Edkamb/ConfLiftingaaS/DTProject/experiments/first_experiment/joint_position_data.csv
timestamp,actual_q_0,actual_q_1,actual_q_2,actual_q_3,actual_q_4,actual_q_5,actual_q_6,target_q_0,target_q_1,target_q_2,target_q_3,target_q_4,target_q_5,target_q_6,measured_tq_0,measured_tq_1,measured_tq_2,measured_tq_3,measured_tq_4,measured_tq_5,measured_tq_6,external_tq_0,external_tq_1,external_tq_2,external_tq_3,external_tq_4,external_tq_5,external_tq_6,force_X,force_Y,force_Z
1687876379.414,-0.3272185950575857,0.6894140493102264,0.6924056114978194,-1.644014847720895,-0.4727613740522578,0.9636050857575611,1.6144879945542716,-0.3272185950575857,0.6894139894236165,0.6924056114978194,-1.6440147877252018,-0.4727613740522578,0.9636050857575611,1.6144879945542716,0.5860928802490234,53.170453636169434,-11.169316463470459,-20.634227104187012,0.49565107345581055,0.2156035842895508,0.10947055053710937,0.5863427715203202,8.733695125623875,-2.7231121648180006,-4.6670115877341045,-0.020062369483610797,0.17301982737033747,0.1099654068366782,-0.2889392212565807,3.0393407658931584,18.02403573668419
1687876379.514,-0.3272185950575857,0.6894141093059194,0.6924056114978194,-1.644014847720895,-0.4727614698708337,0.963605205639864,1.6144879345585788,-0.3272185950575857,0.6894141093059194,0.6924056114978194,-1.644014847720895,-0.4727614698708337,0.963605205639864,1.6144879345585788,0.595502628326416,53.15028989028931,-11.151708965301513,-20.559395236968992,0.4868473243713379,0.211932315826416,0.10980430221557617,0.5866105427000144,8.735998932145348,-2.725373428698955,-4.658129377018608,-0.021581087289271453,0.17312254839737626,0.10983552366344723,-0.29961552783409395,3.0776967701275693,18.017431717182696
1687876379.607,-0.3272185950575857,0.6894140493102264,0.6924056114978194,-1.644014847720895,-0.4727614698708337,0.9636050857575611,1.6144879345585788,-0.32721865505327874,0.6894140493102264,0.6924056713844293,-1.644014847720895,-0.47276156568940964,0.963605205639864,1.6144879345585788,0.5807158813476563,53.165076637268065,-11.180761337280273,-20.634227104187012,0.48948844909667966,0.21727234268188478,0.10947055053710937,0.5864305818530093,8.73621504787535,-2.7258879975429484,-4.658521612259653,-0.020830006037736923,0.17333483170474612,0.10964177897100379,-0.300525689358623,3.075044205076615,18.02190361475894
1687876379.707,-0.32721865505327874,0.6894140493102264,0.6924056713844293,-1.6440147877252018,-0.47276156568940964,0.9636050857575611,1.6144879345585788,-0.3272185950575857,0.6894140493102264,0.6924056713844293,-1.644014847720895,-0.47276156568940964,0.9636050857575611,1.6144879345585788,0.5834043807983399,53.12071639633179,-11.186043586730957,-20.55147186279297,0.47804357528686525,0.21360107421875,0.11147306060791015,0.585331733231564,8.733250077339706,-2.728065085273034,-4.662571209649959,-0.02065939262603666,0.17365233555545379,0.11034358295826757,-0.29778376423998076,3.0594277301415236,18.01936998907675
1687876379.840,-0.3272185950575857,0.6894140493102264,0.6924056114978194,-1.644014727838592,-0.47276156568940964,0.9636050857575611,1.6144879345585788,-0.3272185950575857,0.6894140493102264,0.6924055516112095,-1.6440147877252018,-0.47276156568940964,0.9636050857575611,1.6144879345585788,0.5847486305236816,53.13953589248657,-11.183402462005615,-20.645671977996827,0.48948844909667966,0.21693859100341797,0.10913679885864258,0.5848712715736482,8.734727235775322,-2.7255035597972395,-4.664139383060792,-0.020037806055307722,0.17318128581126474,0.11018620866578276,-0.29473900500812966,3.046178134015552,18.022521202150415
1687876379.909,-0.32721865505327874,0.6894140493102264,0.6924056114978194,-1.644014847720895,-0.47276156568940964,0.9636050857575611,1.6144879945542716,-0.32721865505327874,0.6894139894236165,0.6924056114978194,-1.644014847720895,-0.47276156568940964,0.9636050857575611,1.6144879345585788,0.6183548736572265,53.17986338424683,-11.181641712188721,-20.56643823623657,0.4745220756530762,0.2129335708618164,0.10947055053710937,0.5818440584824898,8.73167339218854,-2.7285961502794605,-4.656903116568393,-0.022640075328223108,0.17333237235404453,0.10988864265476232,-0.30423003342654403,3.076090173631036,18.020907147494714
1687876380.008,-0.3272185950575857,0.6894139894236165,0.6924056114978194,-1.644014847720895,-0.47276156568940964,0.9636050857575611,1.6144879945542716,-0.3272185950575857,0.6894139894236165,0.6924056114978194,-1.6440147877252018,-0.47276156568940964,0.9636050857575611,1.6144879945542716,0.5538308868408203,53.08442165374756,-11.192206211090088,-20.632466354370116,0.4815650749206543,0.21860734939575197,0.11080555725097656,0.581135216628199,8.723432938862342,-2.721459571149991,-4.661417556068305,-0.02072849242910043,0.17342071425570338,0.11008823524111785,-0.29495438420875286,3.0251395209634326,17.99512691835
1687876380.108,-0.3272185950575857,0.6894141093059194,0.6924056114978194,-1.6440147877252018,-0.47276156568940964,0.963605205639864,1.6144879945542716,-0.3272185950575857,0.6894139894236165,0.6924055516112095,-1.644014727838592,-0.4727613740522578,0.9636050857575611,1.6144879945542716,0.6089451255798339,53.13819164276123,-11.178120212554932,-20.51537649154663,0.47980432510375975,0.21159856414794923,0.10947055053710937,0.5855232324461508,8.728883499842258,-2.7252542255156094,-4.655547576629778,-0.020105391486865458,0.17328568163022928,0.10982340751629041,-0.2979324008273757,3.0776636473848504,18.007600246152744
1687876380.207,-0.3272185950575857,0.6894140493102264,0.6924056114978194,-1.6440147877252018,-0.47276156568940964,0.9636050857575611,1.6144879345585788,-0.3272185950575857,0.6894140493102264,0.6924056114978194,-1.6440147877252018,-0.47276156568940964,0.9636050857575611,1.6144879345585788,0.6170106239318848,53.16642088699341,-11.15258934020996,-20.6861692237854,0.49741182327270506,0.2159373359680176,0.11047180557250977,0.589695665830527,8.739242696174237,-2.7228727954792813,-4.671216421695677,-0.017941926195011754,0.17372371600077002,0.11020797172012131,-0.28016151694927494,3.036722685230781,18.03021910610693
1687876380.308,-0.3272185950575857,0.6894139894236165,0.6924056713844293,-1.644014847720895,-0.4727614698708337,0.963605205639864,1.6144879945542716,-0.3272185950575857,0.6894139894236165,0.6924056713844293,-1.644014847720895,-0.4727614698708337,0.963605205639864,1.6144879945542716,0.6062566261291504,53.12878189468384,-11.15963233947754,-20.520658740997312,0.4850865745544434,0.20992980575561523,0.11113930892944336,0.5892904224758113,8.712434026842777,-2.7211483160818917,-4.6545853161977515,-0.02027053553278877,0.17372053970262624,0.11036307665889353,-0.28713999783690636,3.0587125512690454,17.981342950907468
1687876380.408,-0.3272185950575857,0.6894139894236165,0.6924056114978194,-1.6440147877252018,-0.4727613740522578,0.9636050857575611,1.6144879345585788,-0.32721865505327874,0.6894140493102264,0.6924056114978194,-1.644014847720895,-0.47276156568940964,0.9636050857575611,1.6144879945542716,0.5807158813476563,53.21481387710571,-11.205411834716797,-20.674724349975584,0.4868473243713379,0.21994235610961915,0.11113930892944336,0.5929505167825504,8.740610029808575,-2.7228442264831028,-4.66855056211457,-0.020693601008785784,0.17376163795538507,0.11020953237953393,-0.27893765173511437,3.0587290074667224,18.03906601177364
1687876380.507,-0.32721865505327874,0.6894140493102264,0.6924056713844293,-1.644014847720895,-0.47276156568940964,0.963605205639864,1.6144879345585788,-0.3272185950575857,0.6894139894236165,0.6924056713844293,-1.6440147877252018,-0.47276156568940964,0.963605205639864,1.6144879345585788,0.5860928802490234,53.112650897979734,-11.174598712921142,-20.549711112976073,0.48068470001220703,0.2129335708618164,0.10880304718017578,0.5810882722506813,8.735518591988047,-2.7291147252173316,-4.664905477502673,-0.02078665527884333,0.17369693836382516,0.11037289598962662,-0.30160501547394974,3.0506984463099536,18.02449274764503
1687876380.607,-0.3272185950575857,0.6894140493102264,0.6924056114978194,-1.6440147877252018,-0.47276156568940964,0.9636050857575611,1.6144879345585788,-0.3272185950575857,0.6894140493102264,0.6924056114978194,-1.6440147877252018,-0.47276156568940964,0.9636050857575611,1.6144879945542716,0.5847486305236816,53.11533939743042,-11.171077213287353,-20.635987854003908,0.48860807418823243,0.21526983261108398,0.11013805389404296,0.5910782380312012,8.724328395298521,-2.7164698540070624,-4.660464277486801,-0.02095385067558269,0.17303605934158714,0.11034095060920043,-0.28034614660499757,3.0454061621616515,17.999995068597812
1687876380.707,-0.3272185950575857,0.6894140493102264,0.6924056114978194,-1.6440147877252018,-0.47276156568940964,0.9636050857575611,1.6144879345585788,-0.3272185950575857,0.6894140493102264,0.6924056114978194,-1.6440147877252018,-0.4727613740522578,0.963605205639864,1.6144879945542716,0.588781379699707,53.16910938644409,-11.161393089294434,-20.56027561187744,0.4850865745544434,0.2125998191833496,0.11047180557250977,0.5894998600154029,8.72994373358258,-2.7239639316011366,-4.653154696834113,-0.022404271381464246,0.1732633029507467,0.11020338232715464,-0.29773910943948967,3.0902006847381682,18.012552990315882
1687876380.807,-0.3272185950575857,0.6894140493102264,0.6924056114978194,-1.6440147877252018,-0.47276156568940964,0.9636050857575611,1.6144881143274914,-0.3272185950575857,0.6894140493102264,0.6924056114978194,-1.644014727838592,-0.47276156568940964,0.963605205639864,1.6144879345585788,0.5874371299743653,53.15297838973999,-11.180761337280273,-20.61926073074341,0.48772769927978515,0.21693859100341797,0.11047180557250977,0.5780345049987635,8.736492596259593,-2.730921826593674,-4.669764268133724,-0.020542686227922678,0.17397280269730075,0.1099424613233998,-0.29876480585425513,3.024163886059917,18.025250329588943
1687876380.908,-0.32721865505327874,0.6894140493102264,0.6924056114978194,-1.644014847720895,-0.47276156568940964,0.9636050857575611,1.6144879345585788,-0.3272185950575857,0.6894140493102264,0.6924056114978194,-1.644014847720895,-0.47276156568940964,0.9636050857575611,1.6144879345585788,0.6035681266784668,53.12878189468384,-11.164034214019775,-20.585806484222413,0.47980432510375975,0.21493608093261718,0.11080555725097656,0.5907011674563303,8.727272060922424,-2.7207530014377,-4.656268562542394,-0.022778770170525167,0.17340607431141325,0.1103194255693116,-0.28878223057896113,3.0735389176864136,18.005921070284163
1687876381.008,-0.3272185950575857,0.6894140493102264,0.6924055516112095,-1.644014727838592,-0.47276156568940964,0.9636050857575611,1.6144879945542716,-0.3272185950575857,0.6894140493102264,0.6924056114978194,-1.644014847720895,-0.47276156568940964,0.963605205639864,1.6144879945542716,0.5726503829956054,53.13819164276123,-11.19836883544922,-20.609576606750487,0.48244544982910154,0.21693859100341797,0.11080555725097656,0.5890537380620859,8.73670808282056,-2.719822734134482,-4.663673646013405,-0.020278544658344465,0.17369166080187032,0.10977553414770108,-0.2927419762128445,3.0577419291108963,18.01951861025936
1687876381.107,-0.3272185950575857,0.6894140493102264,0.6924056114978194,-1.644014727838592,-0.47276156568940964,0.9636050857575611,1.6144879945542716,-0.3272185950575857,0.6894140493102264,0.6924056114978194,-1.6440147877252018,-0.47276156568940964,0.9636050857575611,1.6144879945542716,0.6008796272277832,53.14491289138794,-11.15963233947754,-20.569959735870363,0.4859669494628906,0.2139348258972168,0.11047180557250977,0.5780792326085911,8.73262912636348,-2.727488347133069,-4.6533987294098935,-0.021405659496330283,0.1733770088103409,0.11052245801412666,-0.31114713456991694,3.0736425333758435,18.00718227892564
1687876381.207,-0.3272185950575857,0.6894140493102264,0.6924056114978194,-1.6440147877252018,-0.47276156568940964,0.9636050857575611,1.6144879945542716,-0.3272185950575857,0.6894140493102264,0.6924056114978194,-1.6440147877252018,-0.47276156568940964,0.9636050857575611,1.6144879945542716,0.588781379699707,53.15163414001465,-11.181641712188721,-20.603413982391356,0.48948844909667966,0.21493608093261718,0.11113930892944336,0.5884882672374347,8.731188312184457,-2.7205824200979256,-4.667821354482111,-0.018442353878741425,0.17366676980325024,0.11022685542309901,-0.28200087037281696,3.0346676878597467,18.01175800164404
1687876381.306,-0.3272185950575857,0.6894140493102264,0.6924056114978194,-1.6440147877252018,-0.47276156568940964,0.9636050857575611,1.6144879345585788,-0.3272185950575857,0.6894140493102264,0.6924056713844293,-1.6440147877252018,-0.47276156568940964,0.9636050857575611,1.6144879945542716,0.582060131072998,53.170453636169434,-11.166675338745117,-20.59020835876465,0.4921295738220215,0.21360107421875,0.11047180557250977,0.5896515476617104,8.731242282607742,-2.7215293322361838,-4.654036175309146,-0.020375419771618764,0.1729205561433571,0.11032936147222541,-0.2962914208862565,3.0822627619197727,18.00978022302461
1687876381.406,-0.3272185950575857,0.6894140493102264,0.6924056114978194,-1.644014847720895,-0.47276156568940964,0.963605205639864,1.6144879945542716,-0.3272185950575857,0.6894140493102264,0.6924056114978194,-1.6440147877252018,-0.47276156568940964,0.9636050857575611,1.6144879945542716,0.5847486305236816,53.14625714111328,-11.170196838378907,-20.603413982391356,0.48948844909667966,0.2132673225402832,0.11180681228637696,0.5852493684520679,8.735769042506515,-2.727184681785457,-4.669159725793991,-0.019570675194670137,0.1733010279485052,0.11066803354371565,-0.2889838355790622,3.0373958084078274,18.025891857532052
1687876381.506,-0.3272185950575857,0.6894140493102264,0.6924056713844293,-1.6440147877252018,-0.47276156568940964,0.9636050857575611,1.6144879945542716,-0.3272185950575857,0.6894139894236165,0.6924056114978194,-1.6440147877252018,-0.4727613740522578,0.9636050857575611,1.6144879345585788,0.5941583786010742,53.131470394134524,-11.153469715118408,-20.578763484954834,0.4842061996459961,0.21126481246948242,0.11147306060791015,0.5888925911757703,8.723045469804445,-2.724822839458504,-4.652773276464521,-0.02198565318373563,0.17280799224018406,0.11032426272134091,-0.29339205001256385,3.074845328374531,18.005366555242464
1687876381.605,-0.3272185950575857,0.6894140493102264,0.6924056114978194,-1.644014847720895,-0.47276156568940964,0.9636050857575611,1.6144879945542716,-0.3272185950575857,0.6894140493102264,0.6924056114978194,-1.6440147877252018,-0.47276156568940964,0.9636050857575611,1.6144879345585788,0.5793716316223144,53.17851913452149,-11.179880962371826,-20.6210214805603,0.4868473243713379,0.2146023292541504,0.11013805389404296,0.5871551521904513,8.7319871025957,-2.725106937324326,-4.671954014499645,-0.02025202640960476,0.17414168793468277,0.11018593834847179,-0.2820245116573572,3.0249715843726923,18.02266357369213
1687876381.738,-0.3272185950575857,0.6894140493102264,0.6924056713844293,-1.644014727838592,-0.47276156568940964,0.963605205639864,1.6144879945542716,-0.3272185950575857,0.6894139894236165,0.6924056114978194,-1.6440147877252018,-0.47276156568940964,0.9636050857575611,1.6144879945542716,0.5928141288757324,53.1435686416626,-11.167555713653565,-20.588447608947753,0.48772769927978515,0.21526983261108398,0.11013805389404296,0.5911467854637862,8.727709307321422,-2.7254993690236304,-4.656771779026613,-0.020803642072727745,0.1731230699754183,0.11043669462753082,-0.2888382412755256,3.073058644117404,18.012184450732107
1687876381.807,-0.3272185950575857,0.6894140493102264,0.6924056114978194,-1.644014847720895,-0.47276156568940964,0.9636050857575611,1.6144881143274914,-0.3272185950575857,0.6894139894236165,0.6924056713844293,-1.644014727838592,-0.4727613740522578,0.9636050857575611,1.6144879945542716,0.602223876953125,53.12878189468384,-11.186043586730957,-20.591088733673097,0.47980432510375975,0.2139348258972168,0.11047180557250977,0.5918683899816045,8.730560779034763,-2.7223918441622987,-4.6686077035914595,-0.020043322464622995,0.17373463050767912,0.11025707279845173,-0.27908947649831767,3.0410698701900825,18.021877823132744
1687876381.906,-0.3272185950575857,0.6894139894236165,0.6924056114978194,-1.6440147877252018,-0.47276156568940964,0.9636050857575611,1.6144879945542716,-0.3272185950575857,0.6894140493102264,0.6924056713844293,-1.6440147877252018,-0.47276156568940964,0.9636050857575611,1.6144879345585788,0.5860928802490234,53.14088014221191,-11.173718338012694,-20.606935482025147,0.48068470001220703,0.21360107421875,0.10913679885864258,0.5892629614348239,8.730328968209337,-2.7240285284117878,-4.649966143195092,-0.021621719149138303,0.17264749283938194,0.1103314364075548,-0.30219431893880133,3.091141767550724,18.012801785376183
1687876382.006,-0.3272185950575857,0.6894140493102264,0.6924056114978194,-1.6440147877252018,-0.47276156568940964,0.963605205639864,1.6144879345585788,-0.3272185950575857,0.6894140493102264,0.6924056114978194,-1.6440147877252018,-0.4727613740522578,0.9636050857575611,1.6144879345585788,0.5807158813476563,53.14088014221191,-11.189565086364746,-20.5893279838562,0.4850865745544434,0.2142685775756836,0.10980430221557617,0.5823548314633031,8.734574198546317,-2.7242743305009918,-4.66964854909945,-0.02088011212853071,0.1740027088950324,0.10988040972499291,-0.2930499926276071,3.029324746120198,18.016538736370283
1687876382.106,-0.3272185950575857,0.6894139894236165,0.6924056114978194,-1.6440147877252018,-0.47276156568940964,0.9636050857575611,1.6144879945542716,-0.3272185950575857,0.6894140493102264,0.6924056114978194,-1.644014847720895,-0.4727613740522578,0.9636050857575611,1.6144879945542716,0.5968468780517578,53.16238813781738,-11.164034214019775,-20.63070560455322,0.4859669494628906,0.2142685775756836,0.11080555725097656,0.5908151602060433,8.739196231025087,-2.722299257505517,-4.653768864778973,-0.022769367788906772,0.17298830175740249,0.11002406454772803,-0.2999719342740859,3.0992420410576242,18.02579017553664
1687876382.205,-0.3272185950575857,0.6894140493102264,0.6924056114978194,-1.6440147877252018,-0.4727613740522578,0.9636050857575611,1.6144879345585788,-0.3272185950575857,0.6894140493102264,0.6924056114978194,-1.644014847720895,-0.47276156568940964,0.9636050857575611,1.6144879945542716,0.5874371299743653,53.12206064605713,-11.171077213287353,-20.561155986785888,0.48068470001220703,0.21360107421875,0.11147306060791015,0.5852810723851292,8.731678309449162,-2.7214438308988367,-4.670244240723901,-0.020340888522004635,0.17354769262392356,0.1105073032079811,-0.28650994794310386,3.0289522584475908,18.01295512751995
1687876382.305,-0.3272185950575857,0.6894140493102264,0.6924056114978194,-1.6440147877252018,-0.47276156568940964,0.9636050857575611,1.6144879345585788,-0.3272185950575857,0.6894139894236165,0.6924056114978194,-1.644014847720895,-0.47276156568940964,0.9636050857575611,1.6144879945542716,0.5874371299743653,53.171797885894776,-11.158751964569092,-20.6210214805603,0.4868473243713379,0.2132673225402832,0.11013805389404296,0.5882627454025853,8.728934145965853,-2.7213887674123587,-4.652818951453639,-0.022664376124658644,0.1730010259131666,0.1101049894446095,-0.29846583678191857,3.0823837330490806,18.011013123972486
1687876382.404,-0.3272185950575857,0.6894139894236165,0.6924056114978194,-1.6440147877252018,-0.47276156568940964,0.9636050857575611,1.6144879345585788,-0.3272185950575857,0.6894139894236165,0.6924056114978194,-1.644014847720895,-0.47276156568940964,0.9636050857575611,1.6144879945542716,0.5780273818969727,53.148945640563966,-11.170196838378907,-20.561155986785888,0.4842061996459961,0.2129335708618164,0.11080555725097656,0.5866223831245863,8.731256352836933,-2.724235021724235,-4.668150295114478,-0.020803404194662027,0.17402308884954365,0.1103738271508237,-0.2896337801600174,3.04246187971623,18.018070075372645
1687876382.504,-0.3272185950575857,0.6894140493102264,0.6924056114978194,-1.644014727838592,-0.47276156568940964,0.9636050857575611,1.6144879945542716,-0.32721865505327874,0.6894140493102264,0.6924056114978194,-1.644014727838592,-0.4727613740522578,0.9636050857575611,1.6144879345585788,0.5995353775024415,53.182551883697506,-11.149067840576171,-20.639509353637695,0.49565107345581055,0.2129335708618164,0.11080555725097656,0.5873661741081764,8.73231281788648,-2.72378311297705,-4.65527795571913,-0.0226183476977024,0.17263409791954837,0.1104765907851627,-0.29271740763751114,3.076126492555829,18.017952992921558
1687876382.637,-0.3272185950575857,0.6894139894236165,0.6924056114978194,-1.6440147877252018,-0.4727613740522578,0.9636050857575611,1.6144879945542716,-0.3272185950575857,0.6894140493102264,0.6924056114978194,-1.644014847720895,-0.47276156568940964,0.963605205639864,1.6144879345585788,0.5807158813476563,53.135503143310544,-11.17547908782959,-20.559395236968992,0.4842061996459961,0.21093106079101562,0.10846929550170899,0.5891934402231389,8.736574258544394,-2.7259797129937136,-4.672640626299939,-0.02113671433301497,0.17385515761022227,0.11051129426234768,-0.28331341998033455,3.0398633809547766,18.028964390028875
1687876382.704,-0.32721865505327874,0.6894139894236165,0.6924056114978194,-1.644014847720895,-0.47276156568940964,0.963605205639864,1.6144879945542716,-0.32721865505327874,0.6894139894236165,0.6924056114978194,-1.644014847720895,-0.47276156568940964,0.963605205639864,1.6144879945542716,0.582060131072998,53.15566688919068,-11.164034214019775,-20.645671977996827,0.48860807418823243,0.21660483932495117,0.11047180557250977,0.5869895081229289,8.726128679738665,-2.7224553829029237,-4.657244012880351,-0.020436399510995937,0.17309011048894807,0.11015713408842813,-0.2908006165667465,3.0596716056119333,18.00712537135057
1687876382.804,-0.3272185950575857,0.6894140493102264,0.6924056713844293,-1.644014727838592,-0.47276156568940964,0.9636050857575611,1.6144879345585788,-0.3272185950575857,0.6894140493102264,0.6924056114978194,-1.644014727838592,-0.47276156568940964,0.9636050857575611,1.6144879945542716,0.5914698791503906,53.15701113891602,-11.18780433654785,-20.57612236022949,0.4736417007446289,0.2122660675048828,0.11113930892944336,0.5879906132430739,8.73648463202682,-2.725684190300655,-4.668939651549569,-0.020224896372484046,0.17318599607509694,0.11001300091869712,-0.2888501796774999,3.0437332360186793,18.02661768808661
1687876382.904,-0.3272185950575857,0.6894140493102264,0.6924056713844293,-1.644014847720895,-0.47276156568940964,0.9636050857575611,1.6144879345585788,-0.3272185950575857,0.6894141093059194,0.6924056114978194,-1.6440147877252018,-0.47276156568940964,0.9636050857575611,1.6144879345585788,0.5766831321716308,53.15028989028931,-11.177239837646484,-20.638628978729248,0.49036882400512694,0.21493608093261718,0.11047180557250977,0.5890694998279703,8.735953139892917,-2.721628712790796,-4.66111634229782,-0.020942248762978285,0.1727650711713441,0.10953402676372592,-0.2910263514955102,3.061075587640715,18.020181294017437
1687876383.003,-0.3272185950575857,0.6894140493102264,0.6924056114978194,-1.6440147877252018,-0.47276156568940964,0.9636050857575611,1.6144879945542716,-0.3272185950575857,0.6894139894236165,0.6924056114978194,-1.644014847720895,-0.47276156568940964,0.9636050857575611,1.6144879945542716,0.595502628326416,53.14625714111328,-11.177239837646484,-20.56379711151123,0.47980432510375975,0.211932315826416,0.11013805389404296,0.5888654016358004,8.735351540449836,-2.723899159833776,-4.6645410223325365,-0.020844973556798332,0.1730193897417548,0.10977533676617951,-0.29207229712763955,3.0621659017868748,18.025838257116042
1687876383.106,-0.3272185950575857,0.6894141093059194,0.6924056114978194,-1.644014847720895,-0.4727613740522578,0.9636050857575611,1.6144879945542716,-0.3272185950575857,0.6894140493102264,0.6924056114978194,-1.6440147877252018,-0.47276156568940964,0.9636050857575611,1.6144879945542716,0.5713061332702637,53.1341588935852,-11.170196838378907,-20.63510747909546,0.48860807418823243,0.21693859100341797,0.11047180557250977,0.5851559241396114,8.734390149428913,-2.7207291126003144,-4.659725788277694,-0.020149327270838166,0.17275754307116326,0.10976921043755147,-0.2977739031214493,3.057503166122391,18.016965215678674
1687876383.210,-0.3272185950575857,0.6894139894236165,0.6924056114978194,-1.644014847720895,-0.47276156568940964,0.9636050857575611,1.6144879945542716,-0.3272185950575857,0.6894140493102264,0.6924056114978194,-1.644014847720895,-0.47276156568940964,0.9636050857575611,1.6144879945542716,0.5941583786010742,53.165076637268065,-11.17547908782959,-20.5743616104126,0.49036882400512694,0.2125998191833496,0.11113930892944336,0.5844304031664945,8.735702772463616,-2.7252350838468935,-4.6580902521204335,-0.019973325766900488,0.17310237479066157,0.10986707881922861,-0.3035953939704612,3.0744757949363044,18.014791560730963
1687876383.309,-0.3272185950575857,0.6894140493102264,0.6924056114978194,-1.6440147877252018,-0.4727613740522578,0.9636050857575611,1.6144879945542716,-0.3272185950575857,0.6894141093059194,0.6924056114978194,-1.6440147877252018,-0.47276156568940964,0.9636050857575611,1.6144879945542716,0.5847486305236816,53.14491289138794,-11.186923961639405,-20.61926073074341,0.4868473243713379,0.2142685775756836,0.10980430221557617,0.5872851515114235,8.742510703556896,-2.7231890222030017,-4.67041453474894,-0.01939069712784293,0.1730308206773863,0.11023539320215378,-0.28741790361708497,3.04238913527747,18.032325997062685
1687876383.409,-0.3272185950575857,0.6894140493102264,0.6924056114978194,-1.6440147877252018,-0.47276156568940964,0.9636050857575611,1.6144879945542716,-0.3272185950575857,0.6894139894236165,0.6924056114978194,-1.644014847720895,-0.47276156568940964,0.963605205639864,1.6144879345585788,0.5914698791503906,53.1341588935852,-11.158751964569092,-20.5743616104126,0.4912491989135742,0.2122660675048828,0.11013805389404296,0.5867655656855211,8.728392911099995,-2.7222086824035654,-4.656747528431164,-0.021118453402527562,0.17248023918569644,0.11030801329975096,-0.29624200092056446,3.068849948593468,18.00942859868726
1687876383.508,-0.3272185950575857,0.6894140493102264,0.6924056114978194,-1.644014847720895,-0.47276156568940964,0.9636050857575611,1.6144879345585788,-0.3272185950575857,0.6894141093059194,0.6924056114978194,-1.644014847720895,-0.47276156568940964,0.9636050857575611,1.6144879945542716,0.5739946327209473,53.16642088699341,-11.172837963104248,-20.6210214805603,0.4859669494628906,0.2139348258972168,0.11013805389404296,0.5892706907306517,8.738698039153649,-2.7206311634779556,-4.666377282774921,-0.018907704483047044,0.17293787617435508,0.10987137830941907,-0.2880883730115272,3.0522235914059697,18.02173257107693
1687876383.641,-0.3272185950575857,0.6894141093059194,0.6924056114978194,-1.644014847720895,-0.4727614698708337,0.9636050857575611,1.6144879345585788,-0.3272185950575857,0.6894140493102264,0.6924056114978194,-1.644014847720895,-0.47276156568940964,0.9636050857575611,1.6144879945542716,0.5968468780517578,53.154322639465335,-11.157871589660644,-20.56027561187744,0.47980432510375975,0.2122660675048828,0.10846929550170899,0.5903921922027565,8.738424440831249,-2.7261441377631703,-4.666147347562519,-0.021071902071067843,0.173111079808077,0.11018215972158889,-0.2908834322790042,3.064086559452043,18.035223235152866
1687876383.710,-0.32721865505327874,0.6894140493102264,0.6924056114978194,-1.644014847720895,-0.4727613740522578,0.9636050857575611,1.6144879345585788,-0.3272185950575857,0.6894141093059194,0.6924056114978194,-1.644014847720895,-0.47276156568940964,0.9636050857575611,1.6144879345585788,0.5914698791503906,53.15566688919068,-11.16579496383667,-20.61485885620117,0.4842061996459961,0.2159373359680176,0.11013805389404296,0.5907001002020287,8.743064025303177,-2.725174287624382,-4.670399271159423,-0.019830322635955997,0.173076597407492,0.10987312463343787,-0.2845784367082284,3.0525136453394786,18.036808814788326
1687876383.809,-0.3272185950575857,0.6894141093059194,0.6924056713844293,-1.6440147877252018,-0.47276156568940964,0.963605205639864,1.6144879345585788,-0.32721865505327874,0.6894140493102264,0.6924056713844293,-1.6440147877252018,-0.47276156568940964,0.9636050857575611,1.6144879945542716,0.5847486305236816,53.13953589248657,-11.158751964569092,-20.58052423477173,0.4850865745544434,0.2122660675048828,0.10980430221557617,0.58836815927342,8.72826254071774,-2.7251479372004637,-4.655310407164914,-0.02284877782790658,0.1730605841022992,0.11043414693579101,-0.2925123343956084,3.0761040348249375,18.011631939211675
1687876383.909,-0.3272185950575857,0.6894139894236165,0.6924056114978194,-1.644014847720895,-0.47276156568940964,0.963605205639864,1.6144879345585788,-0.3272185950575857,0.6894141093059194,0.6924056713844293,-1.644014847720895,-0.47276156568940964,0.9636050857575611,1.6144879345585788,0.5874371299743653,53.158355388641354,-11.186043586730957,-20.620141105651854,0.47804357528686525,0.2146023292541504,0.10913679885864258,0.5885388176349833,8.737257475234724,-2.7272938415583177,-4.672001999998608,-0.02208870746740512,0.1732530983361298,0.1101027217356322,-0.28264268206005316,3.0340758736739852,18.029735424164578
1687876384.009,-0.32721865505327874,0.6894140493102264,0.6924056114978194,-1.644014847720895,-0.47276156568940964,0.9636050857575611,1.6144879345585788,-0.3272185950575857,0.6894140493102264,0.6924056713844293,-1.6440147877252018,-0.47276156568940964,0.9636050857575611,1.6144879945542716,0.5928141288757324,53.148945640563966,-11.16843608856201,-20.591969108581544,0.4850865745544434,0.2142685775756836,0.11080555725097656,0.5920967633594516,8.735057098602667,-2.7258248263222136,-4.655477052165206,-0.021798435779102017,0.17212419175910232,0.11012076399365381,-0.2925876055856974,3.0897667828100714,18.023049930976114
1687876384.108,-0.3272185950575857,0.6894140493102264,0.6924055516112095,-1.644014727838592,-0.47276156568940964,0.9636050857575611,1.6144879945542716,-0.3272185950575857,0.6894139894236165,0.6924056114978194,-1.644014847720895,-0.47276156568940964,0.9636050857575611,1.6144879345585788,0.5914698791503906,53.13012614440918,-11.18780433654785,-20.604294357299803,0.47980432510375975,0.2122660675048828,0.11013805389404296,0.5915310227077553,8.731919610045914,-2.722749616922809,-4.669541899640772,-0.021336330061390026,0.1732525797389608,0.11030413678794421,-0.27839900080827734,3.0417699791767987,18.023495891993893
1687876384.208,-0.3272185950575857,0.6894140493102264,0.6924056713844293,-1.6440147877252018,-0.47276156568940964,0.9636050857575611,1.6144879345585788,-0.3272185950575857,0.6894140493102264,0.6924056114978194,-1.644014847720895,-0.47276156568940964,0.9636050857575611,1.6144879345585788,0.6008796272277832,53.154322639465335,-11.173718338012694,-20.59901210784912,0.4815650749206543,0.21493608093261718,0.11113930892944336,0.5918639873820715,8.732635854777657,-2.7237438410754358,-4.649535678399679,-0.023518929461229618,0.17207359350831586,0.11009579823708596,-0.2989353389034634,3.1062445366053995,18.02254429286427
1687876384.308,-0.3272185950575857,0.6894139894236165,0.6924056114978194,-1.644014847720895,-0.47276156568940964,0.963605205639864,1.6144879945542716,-0.3272185950575857,0.6894140493102264,0.6924056114978194,-1.644014847720895,-0.47276156568940964,0.9636050857575611,1.6144879945542716,0.5807158813476563,53.1180278968811,-11.183402462005615,-20.588447608947753,0.477163200378418,0.21493608093261718,0.11113930892944336,0.5830797192242682,8.736993104267944,-2.7259716315148963,-4.674001201093155,-0.020187971490555758,0.17340214411143678,0.11029207984147174,-0.29025587310629464,3.02204902234741,18.026077952197582
1687876384.407,-0.3272185950575857,0.6894139894236165,0.6924056713844293,-1.6440147877252018,-0.47276156568940964,0.963605205639864,1.6144879345585788,-0.3272185950575857,0.6894140493102264,0.6924056114978194,-1.6440147877252018,-0.4727614698708337,0.9636050857575611,1.6144881143274914,0.6076008758544922,53.15297838973999,-11.166675338745117,-20.611337356567383,0.48772769927978515,0.2132673225402832,0.10813554382324218,0.5894496425987911,8.73387235742398,-2.7223682878132127,-4.650640784128658,-0.0197283571492864,0.17189222002900945,0.11023008857145074,-0.2993286087646414,3.096091592021381,18.013214624110887
1687876384.540,-0.32721865505327874,0.6894139894236165,0.6924056114978194,-1.6440147877252018,-0.47276156568940964,0.9636050857575611,1.6144879945542716,-0.3272185950575857,0.6894141093059194,0.6924056114978194,-1.644014727838592,-0.4727613740522578,0.9636050857575611,1.6144879345585788,0.5713061332702637,53.135503143310544,-11.171077213287353,-20.58052423477173,0.4833258247375488,0.2129335708618164,0.11180681228637696,0.5901369678632307,8.742450296179834,-2.7192992049355826,-4.675527466514289,-0.01929510620051282,0.17316114455443957,0.1102230125795308,-0.27849667391329325,3.031453327882498,18.03331308113433
1687876384.608,-0.3272185950575857,0.6894140493102264,0.6924056114978194,-1.644014847720895,-0.47276156568940964,0.9636050857575611,1.6144879945542716,-0.3272185950575857,0.6894139894236165,0.6924056713844293,-1.6440147877252018,-0.47276156568940964,0.9636050857575611,1.6144879945542716,0.588781379699707,53.17986338424683,-11.15611083984375,-20.607815856933595,0.49036882400512694,0.2129335708618164,0.11314181900024414,0.5833790007384434,8.72752281134645,-2.7237025809821387,-4.651577113700645,-0.0220728354973541,0.1720044207414102,0.11039238076595591,-0.30754555394936683,3.0740731316288907,18.01016626879572
1687876384.708,-0.3272185950575857,0.6894139894236165,0.6924056114978194,-1.6440147877252018,-0.47276156568940964,0.9636050857575611,1.6144881143274914,-0.3272185950575857,0.6894140493102264,0.6924056114978194,-1.6440147877252018,-0.47276156568940964,0.9636050857575611,1.6144879945542716,0.5914698791503906,53.15701113891602,-11.172837963104248,-20.58052423477173,0.4850865745544434,0.2122660675048828,0.11113930892944336,0.5856067026408527,8.744623202126839,-2.726726473235554,-4.677968606165185,-0.019904974662221606,0.17277874686502254,0.10998744770378575,-0.287536558535641,3.0258767169437313,18.042321201341508
1687876384.808,-0.3272185950575857,0.6894140493102264,0.6924056114978194,-1.6440147877252018,-0.47276156568940964,0.9636050857575611,1.6144879945542716,-0.3272185950575857,0.6894139894236165,0.6924056114978194,-1.6440147877252018,-0.47276156568940964,0.963605205639864,1.6144879945542716,0.5968468780517578,53.16373238754272,-11.156991214752198,-20.624542980194093,0.4912491989135742,0.2125998191833496,0.10947055053710937,0.5895690725897247,8.728605758865774,-2.72383473301589,-4.653160754988679,-0.02237328875631486,0.17212800455114258,0.11000264029166075,-0.29443258214489987,3.080101563395091,18.013356472943524
1687876384.907,-0.3272185950575857,0.6894141093059194,0.6924056713844293,-1.644014847720895,-0.47276156568940964,0.9636050857575611,1.6144879945542716,-0.3272185950575857,0.6894140493102264,0.6924056114978194,-1.644014847720895,-0.47276156568940964,0.9636050857575611,1.6144879345585788,0.5807158813476563,53.13281464385987,-11.180761337280273,-20.577883110046386,0.48068470001220703,0.2142685775756836,0.11080555725097656,0.5870211076655535,8.731285567826843,-2.724981174171043,-4.669548899335283,-0.020991078624466815,0.17307547433755321,0.1100118314676169,-0.28576558894808934,3.032580648938223,18.01969353923041
1687876385.008,-0.3272185950575857,0.6894140493102264,0.6924056114978194,-1.644014847720895,-0.47276156568940964,0.9636050857575611,1.6144879345585788,-0.3272185950575857,0.6894140493102264,0.6924056114978194,-1.644014847720895,-0.47276156568940964,0.9636050857575611,1.6144879345585788,0.5834043807983399,53.16104388809204,-11.180761337280273,-20.624542980194093,0.4868473243713379,0.2139348258972168,0.11047180557250977,0.5913574150256976,8.736105289315063,-2.7264399187721398,-4.658610351723567,-0.021720192676891483,0.17229408436653543,0.10989213191264127,-0.2918904248204612,3.0810381222218757,18.031152697312734
1687876385.107,-0.3272185950575857,0.6894139894236165,0.6924056114978194,-1.644014847720895,-0.4727613740522578,0.9636050857575611,1.6144879345585788,-0.3272185950575857,0.6894140493102264,0.6924056114978194,-1.6440147877252018,-0.4727614698708337,0.9636050857575611,1.6144879945542716,0.5874371299743653,53.12071639633179,-11.185163211822509,-20.57612236022949,0.48244544982910154,0.2142685775756836,0.11147306060791015,0.5842027036631814,8.729046586077956,-2.725805191609712,-4.667344794902566,-0.02055049354601375,0.17313619354001186,0.1099879655263245,-0.28888382667803536,3.0296162514930858,18.012484898098634
1687876385.206,-0.3272185950575857,0.6894141093059194,0.6924056713844293,-1.6440147877252018,-0.47276156568940964,0.9636050857575611,1.6144879345585788,-0.3272185950575857,0.6894140493102264,0.6924056114978194,-1.6440147877252018,-0.47276156568940964,0.9636050857575611,1.6144879945542716,0.5901256294250489,53.148945640563966,-11.177239837646484,-20.640389728546143,0.4859669494628906,0.2142685775756836,0.10980430221557617,0.5909371004641254,8.735076738462102,-2.7226761948603286,-4.657024576944065,-0.021972508477246435,0.17210965213277302,0.10970230062125232,-0.293804174408436,3.075804029601371,18.02089801785072
1687876385.306,-0.3272185950575857,0.6894140493102264,0.6924056114978194,-1.6440147877252018,-0.47276156568940964,0.9636050857575611,1.6144879945542716,-0.3272185950575857,0.6894140493102264,0.6924056114978194,-1.6440147877252018,-0.47276156568940964,0.9636050857575611,1.6144879945542716,0.5699618835449218,53.12206064605713,-11.186923961639405,-20.56379711151123,0.4789239501953125,0.2132673225402832,0.10913679885864258,0.5847402020209924,8.73570558686824,-2.7246006914681935,-4.668956934346717,-0.02137419056682785,0.17310047509706883,0.10964381173798578,-0.29235364242398,3.0373895495089807,18.0207298198332
1687876385.406,-0.3272185950575857,0.6894141093059194,0.6924056114978194,-1.644014847720895,-0.47276156568940964,0.9636050857575611,1.6144879345585788,-0.3272185950575857,0.6894140493102264,0.6924056713844293,-1.6440147877252018,-0.47276156568940964,0.9636050857575611,1.6144879345585788,0.5941583786010742,53.17314213562012,-11.158751964569092,-20.61838035583496,0.4912491989135742,0.21493608093261718,0.10980430221557617,0.585118048489317,8.731201163469455,-2.7218199640566834,-4.655304529036931,-0.020812785249670958,0.17274012200066402,0.10997378843119647,-0.30071539419404625,3.068902738049378,18.008008274122467
1687876385.506,-0.3272185950575857,0.6894139894236165,0.6924056114978194,-1.644014847720895,-0.47276156568940964,0.9636050857575611,1.6144879945542716,-0.3272185950575857,0.6894140493102264,0.6924056114978194,-1.644014847720895,-0.47276156568940964,0.9636050857575611,1.6144879345585788,0.5901256294250489,53.142224391937255,-11.1719575881958,-20.559395236968992,0.48068470001220703,0.2125998191833496,0.11047180557250977,0.5857882511987337,8.739247917773984,-2.7238069237228903,-4.667971616171241,-0.019824767999842167,0.17279645648937803,0.1093205094587923,-0.295739774830034,3.0496027810785167,18.027654044536263
1687876385.606,-0.3272185950575857,0.6894139894236165,0.6924056114978194,-1.6440147877252018,-0.47276156568940964,0.9636050857575611,1.6144879945542716,-0.3272185950575857,0.6894139894236165,0.6924056114978194,-1.6440147877252018,-0.47276156568940964,0.9636050857575611,1.6144879945542716,0.5860928802490234,53.16642088699341,-11.164914588928223,-20.63070560455322,0.4991725730895996,0.2139348258972168,0.10980430221557617,0.5854938998234704,8.732013649781688,-2.7225113000067305,-4.656695217188307,-0.020270676536104277,0.1722114924792487,0.11006644766715384,-0.29918260134921715,3.0680366788779105,18.01923194631238
1687876385.705,-0.3272185950575857,0.6894140493102264,0.6924056114978194,-1.644014847720895,-0.47276156568940964,0.963605205639864,1.6144880544408817,-0.3272185950575857,0.6894139894236165,0.6924056114978194,-1.6440147877252018,-0.47276156568940964,0.9636050857575611,1.6144879345585788,0.5860928802490234,53.15701113891602,-11.16843608856201,-20.569079360961915,0.4842061996459961,0.20992980575561523,0.11047180557250977,0.586381552473761,8.735343893242932,-2.726992018665608,-4.669629000168074,-0.020302783178987607,0.17295581223833728,0.1100739643058236,-0.29028198386477866,3.04243692996108,18.030130542036883
1687876385.804,-0.3272185950575857,0.6894139894236165,0.6924056713844293,-1.6440147877252018,-0.47276156568940964,0.963605205639864,1.6144879945542716,-0.3272185950575857,0.6894139894236165,0.6924056713844293,-1.6440147877252018,-0.47276156568940964,0.963605205639864,1.6144879945542716,0.5834043807983399,53.159699638366696,-11.156991214752198,-20.626303730010985,0.49829219818115233,0.2139348258972168,0.10880304718017578,0.5858931465980515,8.729870413500763,-2.7237815998125194,-4.655506313983075,-0.02208119609626926,0.17254896525005556,0.10986945742056439,-0.3017111556202693,3.065833745912472,18.01256869379597
1687876385.905,-0.3272185950575857,0.6894140493102264,0.6924056713844293,-1.644014727838592,-0.47276156568940964,0.9636050857575611,1.6144879945542716,-0.3272185950575857,0.6894140493102264,0.6924056713844293,-1.644014727838592,-0.47276156568940964,0.9636050857575611,1.6144879945542716,0.5901256294250489,53.15701113891602,-11.169316463470459,-20.568198986053467,0.4842061996459961,0.211932315826416,0.10947055053710937,0.5838552247889094,8.731600740139253,-2.726438789763771,-4.665006096055401,-0.020382216846793644,0.1734174594786077,0.11055322659322597,-0.2946929239560015,3.044092702705115,18.01794993794793
1687876386.003,-0.3272185950575857,0.6894140493102264,0.6924056114978194,-1.644014847720895,-0.47276156568940964,0.9636050857575611,1.6144879345585788,-0.3272185950575857,0.6894140493102264,0.6924056114978194,-1.6440147877252018,-0.47276156568940964,0.9636050857575611,1.6144879945542716,0.5753388824462891,53.15566688919068,-11.172837963104248,-20.627184104919433,0.49036882400512694,0.21360107421875,0.11047180557250977,0.5873061494505202,8.73885603078319,-2.726703548163262,-4.656801191345706,-0.021681839337912245,0.1725396673703697,0.11025405506961661,-0.3012504703739859,3.083376468579201,18.027863352048545
1687876386.103,-0.3272185950575857,0.6894139894236165,0.6924056114978194,-1.6440147877252018,-0.4727614698708337,0.9636050857575611,1.6144879945542716,-0.3272185950575857,0.6894139894236165,0.6924056114978194,-1.644014847720895,-0.47276156568940964,0.9636050857575611,1.6144879345585788,0.5928141288757324,53.1341588935852,-11.180761337280273,-20.562916736602784,0.4833258247375488,0.21360107421875,0.10913679885864258,0.5839589280758974,8.730041297240836,-2.7273913253091653,-4.665731534554221,-0.021158888777620462,0.17324061039775163,0.10998826117557968,-0.29324353434677064,3.0408457562425033,18.01666951976639
1687876386.203,-0.3272185950575857,0.6894140493102264,0.6924056114978194,-1.6440147877252018,-0.4727613740522578,0.9636050857575611,1.6144879345585788,-0.32721865505327874,0.6894140493102264,0.6924056114978194,-1.644014847720895,-0.4727613740522578,0.963605205639864,1.6144879345585788,0.5860928802490234,53.148945640563966,-11.179880962371826,-20.64479160308838,0.48772769927978515,0.21693859100341797,0.11080555725097656,0.5875686138633486,8.73448443735535,-2.723197739909425,-4.657829581413376,-0.02173364364995171,0.1724110216837578,0.10984048059109289,-0.2962356448863205,3.070869446923577,18.019511178599053
1687876386.302,-0.3272185950575857,0.6894139894236165,0.6924056114978194,-1.644014847720895,-0.47276156568940964,0.9636050857575611,1.6144879945542716,-0.3272185950575857,0.6894139894236165,0.6924056713844293,-1.6440147877252018,-0.47276156568940964,0.9636050857575611,1.6144879345585788,0.5834043807983399,53.1341588935852,-11.184282836914063,-20.552352237701417,0.4789239501953125,0.211932315826416,0.10980430221557617,0.5844783423943853,8.730927415269882,-2.7249141479336885,-4.665128873417612,-0.021685627297061937,0.1731299998499956,0.10983197548588722,-0.29908400208126384,3.0460056657998487,18.021377232647737
1687876386.435,-0.3272185950575857,0.6894140493102264,0.6924056114978194,-1.644014727838592,-0.47276156568940964,0.963605205639864,1.6144879345585788,-0.3272185950575857,0.6894140493102264,0.6924056114978194,-1.6440147877252018,-0.47276156568940964,0.9636050857575611,1.6144879945542716,0.5874371299743653,53.17448638534546,-11.170196838378907,-20.652714977264402,0.48948844909667966,0.2142685775756836,0.11013805389404296,0.5886601412034679,8.737407453538882,-2.7219201151819803,-4.661091610075985,-0.02084286630119495,0.17279443246805004,0.11000958418329632,-0.3004215917594881,3.0841220817577835,18.010227832871763
1687876386.504,-0.3272185950575857,0.6894140493102264,0.6924056114978194,-1.6440147877252018,-0.47276156568940964,0.9636050857575611,1.6144879345585788,-0.3272185950575857,0.6894141093059194,0.6924056114978194,-1.644014847720895,-0.4727613740522578,0.9636050857575611,1.6144879345585788,0.5874371299743653,53.142224391937255,-11.1719575881958,-20.53738586425781,0.477163200378418,0.20992980575561523,0.10947055053710937,0.5868855989563582,8.739692944637053,-2.723328447342503,-4.665491509364423,-0.021963859455372867,0.17270046646747622,0.11004467429143083,-0.29447163985577907,3.061754240023958,18.026402849272966
1687876386.603,-0.3272185950575857,0.6894141093059194,0.6924056114978194,-1.6440147877252018,-0.47276156568940964,0.9636050857575611,1.6144879345585788,-0.3272185950575857,0.6894140493102264,0.6924056114978194,-1.644014727838592,-0.47276156568940964,0.9636050857575611,1.6144879945542716,0.5807158813476563,53.16910938644409,-11.171077213287353,-20.652714977264402,0.493890323638916,0.21693859100341797,0.10947055053710937,0.5886573534683065,8.73511140588115,-2.7196234314531518,-4.659988210286052,-0.021433593031418424,0.17265737838889822,0.11013557368576288,-0.28958483457570805,3.0627249722821563,18.021698133140074
1687876386.703,-0.3272185950575857,0.6894140493102264,0.6924056713844293,-1.6440147877252018,-0.47276156568940964,0.9636050857575611,1.6144879945542716,-0.3272185950575857,0.6894139894236165,0.6924056713844293,-1.644014727838592,-0.47276156568940964,0.963605205639864,1.6144879345585788,0.5968468780517578,53.154322639465335,-11.162273464202881,-20.54442886352539,0.4842061996459961,0.20992980575561523,0.11013805389404296,0.5865451636603011,8.734379419953765,-2.7236486363353967,-4.661604665760722,-0.021033017197294453,0.17240022252568726,0.11036547159905558,-0.29555124425965185,3.0635729332142745,18.023550116267394
1687876386.802,-0.3272185950575857,0.6894139894236165,0.6924056114978194,-1.6440147877252018,-0.47276156568940964,0.9636050857575611,1.6144879945542716,-0.3272185950575857,0.6894141093059194,0.6924056114978194,-1.644014727838592,-0.4727613740522578,0.9636050857575611,1.6144879345585788,0.5860928802490234,53.15701113891602,-11.15963233947754,-20.650073852539062,0.4912491989135742,0.2159373359680176,0.11180681228637696,0.5874503963775285,8.738616976791521,-2.724494279564359,-4.661390974337802,-0.020857467698559763,0.1720557113772735,0.11014184250715535,-0.29274136229481673,3.061606784048377,18.029059204209997
1687876386.902,-0.3272185950575857,0.6894139894236165,0.6924056114978194,-1.6440147877252018,-0.47276156568940964,0.963605205639864,1.6144879945542716,-0.3272185950575857,0.6894140493102264,0.6924056114978194,-1.644014847720895,-0.47276156568940964,0.9636050857575611,1.6144879945542716,0.588781379699707,53.13953589248657,-11.170196838378907,-20.548830738067625,0.47980432510375975,0.21026355743408204,0.11047180557250977,0.5848632534545968,8.736292694373985,-2.7262478223780895,-4.664421843388191,-0.021605199184653777,0.17238726948255406,0.11007637750189411,-0.29611271616971385,3.0583173237842076,18.02477602878243
1687876387.002,-0.3272185950575857,0.6894140493102264,0.6924056114978194,-1.644014847720895,-0.47276156568940964,0.9636050857575611,1.6144879945542716,-0.3272185950575857,0.6894139894236165,0.6924056114978194,-1.6440147877252018,-0.4727614698708337,0.963605205639864,1.6144879945542716,0.5807158813476563,53.159699638366696,-11.162273464202881,-20.651834602355958,0.4912491989135742,0.21493608093261718,0.10980430221557617,0.5873015206514309,8.73328098784639,-2.723437851128944,-4.662755757049025,-0.021215897100914788,0.1721625619743852,0.11022937946637101,-0.2909929607422288,3.051839006750981,18.024772416132432
1687876387.101,-0.3272185950575857,0.6894140493102264,0.6924055516112095,-1.644014847720895,-0.47276156568940964,0.963605205639864,1.6144879945542716,-0.3272185950575857,0.6894140493102264,0.6924056713844293,-1.644014847720895,-0.47276156568940964,0.9636050857575611,1.6144881143274914,0.5968468780517578,53.14088014221191,-11.1719575881958,-20.54442886352539,0.47804357528686525,0.21093106079101562,0.10846929550170899,0.5872640810730251,8.727153687726215,-2.7275688072333164,-4.663784237378239,-0.021006661639017682,0.1724514812629273,0.11012708200137654,-0.28952699356896316,3.048947661374065,18.01316847717351
1687876387.206,-0.3272185950575857,0.6894140493102264,0.6924056114978194,-1.6440147877252018,-0.47276156568940964,0.9636050857575611,1.6144879945542716,-0.32721865505327874,0.6894140493102264,0.6924056114978194,-1.644014847720895,-0.47276156568940964,0.9636050857575611,1.6144879945542716,0.5739946327209473,53.15163414001465,-11.186923961639405,-20.640389728546143,0.4833258247375488,0.2159373359680176,0.11047180557250977,0.587669082107064,8.739148078911612,-2.724943229290049,-4.672191086097374,-0.020064595176206762,0.1727274859215196,0.11034970392193189,-0.28464708937463407,3.034163361108644,18.036505070192298
1687876387.338,-0.3272185950575857,0.6894139894236165,0.6924055516112095,-1.644014847720895,-0.47276156568940964,0.9636050857575611,1.6144879345585788,-0.3272185950575857,0.6894140493102264,0.6924055516112095,-1.644014847720895,-0.4727614698708337,0.9636050857575611,1.6144879945542716,0.6049123764038086,53.1435686416626,-11.166675338745117,-20.56643823623657,0.47980432510375975,0.2122660675048828,0.11047180557250977,0.5854707965321677,8.72825659094402,-2.7260937092615274,-4.652704412945985,-0.021793192410448338,0.1717488362900559,0.1099423315643532,-0.3012417104855448,3.0793140602527838,18.00988122158754
1687876387.407,-0.3272185950575857,0.6894140493102264,0.6924056114978194,-1.6440147877252018,-0.47276156568940964,0.963605205639864,1.6144879945542716,-0.3272185950575857,0.6894140493102264,0.6924056114978194,-1.644014727838592,-0.47276156568940964,0.9636050857575611,1.6144879345585788,0.5807158813476563,53.14625714111328,-11.183402462005615,-20.617499980926514,0.4859669494628906,0.2146023292541504,0.11013805389404296,0.5903224054220231,8.737182268838758,-2.723409826401958,-4.673347498885143,-0.020002155012929346,0.1723902820961435,0.10978699568388528,-0.27880527082437434,3.029850378517761,18.033159153800224
1687876387.509,-0.3272185950575857,0.6894139894236165,0.6924056713844293,-1.644014847720895,-0.47276156568940964,0.9636050857575611,1.6144879345585788,-0.3272185950575857,0.6894140493102264,0.6924056713844293,-1.6440147877252018,-0.47276156568940964,0.9636050857575611,1.6144879345585788,0.5995353775024415,53.154322639465335,-11.16843608856201,-20.61221773147583,0.48772769927978515,0.21360107421875,0.11013805389404296,0.5896895401801379,8.726285806143471,-2.724300369273668,-4.652793959724924,-0.021065403199181747,0.171455650474182,0.11004978636783644,-0.2950038463283031,3.0778503418044285,18.012649576289764
1687876387.610,-0.3272185950575857,0.6894140493102264,0.6924056114978194,-1.644014847720895,-0.4727613740522578,0.9636050857575611,1.6144879345585788,-0.3272185950575857,0.6894140493102264,0.6924056114978194,-1.644014847720895,-0.4727613740522578,0.9636050857575611,1.6144879345585788,0.5847486305236816,53.136847393035886,-11.18780433654785,-20.569959735870363,0.4789239501953125,0.21126481246948242,0.11113930892944336,0.5892921607735953,8.73872657805266,-2.7231310935240005,-4.671322695781362,-0.018025036767565894,0.17203801438007116,0.10967933397989815,-0.2850584505303342,3.0406501927679996,18.026615419088195
1687876387.710,-0.3272185950575857,0.6894139894236165,0.6924055516112095,-1.644014847720895,-0.4727613740522578,0.9636050857575611,1.6144879345585788,-0.3272185950575857,0.6894139894236165,0.6924055516112095,-1.644014847720895,-0.4727613740522578,0.9636050857575611,1.6144879345585788,0.5874371299743653,53.16238813781738,-11.16843608856201,-20.62806447982788,0.48948844909667966,0.2142685775756836,0.10980430221557617,0.5872755492592319,8.733479138302105,-2.723104090445018,-4.656883171949654,-0.020630313556664774,0.1716145419227377,0.10967564304459837,-0.29794732155255,3.0730853565516156,18.01809891706466
1687876387.810,-0.3272185950575857,0.6894140493102264,0.6924056114978194,-1.6440147877252018,-0.47276156568940964,0.9636050857575611,1.6144879945542716,-0.3272185950575857,0.6894140493102264,0.6924056114978194,-1.6440147877252018,-0.47276156568940964,0.9636050857575611,1.6144879945542716,0.5914698791503906,53.13953589248657,-11.177239837646484,-20.5743616104126,0.4833258247375488,0.2125998191833496,0.10980430221557617,0.5856657657002913,8.732948112940297,-2.7233964133382083,-4.666658022449802,-0.01862089040635509,0.17200854272101726,0.10945255147279068,-0.29330769371374393,3.0384747765562867,18.017090732068596
1687876387.908,-0.3272185950575857,0.6894140493102264,0.6924056713844293,-1.644014847720895,-0.47276156568940964,0.9636050857575611,1.6144879945542716,-0.3272185950575857,0.6894140493102264,0.6924056713844293,-1.644014847720895,-0.47276156568940964,0.9636050857575611,1.6144879945542716,0.5860928802490234,53.15163414001465,-11.164914588928223,-20.625423355102537,0.493890323638916,0.21493608093261718,0.10913679885864258,0.5914324142786663,8.735153961987525,-2.7201610916925665,-4.658556010392711,-0.018189236554922796,0.17134234551392008,0.10962014696770372,-0.29184198074639417,3.0712329244881267,18.019366909726966
1687876388.009,-0.3272185950575857,0.6894140493102264,0.6924056114978194,-1.6440147877252018,-0.47276156568940964,0.9636050857575611,1.6144879945542716,-0.3272185950575857,0.6894140493102264,0.6924056114978194,-1.6440147877252018,-0.47276156568940964,0.9636050857575611,1.6144880544408817,0.582060131072998,53.1435686416626,-11.169316463470459,-20.565557861328124,0.4868473243713379,0.21126481246948242,0.10913679885864258,0.5839432738240083,8.728055204330108,-2.7229393707641276,-4.66387386949431,-0.01809294489770357,0.1724691526310512,0.10982535404505722,-0.29337138398316376,3.038943641642925,18.006897258409914
1687876388.110,-0.32721865505327874,0.6894139894236165,0.6924056114978194,-1.644014847720895,-0.4727614698708337,0.9636050857575611,1.6144879345585788,-0.3272185950575857,0.6894140493102264,0.6924056114978194,-1.644014847720895,-0.4727613740522578,0.9636050857575611,1.6144879345585788,0.5874371299743653,53.1758306350708,-11.15963233947754,-20.633346729278564,0.49565107345581055,0.2139348258972168,0.11047180557250977,0.5902516119772214,8.736474618528993,-2.723260784224953,-4.659965992553058,-0.01818514884152299,0.17191948022386105,0.11006241539754244,-0.29198447522496007,3.072384098895103,18.026688873441763
1687876388.208,-0.3272185950575857,0.6894140493102264,0.6924056114978194,-1.6440147877252018,-0.47276156568940964,0.963605205639864,1.6144879945542716,-0.3272185950575857,0.6894141093059194,0.6924056114978194,-1.6440147877252018,-0.47276156568940964,0.963605205639864,1.6144879945542716,0.595502628326416,53.1341588935852,-11.16579496383667,-20.554993362426757,0.4859669494628906,0.21059730911254881,0.10980430221557617,0.587192606892524,8.734927621508906,-2.7258894921126355,-4.667709614867315,-0.01858788232941227,0.1724696087136289,0.11029826623050243,-0.2863333925413639,3.0423619751647553,18.019108914653046
1687876388.343,-0.3272185950575857,0.6894140493102264,0.6924056114978194,-1.644014727838592,-0.47276156568940964,0.9636050857575611,1.6144879345585788,-0.32721865505327874,0.6894140493102264,0.6924056114978194,-1.644014847720895,-0.47276156568940964,0.9636050857575611,1.6144879345585788,0.5834043807983399,53.16776513671875,-11.15963233947754,-20.616619606018066,0.48948844909667966,0.2139348258972168,0.11113930892944336,0.5867454613830733,8.736650279422184,-2.7239841594824927,-4.655810645066702,-0.02086617981550952,0.1715933092953787,0.11011982421712233,-0.30005876840741086,3.0790087770842725,18.02060698320856
1687876388.411,-0.3272185950575857,0.6894139894236165,0.6924056114978194,-1.6440147877252018,-0.47276156568940964,0.9636050857575611,1.6144879345585788,-0.3272185950575857,0.6894140493102264,0.6924056114978194,-1.644014727838592,-0.47276156568940964,0.9636050857575611,1.6144879345585788,0.588781379699707,53.16238813781738,-11.167555713653565,-20.561155986785888,0.4859669494628906,0.21093106079101562,0.11047180557250977,0.5875439058831713,8.738729211538004,-2.725068491017659,-4.661977583497833,-0.019362895105174943,0.17234618943200358,0.11028568413101267,-0.2955446186998133,3.073311319420133,18.03051651209917
1687876388.511,-0.3272185950575857,0.6894139894236165,0.6924055516112095,-1.644014847720895,-0.47276156568940964,0.9636050857575611,1.6144879345585788,-0.3272185950575857,0.6894140493102264,0.6924056114978194,-1.644014847720895,-0.47276156568940964,0.9636050857575611,1.6144879345585788,0.5860928802490234,53.148945640563966,-11.162273464202881,-20.64479160308838,0.4930099487304687,0.21627108764648437,0.11080555725097656,0.5884317165043137,8.736876678935449,-2.724822648743738,-4.663106068516494,-0.018485161593140016,0.17243692280210404,0.10991652258001508,-0.290967118048509,3.057356910121866,18.024362068576334
1687876388.610,-0.3272185950575857,0.6894140493102264,0.6924056114978194,-1.6440147877252018,-0.47276156568940964,0.9636050857575611,1.6144879945542716,-0.3272185950575857,0.6894139894236165,0.6924056114978194,-1.6440147877252018,-0.4727613740522578,0.9636050857575611,1.6144879345585788,0.6049123764038086,53.13012614440918,-11.17547908782959,-20.547069988250733,0.477163200378418,0.21126481246948242,0.10947055053710937,0.5898245107982152,8.722186162732926,-2.7236174103996618,-4.658659363700876,-0.02088142781456666,0.1726191757285619,0.10995664892847742,-0.2866822842799698,3.0581891738729032,18.00285328667145
1687876388.710,-0.3272185950575857,0.6894140493102264,0.6924056713844293,-1.6440147877252018,-0.47276156568940964,0.963605205639864,1.6144879345585788,-0.3272185950575857,0.6894139894236165,0.6924056114978194,-1.6440147877252018,-0.47276156568940964,0.9636050857575611,1.6144879945542716,0.5713061332702637,53.147601390838624,-11.193966960906982,-20.652714977264402,0.48772769927978515,0.21526983261108398,0.11013805389404296,0.5903042683807321,8.733962074749275,-2.7230100398205757,-4.662628332408073,-0.020031656741751846,0.1723549893978779,0.10993428601858235,-0.28629736903801384,3.056081478705907,18.025577031195382
1687876388.810,-0.3272185950575857,0.6894140493102264,0.6924056114978194,-1.644014847720895,-0.4727614698708337,0.9636050857575611,1.6144879345585788,-0.3272185950575857,0.6894140493102264,0.6924056114978194,-1.6440147877252018,-0.4727613740522578,0.963605205639864,1.6144879945542716,0.5995353775024415,53.126093395233156,-11.178120212554932,-20.547069988250733,0.4815650749206543,0.211932315826416,0.1078017921447754,0.5837847308545833,8.735790884317858,-2.7250974222067623,-4.660717322124926,-0.020331978202847933,0.1723465422392213,0.11007130408765553,-0.3037417322979646,3.065121443205297,18.018340653677228
1687876388.909,-0.3272185950575857,0.6894140493102264,0.6924056114978194,-1.644014847720895,-0.4727613740522578,0.9636050857575611,1.6144881143274914,-0.3272185950575857,0.6894139894236165,0.6924056114978194,-1.644014847720895,-0.47276156568940964,0.9636050857575611,1.6144879345585788,0.5901256294250489,53.15566688919068,-11.167555713653565,-20.64391122817993,0.4947706985473633,0.2156035842895508,0.11047180557250977,0.5932925416017781,8.729991668878572,-2.7164701182304514,-4.660330223268251,-0.018384507227541005,0.1725645072105641,0.10961553449361916,-0.28189233328165497,3.059616545446324,18.00928422496872
1687876389.008,-0.3272185950575857,0.6894139894236165,0.6924056114978194,-1.644014847720895,-0.47276156568940964,0.963605205639864,1.6144879945542716,-0.3272185950575857,0.6894139894236165,0.6924056114978194,-1.644014727838592,-0.4727612780591489,0.9636050857575611,1.6144879345585788,0.5753388824462891,53.13281464385987,-11.176359462738038,-20.53562511444092,0.4842061996459961,0.2125998191833496,0.10947055053710937,0.5841393476499431,8.728389716800656,-2.724794263521883,-4.659205452951538,-0.019730814741423977,0.1725137214766758,0.10990313051008577,-0.2990012624146493,3.0580727852514253,18.012109855344157
1687876389.109,-0.3272185950575857,0.6894140493102264,0.6924055516112095,-1.644014847720895,-0.47276156568940964,0.9636050857575611,1.6144879345585788,-0.3272185950575857,0.6894139894236165,0.6924056114978194,-1.644014847720895,-0.47276156568940964,0.9636050857575611,1.6144879345585788,0.588781379699707,53.16642088699341,-11.17547908782959,-20.656236476898194,0.48948844909667966,0.21660483932495117,0.11047180557250977,0.5840322846056099,8.731479432882974,-2.722786687880966,-4.663194411528696,-0.01849740511584819,0.17248282243290458,0.109697035674882,-0.293609549141127,3.0396501861839074,18.01322776972914
1687876389.246,-0.3272185950575857,0.6894139894236165,0.6924056114978194,-1.644014847720895,-0.47276156568940964,0.963605205639864,1.6144879945542716,-0.3272185950575857,0.6894140493102264,0.6924056114978194,-1.6440147877252018,-0.4727614698708337,0.9636050857575611,1.6144879945542716,0.595502628326416,53.15566688919068,-11.164914588928223,-20.564677486419676,0.4815650749206543,0.211932315826416,0.10980430221557617,0.5879284947648284,8.733343970322784,-2.723444315752266,-4.654711148907975,-0.019818384881916295,0.172749412383446,0.10979705540381379,-0.299594752072722,3.084320000474068,18.011762849302848
1687876389.313,-0.3272185950575857,0.6894139894236165,0.6924056114978194,-1.644014847720895,-0.4727613740522578,0.9636050857575611,1.6144879345585788,-0.3272185950575857,0.6894140493102264,0.6924056114978194,-1.644014847720895,-0.47276156568940964,0.9636050857575611,1.6144879345585788,0.5766831321716308,53.142224391937255,-11.183402462005615,-20.613098106384278,0.4912491989135742,0.21727234268188478,0.11147306060791015,0.5866694976942026,8.729343472910983,-2.7194034969387992,-4.667536534228622,-0.01796431438945922,0.17354929472752192,0.10965535399969994,-0.2885450016928177,3.029212247858224,18.00529169696771
1687876389.413,-0.3272185950575857,0.6894139894236165,0.6924056114978194,-1.6440147877252018,-0.47276156568940964,0.9636050857575611,1.6144879945542716,-0.3272185950575857,0.6894140493102264,0.6924056114978194,-1.644014847720895,-0.47276156568940964,0.963605205639864,1.6144879345585788,0.588781379699707,53.15297838973999,-11.15258934020996,-20.579643859863282,0.48244544982910154,0.21159856414794923,0.11113930892944336,0.5874867043845036,8.734305700883073,-2.7232535975081262,-4.650837212872837,-0.02070610071787942,0.172552065114738,0.10910297293526569,-0.3051112859700068,3.0960439995182676,18.011554825151844
1687876389.513,-0.3272185950575857,0.6894139894236165,0.6924056114978194,-1.6440147877252018,-0.47276156568940964,0.9636050857575611,1.6144880544408817,-0.3272185950575857,0.6894140493102264,0.6924055516112095,-1.644014847720895,-0.47276156568940964,0.963605205639864,1.6144879945542716,0.5860928802490234,53.154322639465335,-11.173718338012694,-20.6060551071167,0.48948844909667966,0.21526983261108398,0.11013805389404296,0.5842205674914727,8.732245131259798,-2.7236670463486616,-4.671186902210637,-0.019704047995827624,0.17362145342237773,0.10970359917843847,-0.28750156343534666,3.0232108600914764,18.016212812194595
1687876389.612,-0.3272185950575857,0.6894140493102264,0.6924056114978194,-1.644014727838592,-0.47276156568940964,0.9636050857575611,1.6144880544408817,-0.3272185950575857,0.6894140493102264,0.6924056114978194,-1.644014847720895,-0.47276156568940964,0.963605205639864,1.6144881143274914,0.5941583786010742,53.16373238754272,-11.157871589660644,-20.59901210784912,0.4850865745544434,0.2125998191833496,0.11047180557250977,0.5920134985206917,8.738365210073997,-2.7238045625886538,-4.65377591535302,-0.021122300634273845,0.1724011066432557,0.10990878319904332,-0.2973048197966185,3.1011705827477485,18.02676637471824
1687876389.712,-0.3272185950575857,0.6894140493102264,0.6924056114978194,-1.644014847720895,-0.47276156568940964,0.9636050857575611,1.6144879345585788,-0.3272185950575857,0.6894140493102264,0.6924056114978194,-1.644014847720895,-0.47276156568940964,0.9636050857575611,1.6144879945542716,0.5713061332702637,53.1274376449585,-11.183402462005615,-20.588447608947753,0.4868473243713379,0.2129335708618164,0.10980430221557617,0.5830438045679465,8.730585234889935,-2.723191642608577,-4.669613411114225,-0.020141474376349208,0.1736649895566158,0.1096710374698113,-0.2900112108299914,3.020985965531498,18.00879717391438
1687876389.813,-0.3272185950575857,0.6894140493102264,0.6924056713844293,-1.644014847720895,-0.47276156568940964,0.9636050857575611,1.6144879345585788,-0.3272185950575857,0.6894140493102264,0.6924056713844293,-1.644014847720895,-0.47276156568940964,0.9636050857575611,1.6144879345585788,0.6008796272277832,53.177174884796145,-11.15963233947754,-20.601653232574463,0.4912491989135742,0.21159856414794923,0.10880304718017578,0.5868467936321582,8.730636734206232,-2.7240647370304076,-4.6505736846603165,-0.021012111942847488,0.17240724569663043,0.11008174042645938,-0.30289031539257116,3.0894653502938914,18.010470256349432
1687876389.912,-0.3272185950575857,0.6894140493102264,0.6924056114978194,-1.6440147877252018,-0.47276156568940964,0.9636050857575611,1.6144879945542716,-0.32721865505327874,0.6894140493102264,0.6924056114978194,-1.6440147877252018,-0.47276156568940964,0.9636050857575611,1.6144879945542716,0.5780273818969727,53.13953589248657,-11.183402462005615,-20.57612236022949,0.48068470001220703,0.2125998191833496,0.11147306060791015,0.5837545569916437,8.735006070863138,-2.7274087695847946,-4.671345660963967,-0.0195150332859409,0.1730201475472203,0.10980216648313423,-0.2884021453138381,3.0287354972344107,18.025981121519365
1687876390.012,-0.3272185950575857,0.6894140493102264,0.6924056114978194,-1.644014847720895,-0.47276156568940964,0.9636050857575611,1.6144879345585788,-0.3272185950575857,0.6894139894236165,0.6924056114978194,-1.644014847720895,-0.47276156568940964,0.9636050857575611,1.6144879345585788,0.5995353775024415,53.16238813781738,-11.182522087097167,-20.622782230377197,0.48860807418823243,0.2146023292541504,0.10913679885864258,0.58915087872089,8.72584274729142,-2.7225596098329525,-4.651176449175575,-0.021536928809835782,0.17225158216324465,0.10957086243262117,-0.29683658478566566,3.0823783422555673,18.008917707618068
1687876390.112,-0.3272185950575857,0.6894140493102264,0.6924056114978194,-1.644014727838592,-0.47276156568940964,0.9636050857575611,1.6144879945542716,-0.3272185950575857,0.6894140493102264,0.6924056114978194,-1.644014847720895,-0.47276156568940964,0.9636050857575611,1.6144879945542716,0.5766831321716308,53.11533939743042,-11.200129585266113,-20.595490608215332,0.47980432510375975,0.21493608093261718,0.11013805389404296,0.5905537807846265,8.741056693700651,-2.719528835253336,-4.671078540184697,-0.018677270027094295,0.17275871905276674,0.10931362897356242,-0.284267546369769,3.0431455662011713,18.026134731351302
1687876390.213,-0.3272185950575857,0.6894139894236165,0.6924056114978194,-1.6440147877252018,-0.47276156568940964,0.9636050857575611,1.6144879345585788,-0.3272185950575857,0.6894139894236165,0.6924056114978194,-1.644014847720895,-0.4727613740522578,0.963605205639864,1.6144879945542716,0.6008796272277832,53.16373238754272,-11.166675338745117,-20.625423355102537,0.48772769927978515,0.2146023292541504,0.10947055053710937,0.5861255415189732,8.725090577094264,-2.7195552912739047,-4.6482322141581385,-0.020850495028965788,0.1720363300836645,0.10960124276685933,-0.3035379135585909,3.0820649397854343,17.99775685489919
1687876390.313,-0.3272185950575857,0.6894139894236165,0.6924056114978194,-1.644014847720895,-0.47276156568940964,0.9636050857575611,1.6144879945542716,-0.3272185950575857,0.6894141093059194,0.6924055516112095,-1.644014847720895,-0.47276156568940964,0.9636050857575611,1.6144879345585788,0.5914698791503906,53.154322639465335,-11.17547908782959,-20.58052423477173,0.48948844909667966,0.2129335708618164,0.10846929550170899,0.5874681160264495,8.742180528476954,-2.7260822422021738,-4.675106998445864,-0.01810942148187173,0.1730771808715056,0.10975802513348439,-0.28529964015079856,3.0334013478500284,18.03123432277367
1687876390.412,-0.3272185950575857,0.6894140493102264,0.6924056114978194,-1.644014727838592,-0.47276156568940964,0.9636050857575611,1.6144879345585788,-0.3272185950575857,0.6894139894236165,0.6924056114978194,-1.644014727838592,-0.47276156568940964,0.9636050857575611,1.6144880544408817,0.5834043807983399,53.15297838973999,-11.15611083984375,-20.61221773147583,0.4947706985473633,0.2132673225402832,0.10980430221557617,0.5859202981976841,8.729218486926513,-2.722187048533517,-4.650770643030176,-0.021268198466979457,0.1719083994170645,0.10986807507042454,-0.30123560730858157,3.079088629816292,18.009113819821064
1687876390.512,-0.3272185950575857,0.6894140493102264,0.6924056114978194,-1.6440147877252018,-0.47276156568940964,0.963605205639864,1.6144879345585788,-0.3272185950575857,0.6894140493102264,0.6924056713844293,-1.6440147877252018,-0.47276156568940964,0.963605205639864,1.6144879345585788,0.5860928802490234,53.16104388809204,-11.166675338745117,-20.58052423477173,0.48244544982910154,0.211932315826416,0.11180681228637696,0.5901882172154349,8.732114291155217,-2.723353086832182,-4.669475837594314,-0.020280407712848246,0.17316133303807635,0.11002974243033203,-0.281512209053715,3.0370118985531493,18.020468736537456
1687876390.612,-0.3272185950575857,0.6894139894236165,0.6924056114978194,-1.6440147877252018,-0.47276156568940964,0.9636050857575611,1.6144879345585788,-0.3272185950575857,0.6894141093059194,0.6924056114978194,-1.644014727838592,-0.47276156568940964,0.9636050857575611,1.6144879345585788,0.5793716316223144,53.16238813781738,-11.172837963104248,-20.61926073074341,0.4921295738220215,0.21493608093261718,0.10846929550170899,0.5870426277738414,8.737460814580935,-2.725508740918012,-4.653747113743678,-0.0222847587541607,0.17251055219377362,0.11005156452320913,-0.30112790642989357,3.085803497342459,18.021658359603613
1687876390.711,-0.3272185950575857,0.6894139894236165,0.6924056114978194,-1.6440147877252018,-0.47276156568940964,0.9636050857575611,1.6144879945542716,-0.3272185950575857,0.6894140493102264,0.6924056114978194,-1.6440147877252018,-0.47276156568940964,0.9636050857575611,1.6144879345585788,0.588781379699707,53.13953589248657,-11.166675338745117,-20.568198986053467,0.49036882400512694,0.2132673225402832,0.10947055053710937,0.5813431020722826,8.73021680821252,-2.726942523879255,-4.668313950757544,-0.0212990489323125,0.1737280083778454,0.10957282951428346,-0.2951522560024405,3.028744038275815,18.014805153869997
1687876390.811,-0.32721865505327874,0.6894139894236165,0.6924056114978194,-1.6440147877252018,-0.47276156568940964,0.9636050857575611,1.6144879345585788,-0.3272185950575857,0.6894139894236165,0.6924056713844293,-1.6440147877252018,-0.47276156568940964,0.963605205639864,1.6144879945542716,0.5968468780517578,53.16373238754272,-11.173718338012694,-20.64743272781372,0.4921295738220215,0.2156035842895508,0.10880304718017578,0.5934777710166887,8.73237358490729,-2.7202288662652325,-4.655674676413666,-0.021596971445939354,0.17237641711362722,0.10928686615005712,-0.29279397605609636,3.081768187451934,18.021019873368893
1687876390.911,-0.3272185950575857,0.6894140493102264,0.6924056114978194,-1.644014847720895,-0.47276156568940964,0.9636050857575611,1.6144879345585788,-0.3272185950575857,0.6894141093059194,0.6924056114978194,-1.6440147877252018,-0.47276156568940964,0.9636050857575611,1.6144879345585788,0.5834043807983399,53.1435686416626,-11.176359462738038,-20.559395236968992,0.48068470001220703,0.20992980575561523,0.10913679885864258,0.5847802500563835,8.735260252879327,-2.7280920643964777,-4.667577505466679,-0.01876368651699012,0.1729078437695579,0.10963653873173523,-0.29240838667284813,3.042764631087866,18.020506278431686
1687876391.010,-0.3272185950575857,0.6894139894236165,0.6924056713844293,-1.6440147877252018,-0.47276156568940964,0.9636050857575611,1.6144879945542716,-0.3272185950575857,0.6894139894236165,0.6924056114978194,-1.6440147877252018,-0.47276156568940964,0.9636050857575611,1.6144879945542716,0.5914698791503906,53.15163414001465,-11.173718338012694,-20.636868228912352,0.48948844909667966,0.2142685775756836,0.10980430221557617,0.5869735408752714,8.731983949505757,-2.7236139884724,-4.654889860712892,-0.020292498288923648,0.17250939898672796,0.10975422749097755,-0.29846221642518583,3.073999438309063,18.01441894224446
1687876391.149,-0.3272185950575857,0.6894141093059194,0.6924056114978194,-1.6440147877252018,-0.47276156568940964,0.9636050857575611,1.6144879345585788,-0.3272185950575857,0.6894139894236165,0.6924056114978194,-1.644014727838592,-0.47276156568940964,0.9636050857575611,1.6144879345585788,0.595502628326416,53.126093395233156,-11.180761337280273,-20.55147186279297,0.4833258247375488,0.211932315826416,0.11047180557250977,0.5858217581768992,8.737082299821859,-2.7250675375983544,-4.67102239843297,-0.018610409290051998,0.17374862943700964,0.11014762036100187,-0.288296174185572,3.034698904384615,18.025574451200047
1687876391.184,-0.3272185950575857,0.6894140493102264,0.6924055516112095,-1.6440147877252018,-0.47276156568940964,0.9636050857575611,1.6144879345585788,-0.3272185950575857,0.6894139894236165,0.6924056114978194,-1.6440147877252018,-0.47276156568940964,0.9636050857575611,1.6144879945542716,0.5807158813476563,53.135503143310544,-11.185163211822509,-20.607815856933595,0.48948844909667966,0.21526983261108398,0.10880304718017578,0.588406849775895,8.72937882252285,-2.7210534672046154,-4.669217557837282,-0.01816923006991058,0.1734786191457422,0.11009365117000276,-0.28459390429229825,3.0278473971886743,18.016158421903032
1687876391.315,-0.32721865505327874,0.6894140493102264,0.6924056114978194,-1.6440147877252018,-0.47276156568940964,0.9636050857575611,1.6144879945542716,-0.3272185950575857,0.6894139894236165,0.6924056114978194,-1.6440147877252018,-0.4727613740522578,0.9636050857575611,1.6144881143274914,0.602223876953125,53.13281464385987,-11.173718338012694,-20.53826623916626,0.4859669494628906,0.2125998191833496,0.10880304718017578,0.5904125682006127,8.733991354110902,-2.7241756377454003,-4.658952399019107,-0.018816546125332317,0.17287587487875067,0.10944122772505373,-0.292881812378195,3.0739641597149907,18.01860702961809
1687876391.415,-0.3272185950575857,0.6894139894236165,0.6924056713844293,-1.6440147877252018,-0.4727613740522578,0.9636050857575611,1.6144879345585788,-0.3272185950575857,0.6894141093059194,0.6924056114978194,-1.644014847720895,-0.47276156568940964,0.9636050857575611,1.6144879945542716,0.5766831321716308,53.14491289138794,-11.179880962371826,-20.643030853271483,0.48772769927978515,0.2156035842895508,0.11180681228637696,0.5892899969337781,8.735706626675912,-2.7188328030298474,-4.66508693340598,-0.01761310886329657,0.17302368952070632,0.10955844830223975,-0.28767302159781893,3.047851427397999,18.01305870408093
1687876391.514,-0.3272185950575857,0.6894140493102264,0.6924056114978194,-1.6440147877252018,-0.47276156568940964,0.963605205639864,1.6144879945542716,-0.32721865505327874,0.6894140493102264,0.6924056114978194,-1.6440147877252018,-0.47276156568940964,0.9636050857575611,1.6144879945542716,0.588781379699707,53.14491289138794,-11.176359462738038,-20.547069988250733,0.4850865745544434,0.21159856414794923,0.11113930892944336,0.5849398275234277,8.72997987695559,-2.724302363233481,-4.654830325233689,-0.019524054474976148,0.17267153576003627,0.1097182114264755,-0.2995210961340733,3.0761029898604613,18.009703959901554
1687876391.614,-0.3272185950575857,0.6894140493102264,0.6924056114978194,-1.644014847720895,-0.47276156568940964,0.9636050857575611,1.6144879945542716,-0.3272185950575857,0.6894140493102264,0.6924056114978194,-1.644014847720895,-0.47276156568940964,0.9636050857575611,1.6144879945542716,0.5928141288757324,53.18389613342285,-11.177239837646484,-20.642150478363035,0.48948844909667966,0.21526983261108398,0.10980430221557617,0.5895915108186773,8.741565732127562,-2.7224441954232654,-4.6688265220222664,-0.01771401578654406,0.17321896411712312,0.11020288126782893,-0.28645002010416637,3.0510921445906583,18.032685743409665
1687876391.714,-0.3272185950575857,0.6894140493102264,0.6924056713844293,-1.644014847720895,-0.47276156568940964,0.963605205639864,1.6144879345585788,-0.3272185950575857,0.6894140493102264,0.6924056713844293,-1.644014847720895,-0.47276156568940964,0.9636050857575611,1.6144879345585788,0.5860928802490234,53.12878189468384,-11.15611083984375,-20.549711112976073,0.4859669494628906,0.2129335708618164,0.11047180557250977,0.5881741111160662,8.734232978540781,-2.722385351817543,-4.65700137773791,-0.020248148466601015,0.17256269635238686,0.10989943871837068,-0.29873711750914544,3.0797527468249895,18.013698706072347
1687876391.813,-0.3272185950575857,0.6894140493102264,0.6924056713844293,-1.644014847720895,-0.47276156568940964,0.9636050857575611,1.6144879945542716,-0.32721865505327874,0.6894140493102264,0.6924056114978194,-1.6440147877252018,-0.47276156568940964,0.9636050857575611,1.6144880544408817,0.5901256294250489,53.1758306350708,-11.16843608856201,-20.645671977996827,0.48948844909667966,0.21493608093261718,0.10913679885864258,0.5887880709549065,8.732953941798552,-2.720523314961441,-4.6680861148112935,-0.019123129119115363,0.1731585282611221,0.10989773136245473,-0.2812759684752749,3.036230717675658,18.019950105241758
1687876391.913,-0.3272185950575857,0.6894140493102264,0.6924056114978194,-1.644014847720895,-0.47276156568940964,0.9636050857575611,1.6144879945542716,-0.3272185950575857,0.6894140493102264,0.6924056114978194,-1.644014727838592,-0.47276156568940964,0.9636050857575611,1.6144881143274914,0.5766831321716308,53.1435686416626,-11.171077213287353,-20.562916736602784,0.4859669494628906,0.21093106079101562,0.11013805389404296,0.5834941025746476,8.731563982386206,-2.726423522621422,-4.655637259067852,-0.02146089848699459,0.17255571910995948,0.10931814468454837,-0.3040925627973639,3.0692640079075755,18.01132243280743
1687876392.047,-0.3272185950575857,0.6894139894236165,0.6924056114978194,-1.6440147877252018,-0.47276156568940964,0.963605205639864,1.6144880544408817,-0.3272185950575857,0.6894140493102264,0.6924056114978194,-1.644014847720895,-0.47276156568940964,0.963605205639864,1.6144879945542716,0.5901256294250489,53.15297838973999,-11.174598712921142,-20.64743272781372,0.48772769927978515,0.2139348258972168,0.11047180557250977,0.5857607435606662,8.736416047913437,-2.7220929037006965,-4.670298949353279,-0.018799054344067607,0.17329861727159884,0.10966693027166703,-0.2881555477501824,3.0317771372334827,18.02211542221991
1687876392.114,-0.3272185950575857,0.6894141093059194,0.6924056114978194,-1.644014847720895,-0.47276156568940964,0.963605205639864,1.6144879945542716,-0.3272185950575857,0.6894140493102264,0.6924056114978194,-1.6440147877252018,-0.47276156568940964,0.963605205639864,1.6144881143274914,0.5847486305236816,53.1274376449585,-11.166675338745117,-20.568198986053467,0.48948844909667966,0.21360107421875,0.11180681228637696,0.5885273561347688,8.723521357827696,-2.722188495191401,-4.651740524796946,-0.020144493541819235,0.1727672990551825,0.10967489872079914,-0.29506014411186343,3.075302016168214,17.99764522904271
1687876392.214,-0.3272185950575857,0.6894140493102264,0.6924056114978194,-1.644014847720895,-0.47276156568940964,0.9636050857575611,1.6144879945542716,-0.3272185950575857,0.6894140493102264,0.6924056114978194,-1.6440147877252018,-0.47276156568940964,0.9636050857575611,1.6144879945542716,0.5739946327209473,53.148945640563966,-11.19484733581543,-20.62894485473633,0.48244544982910154,0.2159373359680176,0.11047180557250977,0.5828747596737309,8.735743176810821,-2.7234952343743766,-4.672093849909558,-0.01901145378473041,0.1732677496233183,0.10975330553372939,-0.28989274391565545,3.0189727210530712,18.01908975622045
1687876392.313,-0.32721865505327874,0.6894141093059194,0.6924056114978194,-1.6440147877252018,-0.47276156568940964,0.9636050857575611,1.6144879345585788,-0.3272185950575857,0.6894139894236165,0.6924056114978194,-1.644014847720895,-0.47276156568940964,0.9636050857575611,1.6144879345585788,0.5981911277770996,53.13953589248657,-11.161393089294434,-20.58316535949707,0.48948844909667966,0.21360107421875,0.11013805389404296,0.5891152395364856,8.73368912539563,-2.7218134297567893,-4.652212818694404,-0.020792928202137014,0.17235722354759697,0.10960547488980407,-0.29981489904687214,3.0954205632311043,18.01523430019934
1687876392.413,-0.3272185950575857,0.6894140493102264,0.6924056114978194,-1.644014847720895,-0.47276156568940964,0.9636050857575611,1.6144881143274914,-0.3272185950575857,0.6894140493102264,0.6924056114978194,-1.6440147877252018,-0.47276156568940964,0.9636050857575611,1.6144879945542716,0.5847486305236816,53.15566688919068,-11.18780433654785,-20.611337356567383,0.4842061996459961,0.2146023292541504,0.11013805389404296,0.5876031010326277,8.735264237165518,-2.7204380011862965,-4.669477975977585,-0.018481222582850915,0.17289072575850886,0.10988160759389792,-0.2860590973839793,3.0342146426400753,18.02180368251326
1687876392.513,-0.3272185950575857,0.6894140493102264,0.6924056114978194,-1.644014847720895,-0.47276156568940964,0.963605205639864,1.6144879945542716,-0.3272185950575857,0.6894140493102264,0.6924056114978194,-1.644014847720895,-0.47276156568940964,0.9636050857575611,1.6144879945542716,0.5807158813476563,53.142224391937255,-11.174598712921142,-20.585806484222413,0.4868473243713379,0.2129335708618164,0.11247431564331055,0.588059814370396,8.741009428922945,-2.7247717249730483,-4.655886662932232,-0.02068719824590662,0.17250762792425528,0.10998032710366884,-0.30196385709379053,3.09398387219723,18.027231420190837
1687876392.612,-0.3272185950575857,0.6894139894236165,0.6924056114978194,-1.644014847720895,-0.47276156568940964,0.9636050857575611,1.6144879945542716,-0.3272185950575857,0.6894139894236165,0.6924056713844293,-1.644014847720895,-0.47276156568940964,0.9636050857575611,1.6144879345585788,0.582060131072998,53.13819164276123,-11.183402462005615,-20.599892482757568,0.48244544982910154,0.2139348258972168,0.10980430221557617,0.5876731281383872,8.728890967360229,-2.7195343438635566,-4.667161412316639,-0.020493002595882936,0.17241743393302328,0.1107462860219928,-0.2844529990075272,3.0330131283699493,18.01601603011364
1687876392.712,-0.3272185950575857,0.6894140493102264,0.6924056114978194,-1.6440147877252018,-0.47276156568940964,0.963605205639864,1.6144879345585788,-0.3272185950575857,0.6894140493102264,0.6924056713844293,-1.644014847720895,-0.4727613740522578,0.9636050857575611,1.6144879345585788,0.5860928802490234,53.18389613342285,-11.161393089294434,-20.59637098312378,0.48772769927978515,0.2125998191833496,0.11147306060791015,0.5938322328647793,8.739809853068895,-2.720361567790004,-4.656925775936798,-0.021732328072005924,0.17140914768396848,0.11035828447632826,-0.29225936511740513,3.0937382383234873,18.030721061657392
1687876392.812,-0.3272185950575857,0.6894140493102264,0.6924056114978194,-1.6440147877252018,-0.47276156568940964,0.9636050857575611,1.6144879945542716,-0.3272185950575857,0.6894139894236165,0.6924056114978194,-1.644014847720895,-0.4727613740522578,0.9636050857575611,1.6144879345585788,0.5726503829956054,53.136847393035886,-11.162273464202881,-20.58316535949707,0.4868473243713379,0.2129335708618164,0.10813554382324218,0.5854120527057675,8.735076080461038,-2.7246693168285803,-4.667966754365077,-0.019483366780058076,0.1724003583556567,0.11029969878291652,-0.29333614302937827,3.041308495965189,18.027052981110202
1687876392.911,-0.3272185950575857,0.6894140493102264,0.6924056114978194,-1.644014727838592,-0.47276156568940964,0.963605205639864,1.6144879945542716,-0.3272185950575857,0.6894140493102264,0.6924056114978194,-1.6440147877252018,-0.47276156568940964,0.963605205639864,1.6144879345585788,0.6062566261291504,53.18120763397217,-11.151708965301513,-20.595490608215332,0.4842061996459961,0.211932315826416,0.10980430221557617,0.5904929726627587,8.728978969058721,-2.7232080010422006,-4.653771223132697,-0.02264892374767781,0.17191521046598152,0.10994898595158382,-0.29334235615378945,3.083560368590749,18.01541083157954
1687876393.045,-0.3272185950575857,0.6894140493102264,0.6924056114978194,-1.6440147877252018,-0.47276156568940964,0.9636050857575611,1.6144879345585788,-0.3272185950575857,0.6894139894236165,0.6924056114978194,-1.644014847720895,-0.47276156568940964,0.9636050857575611,1.6144879945542716,0.5914698791503906,53.15566688919068,-11.174598712921142,-20.64391122817993,0.48948844909667966,0.2142685775756836,0.11013805389404296,0.5878991014807857,8.726191878097243,-2.72205477443928,-4.664069780045896,-0.021895563847270615,0.17265521497542896,0.11011088491751048,-0.28620655840585196,3.0372180224854084,18.01393994430204
1687876393.112,-0.3272185950575857,0.6894139894236165,0.6924056114978194,-1.6440147877252018,-0.4727613740522578,0.9636050857575611,1.6144879945542716,-0.3272185950575857,0.6894140493102264,0.6924056713844293,-1.644014847720895,-0.47276156568940964,0.9636050857575611,1.6144879945542716,0.595502628326416,53.14491289138794,-11.16579496383667,-20.601653232574463,0.4842061996459961,0.2139348258972168,0.10913679885864258,0.5873833247998517,8.725148757296104,-2.7231818996978436,-4.652469035814511,-0.021955718871290896,0.17227017249778925,0.1102385320608138,-0.29717309564538036,3.0735372221911397,18.00415150527498
1687876393.211,-0.3272185950575857,0.6894140493102264,0.6924056114978194,-1.6440147877252018,-0.47276156568940964,0.9636050857575611,1.6144879945542716,-0.3272185950575857,0.6894140493102264,0.6924056114978194,-1.6440147877252018,-0.47276156568940964,0.9636050857575611,1.6144879345585788,0.5860928802490234,53.154322639465335,-11.186043586730957,-20.601653232574463,0.4833258247375488,0.2142685775756836,0.10980430221557617,0.5911043491589378,8.737094705105806,-2.723514333937056,-4.67373404206878,-0.01999330022986781,0.17303613026300788,0.11027137061596824,-0.2772296774590236,3.0326729900817555,18.029856046987508
1687876393.311,-0.3272185950575857,0.6894140493102264,0.6924056114978194,-1.644014847720895,-0.47276156568940964,0.9636050857575611,1.6144879945542716,-0.3272185950575857,0.6894139894236165,0.6924056114978194,-1.644014847720895,-0.47276156568940964,0.963605205639864,1.6144879945542716,0.5914698791503906,53.13953589248657,-11.173718338012694,-20.604294357299803,0.48244544982910154,0.2132673225402832,0.11013805389404296,0.5848303438765098,8.729433041284768,-2.725392039279332,-4.653814687779737,-0.021781305555874715,0.1718168840275358,0.11011455966132311,-0.30284832567322667,3.0731859849240823,18.01150445429904
1687876393.410,-0.3272185950575857,0.6894140493102264,0.6924056114978194,-1.6440147877252018,-0.47276156568940964,0.963605205639864,1.6144879345585788,-0.32721865505327874,0.6894140493102264,0.6924056114978194,-1.644014847720895,-0.47276156568940964,0.9636050857575611,1.6144879945542716,0.5941583786010742,53.15163414001465,-11.180761337280273,-20.59901210784912,0.48860807418823243,0.2122660675048828,0.10980430221557617,0.5876153155860583,8.73666776404265,-2.721063270623398,-4.671987850667,-0.019915055004438336,0.1725679180762077,0.1103269131420536,-0.2806411676559749,3.0331988811234414,18.027552612998477
1687876393.510,-0.3272185950575857,0.6894141093059194,0.6924056114978194,-1.644014847720895,-0.47276156568940964,0.9636050857575611,1.6144879945542716,-0.3272185950575857,0.6894141093059194,0.6924056114978194,-1.6440147877252018,-0.4727614698708337,0.963605205639864,1.6144878147853585,0.588781379699707,53.14088014221191,-11.167555713653565,-20.594610233306884,0.48244544982910154,0.21093106079101562,0.11080555725097656,0.5873757892394345,8.734949734655851,-2.7223338868851643,-4.65199187759746,-0.02211631825530703,0.17187479048020365,0.10994445490248633,-0.3027064874485368,3.0910531877565814,18.016999067027047
1687876393.610,-0.3272185950575857,0.6894141093059194,0.6924056713844293,-1.6440147877252018,-0.47276156568940964,0.963605205639864,1.6144879945542716,-0.3272185950575857,0.6894139894236165,0.6924056114978194,-1.6440147877252018,-0.47276156568940964,0.9636050857575611,1.6144879945542716,0.582060131072998,53.14625714111328,-11.176359462738038,-20.60253360748291,0.4833258247375488,0.2132673225402832,0.11047180557250977,0.5830085659792498,8.732975799507603,-2.722943105995493,-4.670625010189502,-0.019645506895467835,0.172213549426258,0.1099814510880493,-0.2894003388584699,3.0212123826904445,18.01921748810646
1687876393.709,-0.3272185950575857,0.6894140493102264,0.6924056114978194,-1.644014847720895,-0.47276156568940964,0.9636050857575611,1.6144879345585788,-0.3272185950575857,0.6894140493102264,0.6924056114978194,-1.644014847720895,-0.4727613740522578,0.9636050857575611,1.6144879945542716,0.5981911277770996,53.17314213562012,-11.156991214752198,-20.615739231109618,0.48948844909667966,0.2139348258972168,0.11080555725097656,0.593069192513281,8.739729093663984,-2.7203537059152705,-4.656589259498365,-0.02051702181000526,0.1719567730946134,0.11001621844565686,-0.29244954606085527,3.091617310188447,18.025622407683255
1687876393.809,-0.3272185950575857,0.6894139894236165,0.6924056713844293,-1.644014847720895,-0.47276156568940964,0.9636050857575611,1.6144879945542716,-0.3272185950575857,0.6894140493102264,0.6924056114978194,-1.644014847720895,-0.47276156568940964,0.9636050857575611,1.6144879945542716,0.5847486305236816,53.14491289138794,-11.16579496383667,-20.5743616104126,0.48772769927978515,0.2132673225402832,0.10913679885864258,0.5846852333455158,8.73543110044742,-2.7230521609599627,-4.672763800465466,-0.018629601689941575,0.17302476373330317,0.10965253793514071,-0.2871508525073947,3.0252417899157367,18.02095895414488
1687876393.942,-0.3272185950575857,0.6894139894236165,0.6924056114978194,-1.644014847720895,-0.47276156568940964,0.9636050857575611,1.6144879945542716,-0.32721865505327874,0.6894141093059194,0.6924055516112095,-1.644014727838592,-0.47276156568940964,0.9636050857575611,1.6144879945542716,0.5874371299743653,53.15566688919068,-11.15963233947754,-20.613978481292726,0.48948844909667966,0.2129335708618164,0.11013805389404296,0.5877766367647077,8.733915699626682,-2.7238083916609384,-4.6529073175296904,-0.020301588316646725,0.17207641567675624,0.10983903764293573,-0.3012267116592739,3.0847457491513617,18.017459666111108
1687876394.009,-0.3272185950575857,0.6894140493102264,0.6924056114978194,-1.644014847720895,-0.47276156568940964,0.963605205639864,1.6144879345585788,-0.3272185950575857,0.6894139894236165,0.6924056114978194,-1.6440147877252018,-0.47276156568940964,0.9636050857575611,1.6144879345585788,0.582060131072998,53.159699638366696,-11.177239837646484,-20.569079360961915,0.4850865745544434,0.2132673225402832,0.11180681228637696,0.5858941545033625,8.73380691975524,-2.725143680251339,-4.669350296021016,-0.01914770090746309,0.1732113283718344,0.11025447989607398,-0.28904868844286496,3.0382063324667907,18.025050230413225
1687876394.110,-0.3272185950575857,0.6894139894236165,0.6924056114978194,-1.6440147877252018,-0.47276156568940964,0.9636050857575611,1.6144881143274914,-0.3272185950575857,0.6894140493102264,0.6924056114978194,-1.6440147877252018,-0.47276156568940964,0.9636050857575611,1.6144879345585788,0.5874371299743653,53.16642088699341,-11.153469715118408,-20.62806447982788,0.493890323638916,0.21360107421875,0.10980430221557617,0.5878568624570655,8.733890554385214,-2.7224617823778243,-4.655371406856069,-0.021128635641557817,0.17275196436704032,0.11029631437274093,-0.29470228598274384,3.076487578061979,18.014949048055463
1687876394.210,-0.3272185950575857,0.6894140493102264,0.6924056114978194,-1.6440147877252018,-0.47276156568940964,0.9636050857575611,1.6144879945542716,-0.32721865505327874,0.6894140493102264,0.6924056114978194,-1.6440147877252018,-0.47276156568940964,0.9636050857575611,1.6144879945542716,0.5860928802490234,53.12878189468384,-11.177239837646484,-20.558514862060548,0.48244544982910154,0.21093106079101562,0.11013805389404296,0.5853516572126354,8.732216781029793,-2.726730094558511,-4.668246002418272,-0.019820527060187207,0.1734489353191525,0.10985267231247957,-0.28957979597706573,3.0348644419775,18.019708117271975
1687876394.310,-0.32721865505327874,0.6894141093059194,0.6924056114978194,-1.644014847720895,-0.47276156568940964,0.9636050857575611,1.6144879945542716,-0.32721865505327874,0.6894141093059194,0.6924056114978194,-1.644014847720895,-0.47276156568940964,0.9636050857575611,1.6144879945542716,0.5834043807983399,53.15566688919068,-11.1719575881958,-20.649193477630615,0.493890323638916,0.2156035842895508,0.10947055053710937,0.5847619568822886,8.72843962028005,-2.722404844833369,-4.657711183567627,-0.02188757888397202,0.17237003437861928,0.10982148999091108,-0.2922660705760993,3.0521301985384524,18.004500058323032
1687876394.410,-0.3272185950575857,0.6894139894236165,0.6924056114978194,-1.644014847720895,-0.47276156568940964,0.9636050857575611,1.6144879945542716,-0.3272185950575857,0.6894139894236165,0.6924056114978194,-1.644014847720895,-0.47276156568940964,0.9636050857575611,1.6144879945542716,0.5981911277770996,53.1435686416626,-11.18780433654785,-20.56027561187744,0.4789239501953125,0.20859479904174805,0.10913679885864258,0.5876001817014251,8.734030039567799,-2.722710855406948,-4.666951113624256,-0.021198997670768733,0.17302102920990714,0.10992666217130054,-0.2912515463379505,3.0523484714962463,18.026754302125774
1687876394.509,-0.3272185950575857,0.6894140493102264,0.6924056114978194,-1.644014847720895,-0.47276156568940964,0.9636050857575611,1.6144879345585788,-0.3272185950575857,0.6894139894236165,0.6924056114978194,-1.6440147877252018,-0.47276156568940964,0.9636050857575611,1.6144879945542716,0.5793716316223144,53.15163414001465,-11.178120212554932,-20.639509353637695,0.49036882400512694,0.21493608093261718,0.10947055053710937,0.5885242677659386,8.736225035495842,-2.717414976560785,-4.658346375869425,-0.02115802426701397,0.17228033633417256,0.10979465122417412,-0.29545713207086144,3.0741653808568246,18.01807056319755
1687876394.609,-0.3272185950575857,0.6894139894236165,0.6924056114978194,-1.644014847720895,-0.47276156568940964,0.9636050857575611,1.6144879945542716,-0.3272185950575857,0.6894140493102264,0.6924056114978194,-1.6440147877252018,-0.47276156568940964,0.9636050857575611,1.6144879945542716,0.5860928802490234,53.14625714111328,-11.17547908782959,-20.548830738067625,0.4745220756530762,0.211932315826416,0.11113930892944336,0.585523495348963,8.733526113045603,-2.7203714445977365,-4.661284658483315,-0.01994266261344103,0.1726692349047814,0.11013209358587635,-0.29462627061307156,3.060452429881193,18.011538917198948
1687876394.708,-0.3272185950575857,0.6894140493102264,0.6924056114978194,-1.6440147877252018,-0.47276156568940964,0.9636050857575611,1.6144879945542716,-0.3272185950575857,0.6894140493102264,0.6924056114978194,-1.6440147877252018,-0.47276156568940964,0.9636050857575611,1.6144881143274914,0.588781379699707,53.170453636169434,-11.17547908782959,-20.646552352905275,0.4842061996459961,0.2156035842895508,0.10947055053710937,0.586923076800884,8.738532050837467,-2.7200949359780684,-4.661798613740767,-0.02203999443969275,0.1726075057948012,0.10979702447286666,-0.29467571426004185,3.0619088399434573,18.026478903384817
1687876394.842,-0.32721865505327874,0.6894140493102264,0.6924056114978194,-1.6440147877252018,-0.47276156568940964,0.9636050857575611,1.6144879945542716,-0.3272185950575857,0.6894141093059194,0.6924056114978194,-1.644014847720895,-0.47276156568940964,0.9636050857575611,1.6144879945542716,0.5981911277770996,53.142224391937255,-11.164914588928223,-20.558514862060548,0.48068470001220703,0.2139348258972168,0.11047180557250977,0.5858349645915366,8.73668358811484,-2.721406224702302,-4.6626259496196285,-0.02046919419185189,0.17286895920603407,0.10995484304791969,-0.2959040029839338,3.062088817295281,18.01644654670416
1687876394.909,-0.3272185950575857,0.6894140493102264,0.6924056114978194,-1.6440147877252018,-0.47276156568940964,0.963605205639864,1.6144879345585788,-0.3272185950575857,0.6894140493102264,0.6924056114978194,-1.6440147877252018,-0.47276156568940964,0.9636050857575611,1.6144879345585788,0.5914698791503906,53.16776513671875,-11.164914588928223,-20.635987854003908,0.4921295738220215,0.21360107421875,0.10947055053710937,0.5936968734106924,8.735356704734905,-2.7186824957487503,-4.661411006547355,-0.020967482147084316,0.17235568526661835,0.10953890177761393,-0.286148791460905,3.068668896318401,18.02275321659805
1687876395.008,-0.3272185950575857,0.6894140493102264,0.6924056114978194,-1.644014847720895,-0.47276156568940964,0.9636050857575611,1.6144881143274914,-0.3272185950575857,0.6894139894236165,0.6924056114978194,-1.6440147877252018,-0.47276156568940964,0.9636050857575611,1.6144879345585788,0.5780273818969727,53.135503143310544,-11.164914588928223,-20.555873737335205,0.4815650749206543,0.21026355743408204,0.11047180557250977,0.5883125463147506,8.731405108468627,-2.724651366182557,-4.662117052992753,-0.020101968902763886,0.17251461406505764,0.10983356563218152,-0.29175186677573883,3.061497781855982,18.020877525339593
1687876395.113,-0.3272185950575857,0.6894140493102264,0.6924056114978194,-1.644014847720895,-0.47276156568940964,0.9636050857575611,1.6144879345585788,-0.3272185950575857,0.6894139894236165,0.6924056114978194,-1.6440147877252018,-0.47276156568940964,0.9636050857575611,1.6144879345585788,0.5874371299743653,53.170453636169434,-11.16843608856201,-20.638628978729248,0.49036882400512694,0.2159373359680176,0.10947055053710937,0.5883236830625358,8.733406732185047,-2.7213718750732765,-4.665293570902287,-0.019246781354013264,0.1726888024558669,0.10993120116186472,-0.2855762189261555,3.0455311227644675,18.020637030146418
1687876395.213,-0.3272185950575857,0.6894140493102264,0.6924056114978194,-1.644014847720895,-0.4727613740522578,0.9636050857575611,1.6144879345585788,-0.3272185950575857,0.6894140493102264,0.6924056114978194,-1.644014847720895,-0.47276156568940964,0.9636050857575611,1.6144879945542716,0.5928141288757324,53.15297838973999,-11.153469715118408,-20.55411298751831,0.48948844909667966,0.2122660675048828,0.10913679885864258,0.5901133235655277,8.73735727346379,-2.7244489040251088,-4.660774315182503,-0.020734550655679182,0.17246074064357236,0.1100701645854453,-0.292401293628506,3.074180167785115,18.02783490799263
1687876395.312,-0.3272185950575857,0.6894140493102264,0.6924056114978194,-1.6440147877252018,-0.47276156568940964,0.9636050857575611,1.6144879345585788,-0.3272185950575857,0.6894141093059194,0.6924056114978194,-1.644014847720895,-0.47276156568940964,0.9636050857575611,1.6144879945542716,0.5780273818969727,53.148945640563966,-11.169316463470459,-20.643030853271483,0.4868473243713379,0.21493608093261718,0.11013805389404296,0.5883690187851844,8.731945180474552,-2.721858979412973,-4.664926074042619,-0.019528846121072054,0.1728445437997588,0.11050947396459603,-0.28581037270458753,3.0441633544825395,18.013992936696233
1687876395.412,-0.3272185950575857,0.6894139894236165,0.6924056114978194,-1.644014847720895,-0.47276156568940964,0.9636050857575611,1.6144879345585788,-0.3272185950575857,0.6894139894236165,0.6924056114978194,-1.644014847720895,-0.47276156568940964,0.963605205639864,1.6144879945542716,0.5874371299743653,53.16373238754272,-11.164914588928223,-20.569959735870363,0.48772769927978515,0.2129335708618164,0.11180681228637696,0.5910425743124834,8.736413837311956,-2.7257296007488097,-4.656592042115182,-0.02133214533237327,0.17267215993197949,0.1100592480133929,-0.2974191328136193,3.091529241011962,18.026851998549887
