Edkamb/ConfLiftingaaS/DTProject/experiments/first_experiment/outputs.csv
time,{ur5e}.ur5e.actual_q0,{ur5e}.ur5e.actual_q1,{ur5e}.ur5e.actual_q2,{ur5e}.ur5e.actual_q3,{ur5e}.ur5e.actual_q4,{ur5e}.ur5e.actual_q5,{ur5e}.ur5e.actual_X,{ur5e}.ur5e.actual_Y,{ur5e}.ur5e.actual_Z,{ur5e}.ur5e.actual_x,{ur5e}.ur5e.actual_y,{ur5e}.ur5e.actual_z,{kuka}.kuka.actual_q0,{kuka}.kuka.actual_q1,{kuka}.kuka.actual_q2,{kuka}.kuka.actual_q3,{kuka}.kuka.actual_q4,{kuka}.kuka.actual_q5,{kuka}.kuka.actual_q6,{kuka}.kuka.actual_X,{kuka}.kuka.actual_Y,{kuka}.kuka.actual_Z,{kuka}.kuka.actual_x,{kuka}.kuka.actual_y,{kuka}.kuka.actual_z,{rabbitmq}.rabbitmq.target_X_ur5e,{rabbitmq}.rabbitmq.target_Y_ur5e,{rabbitmq}.rabbitmq.target_Z_ur5e,{rabbitmq}.rabbitmq.target_X_kuka,{rabbitmq}.rabbitmq.target_Y_kuka,{rabbitmq}.rabbitmq.target_Z_kuka,{rabbitmq}.rabbitmq.motion_time_ur5e,{rabbitmq}.rabbitmq.motion_time_kuka
0.0,0.0,0.0,0.0,0.0,0.0,0.0,0,0,0,0.0,0.0,0.0,0.0,0.0,0.0,0.0,0.0,0.0,0.0,0,0,0,0.0,0.0,0.0,0,21,4,4,4,2,2.0,2.0
0.5,-0.1830045543380319,-0.17435522427172018,0.14601628776627237,-0.16218765131358223,-0.09774308285930208,-0.038014347690199214,13,39,3,-0.8485417915805868,0.048277705067845886,0.16046384801098454,-0.024455482260119593,-0.0294128717823116,0.15077968993753646,-0.1614406229092275,0.031226254404487192,0.09887709551809977,0.11488079976583239,12,1,20,0.07683681802288435,0.014497296295567352,1.2930363490674885,0,21,4,4,4,2,2.0,2.0
1.0,-1.0335058300550468,-0.984659324120053,0.8246170989312702,-0.9159437796608277,-0.5519974426212884,-0.2146834547679652,1,32,0,-0.5380758735310701,0.6807959575141943,0.006162217052309233,-0.13811068027277373,-0.16610720195264148,0.8515180901809467,-0.9117249873257954,0.17634815753387367,0.558401702331999,0.6487815385187922,5,-2,15,0.2372610021683136,0.33820032026339986,1.0430135449067577,0,21,4,4,4,2,2.0,2.0
1.5,-1.9316582808122345,-1.8403624652162547,1.5412379894994006,-1.7119307267439974,-1.0317023862069512,-0.4012508310028896,-1,22,3,-0.03547858336409566,0.7645437885918147,0.15878603211594078,-0.2581336567818924,-0.3104601278710543,1.5915168761765346,-1.704045657388792,0.32960082942942287,1.0436721699690878,1.212595221887792,3,3,4,0.00602325633502559,0.4723155549278505,0.5191174686847468,0,21,4,4,4,2,2.0,2.0
2.0,-2.1713581310143155,-2.0687333999782638,1.7324905101333368,-1.9243645422034916,-1.159726535138173,-0.45104212433889934,0,21,4,0.027999334757471152,0.7110001263425946,0.21999937994939808,-0.29016551224895615,-0.34898518527050193,1.7890085135965776,-1.915501013064766,0.37050106019254336,1.1731816516857378,1.3630663978351443,4,4,2,-0.055000000000211186,0.3999999999987121,0.40000000000053243,0,21,4,4,4,2,2.0,2.0
2.5,-2.1713581310143155,-2.0687333999782638,1.7324905101333368,-1.9243645422034916,-1.159726535138173,-0.45104212433889934,0,21,4,0.027999334757471152,0.7110001263425946,0.21999937994939808,-0.29016551224895615,-0.34898518527050193,1.7890085135965776,-1.915501013064766,0.37050106019254336,1.1731816516857378,1.3630663978351443,4,4,2,-0.055000000000211186,0.3999999999987121,0.40000000000053243,0,21,4,4,4,2,2.0,2.0
3.0,-2.171358131014313,-2.0687333999782638,1.7324905101333394,-1.9243645422034927,-1.1597265351381734,-0.45104212433889806,0,21,4,0.027999334757470472,0.7110001263425938,0.21999937994939683,-0.2901655122489562,-0.3489851852705021,1.7890085135965788,-1.9155010130647694,0.37050106019254353,1.1731816516857387,1.3630663978351456,4,4,2,-0.05500000000021128,0.39999999999871083,0.4000000000005312,0,21,4,4,4,2,2.0,2.0
3.5,-2.171358131014313,-2.0687333999782638,1.7324905101333394,-1.9243645422034927,-1.1597265351381734,-0.45104212433889806,0,21,4,0.027999334757470472,0.7110001263425938,0.21999937994939683,-0.2901655122489562,-0.3489851852705021,1.7890085135965788,-1.9155010130647694,0.37050106019254353,1.1731816516857387,1.3630663978351456,4,4,2,-0.05500000000021128,0.39999999999871083,0.4000000000005312,0,21,4,4,4,2,2.0,2.0
4.0,-2.171358131014313,-2.0687333999782638,1.7324905101333394,-1.9243645422034927,-1.1597265351381734,-0.45104212433889806,0,21,4,0.027999334757470472,0.7110001263425938,0.21999937994939683,-0.2901655122489562,-0.3489851852705021,1.7890085135965788,-1.9155010130647694,0.37050106019254353,1.1731816516857387,1.3630663978351456,4,4,2,-0.05500000000021128,0.39999999999871083,0.4000000000005312,0,21,4,4,4,2,2.0,2.0
4.5,-2.171358131014313,-2.0687333999782638,1.7324905101333394,-1.9243645422034927,-1.1597265351381734,-0.45104212433889806,0,21,4,0.027999334757470472,0.7110001263425938,0.21999937994939683,-0.2901655122489562,-0.3489851852705021,1.7890085135965788,-1.9155010130647694,0.37050106019254353,1.1731816516857387,1.3630663978351456,4,4,2,-0.05500000000021128,0.39999999999871083,0.4000000000005312,0,21,4,4,4,2,2.0,2.0
5.0,-2.171358131014313,-2.0687333999782638,1.7324905101333394,-1.9243645422034927,-1.1597265351381734,-0.45104212433889806,0,21,4,0.027999334757470472,0.7110001263425938,0.21999937994939683,-0.2901655122489562,-0.3489851852705021,1.7890085135965788,-1.9155010130647694,0.37050106019254353,1.1731816516857387,1.3630663978351456,4,4,2,-0.05500000000021128,0.39999999999871083,0.4000000000005312,3,18,2,8,7,4,2.0,2.0
5.5,-2.2131039316715744,-2.0711722026705437,1.767429616800508,-1.9348733439551944,-1.1370544979866641,-0.49242759406077186,0,21,4,0.042217038527318666,0.7016670076616628,0.20835196436234982,-0.26123531336621414,-0.44178913224405514,1.690441925753731,-1.9231352172526435,0.415799181802542,1.2699576616645467,1.320403984140526,4,4,2,-0.04607701259597549,0.3866077451562908,0.397245179433877,3,18,2,8,7,4,2.0,2.0
6.0,-2.4071147137707314,-2.0825063730605047,1.9298067494370594,-1.9837122885836993,-1.0316877403657312,-0.6847637625344034,1,19,3,0.10610467943660679,0.6493378280777939,0.1624045145672752,-0.12678417281661727,-0.8730891923878474,1.2323603823372271,-1.9586146643317466,0.6263191350148851,1.7197176156914036,1.122133305010764,6,4,3,-0.05829423238677549,0.32336724888052787,0.43759646174910616,3,18,2,8,7,4,2.0,2.0
6.5,-2.6119953699093994,-2.094475564881482,2.1012814124250645,-2.0352875408059914,-0.9204175820631504,-0.8878759811941638,3,18,2,0.16465659277433267,0.5809201025375673,0.12734694952064432,0.015199883926760083,-1.3285537720303582,0.7486138288481514,-1.9960819242353154,0.8486339243155261,2.1946763447316497,0.9127540818890122,7,6,4,-0.1662768825602707,0.2347657842678099,0.49488220419498585,3,18,2,8,7,4,2.0,2.0
7.0,-2.6666741302293655,-2.097669915110232,2.1470447469202556,-2.0490519971868606,-0.8907216877251627,-0.9420827791001449,3,18,2,0.17799897749269727,0.5610017213277299,0.1199968899359129,0.053092735083352716,-1.4501086276905772,0.6195110509073356,-2.0060812251099014,0.9079655240324167,2.3214338190414248,0.856874739383851,8,7,4,-0.20499999999514054,0.1999999999973858,0.5000000000007365,3,18,2,8,7,4,2.0,2.0
7.5,-2.6666741302293655,-2.097669915110232,2.1470447469202556,-2.0490519971868606,-0.8907216877251627,-0.9420827791001449,3,18,2,0.17799897749269727,0.5610017213277299,0.1199968899359129,0.053092735083352716,-1.4501086276905772,0.6195110509073356,-2.0060812251099014,0.9079655240324167,2.3214338190414248,0.856874739383851,8,7,4,-0.20499999999514054,0.1999999999973858,0.5000000000007365,0,20,3,6,6,2,2.0,2.0
8.0,-2.6309578477436766,-2.0878852275823654,2.1158292600530144,-2.0474363337174624,-0.9096156753397144,-0.9058761374318373,3,18,2,0.17182124595795953,0.5745547524451246,0.12321458476425048,0.06288553482548039,-1.4133573386478036,0.6665237706566797,-2.0126553737456394,0.9074303188506574,2.2601985487372898,0.877754898192304,8,7,4,-0.19510044681831176,0.21118506019224906,0.49557883733182223,0,20,3,6,6,2,2.0,2.0
8.5,-2.464968843110282,-2.0424115547820074,1.9707573983239486,-2.039927647134098,-0.9974242035355522,-0.7376082216976495,2,19,2,0.13738952055605144,0.6359551126332832,0.14013460679639275,0.10839690859236788,-1.2425582111168663,0.8850122026324629,-2.043208284418674,0.9049429890052163,1.9756117760149907,0.9747940225354114,7,6,3,-0.16174570950207345,0.2574815724280266,0.4628147296353303,0,20,3,6,6,2,2.0,2.0
9.0,-2.2896799451782424,-1.9943901210267911,1.817557571506497,-2.031998270130953,-1.0901523946014453,-0.5599127317372677,0,20,3,0.09162386343194881,0.6960882128329928,0.16286659849893534,0.1564581555923747,-1.0621896927395438,1.1157419219685194,-2.07547298804962,0.9023163011208964,1.6750804133099484,1.0772699738790663,6,6,2,-0.15263908579671634,0.29324773456518693,0.4140139664425356,0,20,3,6,6,2,2.0,2.0
9.5,-2.2428986637365727,-1.9815741113750773,1.7766714440921936,-2.029882069837509,-1.1148997896447543,-0.5124891765388377,0,20,3,0.07799841819494512,0.7109998797122434,0.16999821907538046,0.16928479064382346,-1.0140527569668183,1.177319306871712,-2.084083825353056,0.9016152879556278,1.5948742940028149,1.1046188612151542,6,6,2,-0.15500000000002323,0.2999999999972583,0.4000000000008125,0,20,3,6,6,2,2.0,2.0
